%
(Header)
(Generated by gcodetools from Inkscape.)
(Using default header. To add your own header create file "header" in the output dir.)
M3
(Header end.)
G21 (All units in mm)

(Start cutting path id: path3764)
(Change tool to Cylindrical cutter)

G00 Z5.000000
G00 X4.363420 Y15.925713

G01 Z0.000000 F100.0(Penetrate)
G03 X3.239065 Y15.698985 Z0.000000 I0.314933 J-4.462997 F400.000000
G03 X2.144227 Y15.165036 Z0.000000 I1.556175 J-4.580303
G03 X0.800953 Y13.860358 Z0.000000 I2.705214 J-4.129088
G03 X0.100872 Y12.236427 Z0.000000 I3.612430 J-2.520195
G03 X0.010664 Y10.835136 Z0.000000 I4.904334 J-1.019267
G03 X0.324666 Y9.314437 Z0.000000 I6.098366 J0.466454
G03 X0.877064 Y8.114977 Z0.000000 I6.213114 J2.134452
G03 X1.721445 Y6.943107 Z0.000000 I6.764716 J3.984119
G03 X2.022010 Y6.620548 Z0.000000 I4.946138 J4.307575
G03 X2.644180 Y6.017065 Z0.000000 I18.154291 J18.093956
G03 X3.244387 Y5.468993 Z0.000000 I21.028516 J22.426128
G03 X4.742656 Y4.151201 Z0.000000 I122.524306 J137.793985
G02 X6.159852 Y2.880093 Z0.000000 I-41.311203 J-47.484660
G02 X6.959093 Y2.102335 Z0.000000 I-14.821865 J-16.030814
G02 X7.873285 Y1.093686 Z0.000000 I-13.107107 J-12.798272
G02 X8.542734 Y0.218282 Z0.000000 I-9.114807 J-7.664063
G03 X8.685325 Y0.043468 Z0.000000 I1.194679 J0.828903
G03 X8.747235 Y0.004408 Z0.000000 I0.108708 J0.103710
G03 X8.813746 Y-0.002541 Z0.000000 I0.049355 J0.150607
G03 X8.888347 Y0.019846 Z0.000000 I-0.023153 J0.212640
G03 X8.970660 Y0.085138 Z0.000000 I-0.122038 J0.238384
G03 X9.525000 Y0.771152 Z0.000000 I-14.547381 J12.322119
G02 X9.997086 Y1.352010 Z0.000000 I11.421208 J-8.800200
G02 X10.459861 Y1.862009 Z0.000000 I9.185775 J-7.870245
G02 X10.824649 Y2.229014 Z0.000000 I10.970796 J-10.539716
G02 X11.321411 Y2.700407 Z0.000000 I19.534752 J-20.088623
G02 X11.810822 Y3.142471 Z0.000000 I18.119430 J-19.568186
G02 X12.900643 Y4.091122 Z0.000000 I79.730769 J-90.495230
G03 X14.698100 Y5.692137 Z0.000000 I-45.113807 J52.458698
G03 X15.538759 Y6.524738 Z0.000000 I-11.292604 J12.242596
G03 X16.330145 Y7.427530 Z0.000000 I-12.514722 J11.768638
G03 X16.755842 Y8.015774 Z0.000000 I-4.822454 J3.938044
G03 X17.064859 Y8.565252 Z0.000000 I-4.764201 J3.040935
G03 X17.309813 Y9.143009 Z0.000000 I-5.077173 J2.493399
G03 X17.520472 Y9.881850 Z0.000000 I-5.339262 J1.921787
G03 X17.641094 Y10.697989 Z0.000000 I-6.380661 J1.360015
G03 X17.658403 Y11.109244 Z0.000000 I-4.897851 J0.412137
G03 X17.641094 Y11.515993 Z0.000000 I-4.767644 J0.000855
G03 X17.522507 Y12.291097 Z0.000000 I-5.873155 J-0.501938
G03 X17.319184 Y12.967344 Z0.000000 I-4.682023 J-1.039025
G03 X16.352204 Y14.490001 Z0.000000 I-4.238292 J-1.623199
G03 X14.861315 Y15.523329 Z0.000000 I-3.309117 J-3.182212
G03 X13.247539 Y15.917840 Z0.000000 I-1.973878 J-4.576403
G03 X11.633950 Y15.757042 Z0.000000 I-0.342989 J-4.734670
G03 X10.591152 Y15.311338 Z0.000000 I1.144944 J-4.121531
G03 X9.594453 Y14.543267 Z0.000000 I2.694509 J-4.527294
G03 X9.200215 Y14.115756 Z0.000000 I4.109241 J-4.184955
G03 X8.891102 Y13.699908 Z0.000000 I3.546929 J-2.959354
G02 X8.818131 Y13.600613 Z0.000000 I-1.016441 J0.670515
G01 X8.811727 Y13.602894 Z0.000000
G01 X8.809819 Y13.609438 Z0.000000
G03 X8.735109 Y13.724162 Z0.000000 I-5.868545 J-3.740043
G03 X7.823878 Y14.755064 Z0.000000 I-4.200548 J-2.794755
G03 X6.686792 Y15.485294 Z0.000000 I-3.172822 J-3.690168
G03 X5.509219 Y15.860141 Z0.000000 I-2.099919 J-4.559762
G03 X4.363420 Y15.925715 Z0.000000 I-0.828431 J-4.432157
G01 X4.363420 Y15.925713 Z0.000000
G00 Z5.000000

(End cutting path id: path3764)


(Start cutting path id: path3764)
(Change tool to Cylindrical cutter)

G00 Z5.000000
G00 X4.345230 Y15.522222

G01 Z0.000000 F100.0(Penetrate)
G02 X4.668747 Y15.537179 Z0.000000 I0.323517 J-3.491349 F400.000000
G02 X5.006688 Y15.522222 Z0.000000 I-0.000000 J-3.825271
G02 X5.837241 Y15.370022 Z0.000000 I-0.403380 J-4.543491
G02 X6.614583 Y15.070777 Z0.000000 I-1.206186 J-4.292545
G02 X7.251196 Y14.687523 Z0.000000 I-2.045540 J-4.118146
G02 X7.817886 Y14.206471 Z0.000000 I-2.677779 J-3.728801
G02 X8.250487 Y13.710401 Z0.000000 I-3.386411 J-3.389797
G02 X8.589037 Y13.188927 Z0.000000 I-3.416010 J-2.588365
G03 X8.685946 Y13.043811 Z0.000000 I0.894245 J0.492265
G03 X8.736762 Y13.003719 Z0.000000 I0.111622 J0.089229
G03 X8.817167 Y12.984761 Z0.000000 I0.085251 J0.181583
G03 X8.897717 Y12.999853 Z0.000000 I0.004763 J0.197088
G03 X8.956955 Y13.039917 Z0.000000 I-0.069342 J0.166354
G03 X9.011819 Y13.116159 Z0.000000 I-0.220344 J0.216419
G02 X9.218141 Y13.468738 Z0.000000 I3.111777 J-1.584296
G02 X9.500195 Y13.849277 Z0.000000 I3.953684 J-2.635660
G02 X10.024234 Y14.400301 Z0.000000 I4.050445 J-3.327385
G02 X10.600972 Y14.849732 Z0.000000 I3.242260 J-3.565900
G02 X11.386934 Y15.251635 Z0.000000 I2.158250 J-3.251214
G02 X12.279423 Y15.480321 Z0.000000 I1.495945 J-3.982300
G02 X12.537965 Y15.506387 Z0.000000 I0.440402 J-3.072959
G02 X12.912769 Y15.517252 Z0.000000 I0.370671 J-6.316506
G02 X13.327783 Y15.501131 Z0.000000 I-0.003554 J-5.441313
G02 X13.662422 Y15.459927 Z0.000000 I-0.285044 J-3.694549
G02 X14.816343 Y15.102366 Z0.000000 I-0.764869 J-4.509124
G02 X15.795625 Y14.473803 Z0.000000 I-1.778425 J-3.847863
G02 X16.382855 Y13.846333 Z0.000000 I-2.542000 J-2.967498
G02 X16.834115 Y13.084740 Z0.000000 I-3.313372 J-2.477728
G02 X17.244223 Y11.403426 Z0.000000 I-4.202503 J-1.915754
G02 X17.014913 Y9.529953 Z0.000000 I-5.488664 J-0.278967
G02 X16.707822 Y8.747349 Z0.000000 I-5.061177 J1.534435
G02 X16.294475 Y8.052144 Z0.000000 I-4.389225 J2.139214
G02 X15.607304 Y7.193266 Z0.000000 I-8.080032 J5.760332
G02 X14.532791 Y6.084305 Z0.000000 I-14.609614 J13.080741
G02 X13.894676 Y5.495620 Z0.000000 I-17.977660 J18.846989
G02 X12.684566 Y4.435622 Z0.000000 I-58.891810 J66.011076
G03 X11.125710 Y3.061547 Z0.000000 I55.526620 J-64.564943
G03 X10.394818 Y2.366910 Z0.000000 I13.364899 J-14.794298
G03 X9.772525 Y1.703291 Z0.000000 I9.967612 J-9.970453
G03 X9.196476 Y1.003754 Z0.000000 I10.601104 J-9.316675
G02 X9.016708 Y0.771539 Z0.000000 I-58.072087 J44.770494
G02 X8.956697 Y0.695074 Z0.000000 I-8.284845 J6.440241
G02 X8.895998 Y0.619193 Z0.000000 I-8.117576 J6.431176
G02 X8.858030 Y0.572705 Z0.000000 I-4.253453 J3.435259
G01 X8.819996 Y0.526401 Z0.000000
G01 X8.777552 Y0.584832 Z0.000000
G03 X8.259611 Y1.257889 Z0.000000 I-11.859998 J-8.590862
G03 X7.685595 Y1.921527 Z0.000000 I-12.039845 J-9.833856
G03 X7.453399 Y2.169412 Z0.000000 I-10.999779 J-10.070891
G03 X7.120599 Y2.510776 Z0.000000 I-20.063235 J-19.226974
G03 X6.334024 Y3.267804 Z0.000000 I-16.658466 J-16.521492
G03 X4.959284 Y4.496254 Z0.000000 I-45.417137 J-49.442183
G02 X3.158416 Y6.094409 Z0.000000 I76.678672 J88.218476
G02 X2.415977 Y6.800887 Z0.000000 I14.071158 J15.530776
G02 X1.979470 Y7.264902 Z0.000000 I7.288143 J7.293400
G02 X1.667977 Y7.647000 Z0.000000 I4.616435 J4.081404
G02 X0.812223 Y9.160304 Z0.000000 I5.392286 J4.047883
G02 X0.428294 Y10.702939 Z0.000000 I5.224422 J2.119338
G02 X0.403252 Y11.335603 Z0.000000 I5.009439 J0.515113
G02 X0.456957 Y11.944827 Z0.000000 I4.736967 J-0.110603
G02 X1.073189 Y13.541326 Z0.000000 I3.948454 J-0.606881
G02 X2.362509 Y14.826581 Z0.000000 I3.770749 J-2.493349
G02 X3.313752 Y15.297048 Z0.000000 I2.397825 J-3.651294
G02 X4.345230 Y15.522214 Z0.000000 I1.429359 J-4.072687
G01 X4.345230 Y15.522222 Z0.000000
G00 Z5.000000

(End cutting path id: path3764)


(Footer)
M5
G00 X0.0000 Y0.0000
M2
(Using default footer. To add your own footer create file "footer" in the output dir.)
(end)
%