%
(Header)
(Generated by gcodetools from Inkscape.)
(Using default header. To add your own header create file "header" in the output dir.)
M3
(Header end.)
G21 (All units in mm)

(Start cutting path id: path75)
(Change tool to Default tool)

G00 Z5.000000
G00 X0.000000 Y28.268315

G01 Z0.000000 F100.0(Penetrate)
G01 X0.000000 Y14.134158 Z0.000000 F400.000000
G01 X0.000000 Y0.000000 Z0.000000
G01 X28.317567 Y0.000000 Z0.000000
G01 X56.634194 Y0.000000 Z0.000000
G01 X56.634194 Y14.134158 Z0.000000
G01 X56.634194 Y28.268315 Z0.000000
G01 X28.317567 Y28.268315 Z0.000000
G01 X0.000000 Y28.268315 Z0.000000
G00 Z5.000000

(End cutting path id: path75)


(Start cutting path id: path75)
(Change tool to Default tool)

G00 Z5.000000
G00 X3.041185 Y26.760811

G01 Z0.000000 F100.0(Penetrate)
G01 X28.506759 Y26.760811 Z0.000000 F400.000000
G01 X53.973271 Y26.760811 Z0.000000
G01 X53.973271 Y14.134158 Z0.000000
G01 X53.973271 Y1.507504 Z0.000000
G01 X28.506759 Y1.507504 Z0.000000
G01 X3.041185 Y1.507504 Z0.000000
G01 X3.041185 Y14.134158 Z0.000000
G01 X3.041185 Y26.760811 Z0.000000
G00 Z5.000000

(End cutting path id: path75)


(Start cutting path id: path75)
(Change tool to Default tool)

G00 Z5.000000
G00 X17.484697 Y19.787821

G01 Z0.000000 F100.0(Penetrate)
G01 X17.484697 Y14.134158 Z0.000000 F400.000000
G01 X17.484697 Y8.480494 Z0.000000
G01 X28.696891 Y8.480494 Z0.000000
G01 X39.910027 Y8.480494 Z0.000000
G01 X39.910027 Y14.134158 Z0.000000
G01 X39.910027 Y19.787821 Z0.000000
G01 X28.696891 Y19.787821 Z0.000000
G01 X17.484697 Y19.787821 Z0.000000
G00 Z5.000000

(End cutting path id: path75)


(Start cutting path id: path75)
(Change tool to Default tool)

G00 Z5.000000
G00 X19.841593 Y18.468492

G01 Z0.000000 F100.0(Penetrate)
G01 X28.640417 Y18.468492 Z0.000000 F400.000000
G01 X37.439240 Y18.468492 Z0.000000
G01 X37.351704 Y14.275551 Z0.000000
G02 X37.262127 Y10.082642 Z0.000000 I-4258.558539 J88.881866
G02 X37.256637 Y9.941214 Z0.000000 I-4.176337 J0.091280
G02 X37.182715 Y9.869943 Z0.000000 I-0.075136 J0.003959
G02 X28.489816 Y9.799821 Z0.000000 I-8.692899 J538.786300
G01 X19.730525 Y9.799821 Z0.000000
G01 X19.786059 Y14.134158 Z0.000000
G01 X19.841593 Y18.468492 Z0.000000
G00 Z5.000000

(End cutting path id: path75)


(Footer)
M5
G00 X0.0000 Y0.0000
M2
(Using default footer. To add your own footer create file "footer" in the output dir.)
(end)
%