%
(Header)
(Generated by gcodetools from Inkscape.)
(Using default header. To add your own header create file "header" in the output dir.)
M3
(Header end.)
G21 (All units in mm)

(Start cutting path id: path1500)
(Change tool to Cylindrical cutter)

G00 Z5.000000
G00 X10.138503 Y3.502973

G01 Z0.000000 F100.0(Penetrate)
G03 X10.058489 Y3.482527 Z0.000000 I0.028279 J-0.277452 F400.000000
G03 X9.909197 Y3.416433 Z0.000000 I1.761142 J-4.179659
G03 X9.755684 Y3.237896 Z0.000000 I0.120040 J-0.258481
G03 X9.819349 Y3.109406 Z0.000000 I0.101580 J-0.029686
G02 X10.277341 Y2.444057 Z0.000000 I-0.255702 J-0.666315
G02 X9.822115 Y0.997148 Z0.000000 I-2.516248 J-0.003406
G03 X9.747326 Y0.843955 Z0.000000 I0.446605 J-0.312885
G03 X9.759828 Y0.793750 Z0.000000 I0.048010 J-0.014704
G03 X10.211535 Y0.614385 Z0.000000 I0.433702 J0.433758
G03 X10.563500 Y0.817457 Z0.000000 I-0.012579 J0.428352
G03 X10.561718 Y0.876147 Z0.000000 I-0.045294 J0.027997
G03 X10.456013 Y0.969594 Z0.000000 I-0.250148 J-0.176452
G02 X10.373009 Y1.091612 Z0.000000 I0.075101 J0.140329
G02 X10.304428 Y2.279831 Z0.000000 I10.259167 J1.188219
G03 X10.244421 Y3.416988 Z0.000000 I-10.804811 J-0.000000
G03 X10.138513 Y3.502979 Z0.000000 I-0.096123 J-0.010173
G01 X10.138503 Y3.502973 Z0.000000
G00 Z5.000000

(End cutting path id: path1500)


(Start cutting path id: path1500)
(Change tool to Cylindrical cutter)

G00 Z5.000000
G00 X18.664149 Y3.474311

G01 Z0.000000 F100.0(Penetrate)
G03 X18.583768 Y3.487671 Z0.000000 I-0.056484 J-0.091348 F400.000000
G03 X18.314679 Y3.394383 Z0.000000 I0.290369 J-1.272301
G03 X18.154514 Y3.255201 Z0.000000 I0.169081 J-0.356319
G03 X18.169158 Y3.173897 Z0.000000 I0.049988 J-0.032967
G02 X18.238810 Y3.053907 Z0.000000 I-0.101893 J-0.139358
G02 X18.294284 Y2.068158 Z0.000000 I-8.730447 J-0.985749
G02 X18.259533 Y1.073803 Z0.000000 I-14.243510 J0.000000
G02 X18.219870 Y1.008174 Z0.000000 I-0.083836 J0.005867
G03 X18.166982 Y0.949795 Z0.000000 I0.074568 J-0.120700
G03 X18.144905 Y0.854383 Z0.000000 I0.195133 J-0.095412
G03 X18.191072 Y0.792892 Z0.000000 I0.064034 J-0.000000
G03 X18.514219 Y0.746895 Z0.000000 I0.323147 J1.112139
G03 X18.846974 Y0.846848 Z0.000000 I0.000000 J0.603872
G03 X18.853768 Y0.971242 Z0.000000 I-0.042735 J0.064717
G02 X18.792977 Y1.087243 Z0.000000 I0.108551 J0.130816
G02 X18.742422 Y2.245100 Z0.000000 I13.233980 J1.157858
G03 X18.705579 Y3.405250 Z0.000000 I-18.284592 J0.000000
G03 X18.664149 Y3.474311 Z0.000000 I-0.087553 J-0.005566
G01 X18.664149 Y3.474311 Z0.000000
G00 Z5.000000

(End cutting path id: path1500)


(Start cutting path id: path1500)
(Change tool to Cylindrical cutter)

G00 Z5.000000
G00 X22.550217 Y3.472617

G01 Z0.000000 F100.0(Penetrate)
G03 X22.139156 Y3.508154 Z0.000000 I-0.240741 J-0.389527 F400.000000
G03 X21.953251 Y3.233389 Z0.000000 I0.110096 J-0.274765
G03 X21.983631 Y3.166809 Z0.000000 I0.088147 J0.000000
G03 X22.065148 Y3.136375 Z0.000000 I0.081517 J0.093953
G02 X22.757571 Y2.444295 Z0.000000 I0.000000 J-0.692424
G02 X22.066248 Y0.971203 Z0.000000 I-1.913095 J-0.000948
G03 X21.991717 Y0.873082 Z0.000000 I0.173727 J-0.209329
G03 X21.995693 Y0.813003 Z0.000000 I0.058683 J-0.026287
G03 X22.401395 Y0.589654 Z0.000000 I0.400623 J0.247567
G03 X22.812594 Y0.821809 Z0.000000 I-0.005281 J0.489594
G03 X22.813248 Y0.881659 Z0.000000 I-0.049299 J0.030467
G03 X22.742038 Y0.941973 Z0.000000 I-0.121860 J-0.071679
G02 X22.679749 Y1.024200 Z0.000000 I0.035010 J0.091228
G02 X22.625181 Y2.206461 Z0.000000 I12.780044 J1.182261
G03 X22.589756 Y3.406366 Z0.000000 I-20.339285 J0.000000
G03 X22.550216 Y3.472603 Z0.000000 I-0.083518 J-0.004936
G01 X22.550217 Y3.472617 Z0.000000
G00 Z5.000000

(End cutting path id: path1500)


(Start cutting path id: path1500)
(Change tool to Cylindrical cutter)

G00 Z5.000000
G00 X0.790443 Y3.348081

G01 Z0.000000 F100.0(Penetrate)
G03 X0.034734 Y3.338065 Z0.000000 I-0.267740 J-8.312918 F400.000000
G01 X0.000000 Y3.301230 Z0.000000
G03 X0.026268 Y3.248717 Z0.000000 I0.065623 J0.000000
G03 X0.149379 Y3.189331 Z0.000000 I0.212928 J0.284114
G02 X0.230686 Y3.097697 Z0.000000 I-0.027884 J-0.106631
G02 X0.298759 Y2.101785 Z0.000000 I-7.251155 J-0.995912
G02 X0.233537 Y1.087922 Z0.000000 I-7.912765 J-0.000000
G02 X0.149931 Y0.949743 Z0.000000 I-0.198341 J0.025625
G03 X0.045376 Y0.841435 Z0.000000 I0.226253 J-0.323032
G01 X0.050161 Y0.795954 Z0.000000
G03 X0.559928 Y0.584245 Z0.000000 I0.511591 J0.512263
G03 X1.067704 Y0.793696 Z0.000000 I0.001803 J0.715859
G01 X1.071481 Y0.838422 Z0.000000
G03 X0.931003 Y0.986070 Z0.000000 I-0.580256 J-0.411427
G02 X0.808061 Y1.160635 Z0.000000 I0.230277 J0.292754
G02 X0.746897 Y1.536184 Z0.000000 I1.122358 J0.375549
G01 X0.746897 Y1.941328 Z0.000000
G01 X1.125582 Y1.941328 Z0.000000
G03 X1.478877 Y2.003827 Z0.000000 I-0.000000 J1.029801
G03 X1.723099 Y2.159607 Z0.000000 I-0.230156 J0.630153
G03 X1.929226 Y2.630549 Z0.000000 I-0.498979 J0.498979
G03 X1.761133 Y3.113210 Z0.000000 I-0.697381 J0.027730
G03 X1.544290 Y3.245862 Z0.000000 I-0.314202 J-0.270060
G03 X0.790443 Y3.348028 Z0.000000 I-0.873536 J-3.613253
G01 X0.790443 Y3.348081 Z0.000000
G00 Z5.000000

(End cutting path id: path1500)


(Start cutting path id: path1500)
(Change tool to Cylindrical cutter)

G00 Z5.000000
G00 X4.550282 Y3.136415

G01 Z0.000000 F100.0(Penetrate)
G03 X4.500636 Y3.115928 Z0.000000 I0.000000 J-0.070397 F400.000000
G03 X4.480278 Y3.066963 Z0.000000 I0.048705 J-0.048965
G02 X4.459798 Y3.005708 Z0.000000 I-0.101844 J-0.000000
G02 X4.219002 Y2.720247 Z0.000000 I-2.693807 J2.028025
G03 X3.963705 Y2.440594 Z0.000000 I8.479603 J-7.997438
G01 X3.957726 Y2.424797 Z0.000000
G01 X3.965895 Y2.412983 Z0.000000
G03 X4.107105 Y2.368019 Z0.000000 I0.498288 J1.320672
G02 X4.191308 Y2.278638 Z0.000000 I-0.029271 J-0.111927
G02 X4.256484 Y1.616162 Z0.000000 I-3.334209 J-0.662476
G03 X4.312439 Y0.935669 Z0.000000 I4.165924 J0.000000
G03 X4.387122 Y0.827374 Z0.000000 I0.152462 J0.025243
G03 X4.601718 Y0.778549 Z0.000000 I0.185197 J0.317966
G03 X4.836914 Y0.863202 Z0.000000 I-0.038054 J0.474781
G03 X4.933578 Y1.066093 Z0.000000 I-0.130850 J0.186813
G03 X4.816518 Y1.150936 Z0.000000 I-0.094096 J-0.006650
G01 X4.629656 Y1.104084 Z0.000000
G01 X4.629656 Y1.746800 Z0.000000
G02 X4.709862 Y2.309476 Z0.000000 I2.013805 J-0.000000
G02 X4.816518 Y2.389519 Z0.000000 I0.106656 J-0.031037
G03 X4.901680 Y2.465701 Z0.000000 I0.000000 J0.085691
G03 X4.834707 Y2.552127 Z0.000000 I-0.078010 J0.008711
G02 X4.720307 Y2.626530 Z0.000000 I0.022734 J0.160105
G02 X4.643987 Y2.856397 Z0.000000 I0.435607 J0.272234
G03 X4.592540 Y3.106025 Z0.000000 I-1.054965 J-0.087305
G01 X4.550280 Y3.136415 Z0.000000
G01 X4.550282 Y3.136415 Z0.000000
G00 Z5.000000

(End cutting path id: path1500)


(Start cutting path id: path1500)
(Change tool to Cylindrical cutter)

G00 Z5.000000
G00 X0.982266 Y3.121541

G01 Z0.000000 F100.0(Penetrate)
G02 X1.423639 Y2.853332 Z0.000000 I0.048346 J-0.417713 F400.000000
G02 X1.301419 Y2.282591 Z0.000000 I-0.502003 J-0.190957
G02 X0.969587 Y2.139836 Z0.000000 I-0.345084 J0.345099
G02 X0.777214 Y2.268254 Z0.000000 I-0.005437 J0.200154
G02 X0.755681 Y2.373867 Z0.000000 I0.305787 J0.117346
G02 X0.760677 Y2.735134 Z0.000000 I3.637047 J0.130369
G02 X0.851022 Y3.035124 Z0.000000 I0.688601 J-0.043780
G02 X0.982266 Y3.121536 Z0.000000 I0.151318 J-0.086950
G01 X0.982266 Y3.121541 Z0.000000
G00 Z5.000000

(End cutting path id: path1500)


(Start cutting path id: path1500)
(Change tool to Cylindrical cutter)

G00 Z5.000000
G00 X16.274080 Y2.613321

G01 Z0.000000 F100.0(Penetrate)
G03 X15.989883 Y2.552368 Z0.000000 I-0.000000 J-0.693011 F400.000000
G03 X15.710738 Y2.359762 Z0.000000 I0.385418 J-0.857174
G03 X15.528562 Y2.076175 Z0.000000 I0.560160 J-0.560155
G03 X15.457179 Y1.680111 Z0.000000 I1.063074 J-0.396063
G03 X15.528562 Y1.284050 Z0.000000 I1.134449 J0.000000
G03 X15.710738 Y1.000464 Z0.000000 I0.742330 J0.276567
G03 X16.232505 Y0.787316 Z0.000000 I0.514676 J0.514688
G03 X16.718911 Y1.010398 Z0.000000 I-0.006388 J0.655747
G03 X16.944161 Y1.403432 Z0.000000 I-0.856198 J0.751756
G03 X16.879314 Y1.493263 Z0.000000 I-0.064847 J0.021510
G03 X16.818966 Y1.473973 Z0.000000 I-0.000000 J-0.104046
G03 X16.748676 Y1.400107 Z0.000000 I0.155401 J-0.218252
G02 X16.680724 Y1.314342 Z0.000000 I-0.457570 J0.292734
G02 X16.558507 Y1.204426 Z0.000000 I-0.875128 J0.850156
G02 X16.227763 Y1.163448 Z0.000000 I-0.199414 J0.254277
G02 X15.904215 Y1.495467 Z0.000000 I0.254107 J0.571280
G02 X15.883892 Y1.781810 Z0.000000 I0.419222 J0.173647
G02 X15.988551 Y1.823991 Z0.000000 I0.067840 J-0.017394
G03 X16.067295 Y1.802117 Z0.000000 I0.077051 J0.124700
G03 X16.506142 Y1.830059 Z0.000000 I-0.048840 J4.227198
G03 X16.878682 Y1.945419 Z0.000000 I-0.122367 J1.054378
G03 X16.950421 Y2.064323 Z0.000000 I-0.062668 J0.118904
G03 X16.773173 Y2.436351 Z0.000000 I-0.479051 J-0.000000
G03 X16.274080 Y2.613335 Z0.000000 I-0.499093 J-0.615225
G01 X16.274080 Y2.613321 Z0.000000
G00 Z5.000000

(End cutting path id: path1500)


(Start cutting path id: path1500)
(Change tool to Cylindrical cutter)

G00 Z5.000000
G00 X23.843368 Y2.613321

G01 Z0.000000 F100.0(Penetrate)
G03 X23.264422 Y2.347604 Z0.000000 I-0.000000 J-0.763564 F400.000000
G03 X22.998907 Y1.631606 Z0.000000 I0.832635 J-0.715998
G03 X23.066373 Y1.282335 Z0.000000 I0.937805 J-0.000001
G03 X23.252465 Y1.000464 Z0.000000 I0.781638 J0.313674
G03 X23.765171 Y0.769392 Z0.000000 I0.561475 J0.561475
G03 X24.218195 Y0.940932 Z0.000000 I0.036205 J0.588359
G03 X24.383421 Y1.302394 Z0.000000 I-0.402468 J0.402465
G03 X24.249063 Y1.368126 Z0.000000 I-0.080417 J0.005808
G02 X23.935749 Y1.187818 Z0.000000 I-0.578158 J0.642271
G02 X23.725959 Y1.200003 Z0.000000 I-0.089164 J0.276933
G02 X23.396967 Y1.459206 Z0.000000 I0.365638 J0.802473
G02 X23.297665 Y1.747362 Z0.000000 I0.368439 J0.288156
G01 X23.317940 Y1.771580 Z0.000000
G02 X23.548468 Y1.792010 Z0.000000 I0.230528 J-1.290452
G03 X23.798784 Y1.801912 Z0.000000 I0.000000 J3.168744
G03 X24.145985 Y1.839414 Z0.000000 I-0.483726 J6.104346
G03 X24.429785 Y1.941403 Z0.000000 I-0.098790 J0.720751
G03 X24.492149 Y2.053285 Z0.000000 I-0.069178 J0.111882
G03 X24.316220 Y2.437496 Z0.000000 I-0.507504 J-0.000000
G03 X23.843368 Y2.613321 Z0.000000 I-0.472852 J-0.547914
G01 X23.843368 Y2.613321 Z0.000000
G00 Z5.000000

(End cutting path id: path1500)


(Start cutting path id: path1500)
(Change tool to Cylindrical cutter)

G00 Z5.000000
G00 X25.514653 Y2.608354

G01 Z0.000000 F100.0(Penetrate)
G03 X25.277846 Y2.594714 Z0.000000 I-0.055768 J-1.094258 F400.000000
G03 X25.053837 Y2.526222 Z0.000000 I0.148445 J-0.886063
G03 X24.797414 Y2.254188 Z0.000000 I0.205161 J-0.450259
G03 X24.850990 Y2.000913 Z0.000000 I0.221374 J-0.085476
G03 X25.035330 Y1.974465 Z0.000000 I0.109825 J0.109824
G03 X25.177309 Y2.179509 Z0.000000 I-0.133477 J0.244102
G02 X25.246776 Y2.305918 Z0.000000 I0.201789 J-0.028599
G02 X25.407166 Y2.375741 Z0.000000 I0.194666 J-0.228039
G02 X25.581542 Y2.365082 Z0.000000 I0.057132 J-0.497023
G01 X25.612218 Y2.326132 Z0.000000
G03 X25.620431 Y2.254033 Z0.000000 I0.320556 J-0.000000
G03 X25.654662 Y2.142024 Z0.000000 I0.818963 J0.189043
G02 X25.632069 Y2.058151 Z0.000000 I-0.068870 J-0.026428
G02 X25.280938 Y1.841063 Z0.000000 I-1.043569 J1.295416
G03 X24.906732 Y1.611582 Z0.000000 I0.758387 J-1.656512
G03 X24.788702 Y1.450250 Z0.000000 I0.234383 J-0.295315
G03 X24.765757 Y1.099493 Z0.000000 I0.559509 J-0.212729
G03 X24.932570 Y0.842812 Z0.000000 I0.442099 J0.104766
G03 X25.182759 Y0.764309 Z0.000000 I0.233689 J0.306842
G03 X25.501975 Y0.867054 Z0.000000 I-0.027029 J0.631229
G02 X25.661862 Y0.914770 Z0.000000 I0.159887 J-0.244018
G02 X25.731280 Y0.867054 Z0.000000 I0.000000 J-0.074354
G03 X25.883060 Y0.772634 Z0.000000 I0.138266 J0.053060
G03 X26.186033 Y0.908945 Z0.000000 I-0.046581 J0.508395
G03 X26.294535 Y1.114224 Z0.000000 I-0.245039 J0.260831
G03 X26.228477 Y1.179593 Z0.000000 I-0.056575 J0.008890
G02 X26.154720 Y1.227228 Z0.000000 I-0.010789 J0.064214
G02 X26.077444 Y1.754511 Z0.000000 I2.307155 J0.607431
G03 X25.999709 Y2.323880 Z0.000000 I-2.818355 J-0.094794
G03 X25.901055 Y2.482667 Z0.000000 I-0.290377 J-0.070370
G03 X25.746345 Y2.567040 Z0.000000 I-0.288277 J-0.344569
G03 X25.514653 Y2.608343 Z0.000000 I-0.279591 J-0.897884
G01 X25.514653 Y2.608354 Z0.000000
G00 Z5.000000

(End cutting path id: path1500)


(Start cutting path id: path1500)
(Change tool to Cylindrical cutter)

G00 Z5.000000
G00 X5.780044 Y2.606661

G01 Z0.000000 F100.0(Penetrate)
G03 X5.451498 Y2.437926 Z0.000000 I0.163718 J-0.723000 F400.000000
G03 X5.185282 Y2.052690 Z0.000000 I0.654400 J-0.736823
G03 X5.147043 Y1.439585 Z0.000000 I0.963100 J-0.367813
G03 X5.458134 Y0.938682 Z0.000000 I0.922782 J0.226048
G03 X5.873521 Y0.766078 Z0.000000 I0.481170 J0.571842
G03 X6.349449 Y0.859861 Z0.000000 I0.076533 J0.866115
G03 X6.657908 Y1.173661 Z0.000000 I-0.324455 J0.627438
G03 X6.794831 Y1.758340 Z0.000000 I-1.179872 J0.584680
G03 X6.730129 Y2.078817 Z0.000000 I-0.826032 J-0.000000
G03 X6.541272 Y2.359716 Z0.000000 I-0.811244 J-0.341488
G03 X6.147538 Y2.594375 Z0.000000 I-0.660353 J-0.660354
G03 X5.780044 Y2.606661 Z0.000000 I-0.207206 J-0.695569
G01 X5.780044 Y2.606661 Z0.000000
G00 Z5.000000

(End cutting path id: path1500)


(Start cutting path id: path1500)
(Change tool to Cylindrical cutter)

G00 Z5.000000
G00 X12.666376 Y2.600057

G01 Z0.000000 F100.0(Penetrate)
G03 X12.208790 Y2.558404 Z0.000000 I-0.053605 J-1.945368 F400.000000
G03 X11.992791 Y2.457292 Z0.000000 I0.109182 J-0.514510
G03 X11.584124 Y1.737326 Z0.000000 I0.676402 J-0.859906
G03 X11.805929 Y1.010353 Z0.000000 I0.915331 J-0.118049
G03 X12.214401 Y0.778542 Z0.000000 I0.538168 J0.472514
G03 X12.602986 Y0.863177 Z0.000000 I0.093233 J0.506313
G02 X12.698854 Y0.844709 Z0.000000 I0.038990 J-0.055665
G02 X12.768902 Y0.609620 Z0.000000 I-0.359469 J-0.235090
G02 X12.723867 Y0.270822 Z0.000000 I-1.296891 J-0.000000
G02 X12.657005 Y0.196760 Z0.000000 I-0.106324 J0.028775
G03 X12.568614 Y0.137590 Z0.000000 I0.086060 J-0.224167
G03 X12.544557 Y0.077145 Z0.000000 I0.063907 J-0.060444
G01 X12.579479 Y0.035035 Z0.000000
G03 X12.955213 Y-0.000025 Z0.000000 I0.375733 J1.995767
G03 X13.265229 Y0.092873 Z0.000000 I-0.000000 J0.563735
G03 X13.253972 Y0.196760 Z0.000000 I-0.032299 J0.049054
G02 X13.194229 Y0.275674 Z0.000000 I0.033575 J0.087489
G02 X13.142075 Y1.413290 Z0.000000 I12.380921 J1.137616
G01 X13.142075 Y2.586829 Z0.000000
G01 X12.666376 Y2.600057 Z0.000000
G00 Z5.000000

(End cutting path id: path1500)


(Start cutting path id: path1500)
(Change tool to Cylindrical cutter)

G00 Z5.000000
G00 X19.925881 Y2.595654

G01 Z0.000000 F100.0(Penetrate)
G03 X19.448648 Y2.404983 Z0.000000 I0.087620 J-0.911876 F400.000000
G03 X19.180087 Y2.011364 Z0.000000 I0.485148 J-0.619437
G03 X19.162291 Y1.416580 Z0.000000 I1.103705 J-0.330681
G03 X19.428134 Y0.957992 Z0.000000 I0.890010 J0.209589
G03 X19.944656 Y0.766204 Z0.000000 I0.487735 J0.522123
G03 X20.516784 Y1.002089 Z0.000000 I-0.036282 J0.899777
G03 X20.715835 Y1.292827 Z0.000000 I-0.525211 J0.573088
G03 X20.795699 Y1.717568 Z0.000000 I-1.089511 J0.424741
G03 X20.719789 Y2.143405 Z0.000000 I-1.232374 J-0.000000
G03 X20.542691 Y2.403831 Z0.000000 I-0.610723 J-0.224883
G03 X20.266411 Y2.560412 Z0.000000 I-0.499130 J-0.558657
G03 X19.925881 Y2.595654 Z0.000000 I-0.257678 J-0.827018
G01 X19.925881 Y2.595654 Z0.000000
G00 Z5.000000

(End cutting path id: path1500)


(Start cutting path id: path1500)
(Change tool to Cylindrical cutter)

G00 Z5.000000
G00 X8.595100 Y2.595090

G01 Z0.000000 F100.0(Penetrate)
G03 X8.404989 Y2.537098 Z0.000000 I0.141319 J-0.803890 F400.000000
G03 X8.223581 Y2.423662 Z0.000000 I0.309787 J-0.697190
G03 X7.881907 Y1.661757 Z0.000000 I0.618343 J-0.734858
G03 X8.266576 Y0.897348 Z0.000000 I1.008298 J0.028408
G03 X9.009088 Y0.821603 Z0.000000 I0.431016 J0.547946
G03 X9.408694 Y1.467855 Z0.000000 I-0.322763 J0.646252
G01 X9.366960 Y1.493982 Z0.000000
G03 X9.188759 Y1.360921 Z0.000000 I0.258204 J-0.531655
G02 X8.847812 Y1.203727 Z0.000000 I-0.357082 J0.326149
G02 X8.506905 Y1.338315 Z0.000000 I-0.015361 J0.460139
G02 X8.266313 Y1.748601 Z0.000000 I0.666539 J0.666544
G02 X8.369102 Y1.826139 Z0.000000 I0.066474 J0.018778
G03 X8.455513 Y1.801571 Z0.000000 I0.086155 J0.138782
G03 X8.929136 Y1.827268 Z0.000000 I-0.007083 J4.508206
G03 X9.335131 Y1.944613 Z0.000000 I-0.129468 J1.208940
G03 X9.408694 Y2.062635 Z0.000000 I-0.057894 J0.118022
G03 X9.159066 Y2.495337 Z0.000000 I-0.499834 J0.000000
G03 X8.595100 Y2.595110 Z0.000000 I-0.419002 J-0.724616
G01 X8.595100 Y2.595090 Z0.000000
G00 Z5.000000

(End cutting path id: path1500)


(Start cutting path id: path1500)
(Change tool to Cylindrical cutter)

G00 Z5.000000
G00 X2.389518 Y2.538865

G01 Z0.000000 F100.0(Penetrate)
G03 X2.123501 Y2.505904 Z0.000000 I-0.000000 J-1.089943 F400.000000
G01 X2.090760 Y2.463902 Z0.000000
G03 X2.110793 Y2.409505 Z0.000000 I0.083868 J0.000000
G03 X2.154149 Y2.389488 Z0.000000 I0.043357 J0.036946
G01 X2.189743 Y2.359432 Z0.000000
G02 X2.263290 Y1.746219 Z0.000000 I-6.226925 J-1.057861
G03 X2.347321 Y1.116149 Z0.000000 I5.106029 J0.360340
G03 X2.425347 Y0.924907 Z0.000000 I0.529159 J0.104358
G03 X2.711043 Y0.751937 Z0.000000 I0.323567 J0.212010
G03 X3.091766 Y0.859313 Z0.000000 I0.053143 J0.540224
G02 X3.224150 Y0.897753 Z0.000000 I0.116464 J-0.153909
G02 X3.327135 Y0.840009 Z0.000000 I-0.011721 J-0.141611
G03 X3.435771 Y0.781189 Z0.000000 I0.116275 J0.085020
G03 X3.632509 Y0.823471 Z0.000000 I0.020392 J0.383972
G03 X3.844578 Y1.029684 Z0.000000 I-0.233347 J0.452126
G03 X3.805039 Y1.136009 Z0.000000 I-0.065494 J0.036159
G02 X3.721523 Y1.233737 Z0.000000 I0.045735 J0.123633
G02 X3.658967 Y1.864165 Z0.000000 I3.145383 J0.630428
G01 X3.658967 Y2.538851 Z0.000000
G01 X3.348633 Y2.538851 Z0.000000
G03 X3.169766 Y2.480408 Z0.000000 I0.000000 J-0.302935
G03 X3.161771 Y2.402151 Z0.000000 I0.031261 J-0.042730
G02 X3.239264 Y2.247762 Z0.000000 I-0.239761 J-0.216986
G02 X3.285794 Y1.771560 Z0.000000 I-2.413500 J-0.476202
G02 X3.225429 Y1.309230 Z0.000000 I-1.800651 J0.000000
G02 X3.124840 Y1.165225 Z0.000000 I-0.247508 J0.065754
G02 X2.960973 Y1.101497 Z0.000000 I-0.212080 J0.302790
G02 X2.826081 Y1.126086 Z0.000000 I-0.029210 J0.222052
G02 X2.746616 Y1.234754 Z0.000000 I0.073326 J0.137009
G02 X2.688277 Y1.869127 Z0.000000 I3.419886 J0.634373
G01 X2.688277 Y2.538851 Z0.000000
G01 X2.389518 Y2.538865 Z0.000000
G00 Z5.000000

(End cutting path id: path1500)


(Start cutting path id: path1500)
(Change tool to Cylindrical cutter)

G00 Z5.000000
G00 X14.784696 Y2.538865

G01 Z0.000000 F100.0(Penetrate)
G03 X14.519167 Y2.505857 Z0.000000 I0.000000 J-1.084515 F400.000000
G01 X14.486489 Y2.463902 Z0.000000
G03 X14.508284 Y2.411283 Z0.000000 I0.074413 J-0.000000
G03 X14.560903 Y2.389488 Z0.000000 I0.052619 J0.052619
G01 X14.600580 Y2.354522 Z0.000000
G02 X14.635317 Y1.804097 Z0.000000 I-4.343475 J-0.550425
G02 X14.565580 Y1.263460 Z0.000000 I-2.130515 J0.000000
G02 X14.460582 Y1.138781 Z0.000000 I-0.183773 J0.048212
G02 X14.261998 Y1.206851 Z0.000000 I-0.063321 J0.138975
G02 X14.097331 Y1.831656 Z0.000000 I1.281800 J0.671919
G01 X14.075281 Y2.501384 Z0.000000
G01 X13.739591 Y2.520688 Z0.000000
G03 X13.533908 Y2.491042 Z0.000000 I-0.030075 J-0.519679
G01 X13.526270 Y2.444070 Z0.000000
G02 X13.599967 Y2.322638 Z0.000000 I-0.125042 J-0.158967
G02 X13.675650 Y1.653074 Z0.000000 I-4.470898 J-0.844417
G03 X13.758843 Y0.988809 Z0.000000 I3.887099 J0.149484
G03 X13.847078 Y0.852709 Z0.000000 I0.222502 J0.047599
G03 X14.151924 Y0.754290 Z0.000000 I0.301487 J0.412508
G03 X14.453415 Y0.856575 Z0.000000 I-0.003322 J0.505263
G02 X14.646342 Y0.922216 Z0.000000 I0.195764 J-0.259041
G02 X14.710281 Y0.858833 Z0.000000 I0.000554 J-0.063382
G03 X14.783441 Y0.785958 Z0.000000 I0.072875 J0.000000
G03 X15.087312 Y0.860527 Z0.000000 I-0.002609 J0.667063
G03 X15.244628 Y1.037459 Z0.000000 I-0.151627 J0.293219
G03 X15.195350 Y1.147157 Z0.000000 I-0.079840 J0.030052
G02 X15.133056 Y1.224264 Z0.000000 I0.035437 J0.092347
G02 X15.083453 Y1.864289 Z0.000000 I4.104367 J0.640026
G01 X15.083453 Y2.538976 Z0.000000
G01 X14.784696 Y2.538865 Z0.000000
G00 Z5.000000

(End cutting path id: path1500)


(Start cutting path id: path1500)
(Change tool to Cylindrical cutter)

G00 Z5.000000
G00 X8.624314 Y2.389488

G01 Z0.000000 F100.0(Penetrate)
G02 X8.781116 Y2.347952 Z0.000000 I0.000000 J-0.316741 F400.000000
G02 X8.886142 Y2.240108 Z0.000000 I-0.134478 J-0.236024
G02 X8.861175 Y2.153495 Z0.000000 I-0.056960 J-0.030486
G02 X8.624314 Y2.090728 Z0.000000 I-0.236861 J0.415531
G02 X8.387924 Y2.153550 Z0.000000 I0.000000 J0.476163
G02 X8.363038 Y2.240108 Z0.000000 I0.032070 J0.056077
G02 X8.467831 Y2.347896 Z0.000000 I0.239881 J-0.128381
G02 X8.624314 Y2.389488 Z0.000000 I0.156483 J-0.273574
G01 X8.624314 Y2.389488 Z0.000000
G00 Z5.000000

(End cutting path id: path1500)


(Start cutting path id: path1500)
(Change tool to Cylindrical cutter)

G00 Z5.000000
G00 X19.921472 Y2.389488

G01 Z0.000000 F100.0(Penetrate)
G02 X20.216349 Y2.220594 Z0.000000 I0.000000 J-0.341865 F400.000000
G02 X20.385044 Y1.599596 Z0.000000 I-1.058662 J-0.620998
G02 X20.327255 Y1.233299 Z0.000000 I-1.189801 J-0.000000
G02 X20.219128 Y1.086965 Z0.000000 I-0.272352 J0.088128
G02 X20.050545 Y0.983076 Z0.000000 I-0.967789 J1.381725
G02 X20.014076 Y0.976723 Z0.000000 I-0.027784 J0.051647
G02 X19.312442 Y1.739230 Z0.000000 I0.122199 J0.816508
G02 X19.921472 Y2.389488 Z0.000000 I0.609030 J0.039921
G01 X19.921472 Y2.389488 Z0.000000
G00 Z5.000000

(End cutting path id: path1500)


(Start cutting path id: path1500)
(Change tool to Cylindrical cutter)

G00 Z5.000000
G00 X12.431558 Y2.384521

G01 Z0.000000 F100.0(Penetrate)
G02 X12.568665 Y2.367319 Z0.000000 I0.023826 J-0.365106 F400.000000
G02 X12.679054 Y2.299634 Z0.000000 I-0.085999 J-0.264117
G02 X12.732746 Y2.195118 Z0.000000 I-0.135833 J-0.135830
G02 X12.768902 Y1.754482 Z0.000000 I-2.666947 J-0.440635
G02 X12.732713 Y1.314291 Z0.000000 I-2.695222 J-0.000000
G02 X12.679054 Y1.209881 Z0.000000 I-0.189432 J0.031360
G02 X12.425390 Y1.117582 Z0.000000 I-0.225774 J0.225773
G02 X12.145477 Y1.256733 Z0.000000 I0.037380 J0.426300
G02 X11.943895 Y1.790437 Z0.000000 I0.578283 J0.523342
G02 X12.158705 Y2.266010 Z0.000000 I0.653057 J-0.008677
G02 X12.294589 Y2.352338 Z0.000000 I0.320026 J-0.353626
G02 X12.431557 Y2.384521 Z0.000000 I0.164755 J-0.393636
G01 X12.431558 Y2.384521 Z0.000000
G00 Z5.000000

(End cutting path id: path1500)


(Start cutting path id: path1500)
(Change tool to Cylindrical cutter)

G00 Z5.000000
G00 X16.192500 Y2.383957

G01 Z0.000000 F100.0(Penetrate)
G02 X16.332456 Y2.338004 Z0.000000 I-0.043346 J-0.368120 F400.000000
G02 X16.427869 Y2.240088 Z0.000000 I-0.121875 J-0.214205
G02 X16.403098 Y2.153386 Z0.000000 I-0.057117 J-0.030571
G02 X16.168798 Y2.090708 Z0.000000 I-0.234300 J0.406585
G02 X15.924935 Y2.179382 Z0.000000 I-0.000000 J0.379660
G02 X15.919648 Y2.299620 Z0.000000 I0.052412 J0.062540
G02 X16.044615 Y2.372546 Z0.000000 I0.201144 J-0.201147
G02 X16.192500 Y2.383957 Z0.000000 I0.102965 J-0.370450
G01 X16.192500 Y2.383957 Z0.000000
G00 Z5.000000

(End cutting path id: path1500)


(Start cutting path id: path1500)
(Change tool to Cylindrical cutter)

G00 Z5.000000
G00 X5.923359 Y2.375151

G01 Z0.000000 F100.0(Penetrate)
G02 X6.124802 Y2.305381 Z0.000000 I-0.044377 J-0.453821 F400.000000
G02 X6.250781 Y2.165689 Z0.000000 I-0.191754 J-0.299583
G02 X6.403144 Y1.495344 Z0.000000 I-1.277419 J-0.642832
G02 X6.229835 Y1.088063 Z0.000000 I-0.591985 J0.011391
G02 X6.103120 Y0.992803 Z0.000000 I-0.399451 J0.399440
G02 X6.017066 Y0.970653 Z0.000000 I-0.086055 J0.156090
G02 X5.613469 Y1.256458 Z0.000000 I0.000000 J0.427870
G02 X5.604757 Y2.141985 Z0.000000 I1.294158 J0.455539
G02 X5.737345 Y2.324244 Z0.000000 I0.350643 J-0.115725
G02 X5.923359 Y2.375151 Z0.000000 I0.159699 J-0.218238
G01 X5.923359 Y2.375151 Z0.000000
G00 Z5.000000

(End cutting path id: path1500)


(Start cutting path id: path1500)
(Change tool to Cylindrical cutter)

G00 Z5.000000
G00 X23.762340 Y2.372329

G01 Z0.000000 F100.0(Penetrate)
G02 X23.894771 Y2.315786 Z0.000000 I-0.062222 J-0.329088 F400.000000
G02 X23.955265 Y2.221295 Z0.000000 I-0.087651 J-0.122725
G02 X23.915793 Y2.143987 Z0.000000 I-0.069497 J-0.013247
G02 X23.676350 Y2.090657 Z0.000000 I-0.239443 J0.510869
G02 X23.470443 Y2.183038 Z0.000000 I-0.000000 J0.275663
G02 X23.480117 Y2.311143 Z0.000000 I0.066710 J0.059380
G02 X23.612431 Y2.372848 Z0.000000 I0.183851 J-0.221520
G02 X23.762340 Y2.372329 Z0.000000 I0.073555 J-0.404223
G01 X23.762340 Y2.372329 Z0.000000
G00 Z5.000000

(End cutting path id: path1500)


(Start cutting path id: path1500)
(Change tool to Cylindrical cutter)

G00 Z5.000000
G00 X25.563160 Y1.694886

G01 Z0.000000 F100.0(Penetrate)
G02 X25.706318 Y1.501551 Z0.000000 I-0.080230 J-0.209077 F400.000000
G02 X25.597335 Y1.209816 Z0.000000 I-0.374343 J-0.026381
G02 X25.377408 Y1.123183 Z0.000000 I-0.209590 J0.209595
G02 X25.170695 Y1.224689 Z0.000000 I0.009813 J0.281218
G02 X25.171214 Y1.592947 Z0.000000 I0.221486 J0.183817
G02 X25.563160 Y1.694877 Z0.000000 I0.267237 J-0.223063
G01 X25.563160 Y1.694886 Z0.000000
G00 Z5.000000

(End cutting path id: path1500)


(Footer)
M5
G00 X0.0000 Y0.0000
M2
(Using default footer. To add your own footer create file "footer" in the output dir.)
(end)
%