%
(Header)
(Generated by gcodetools from Inkscape.)
(Using default header. To add your own header create file "header" in the output dir.)
M3
(Header end.)
G21 (All units in mm)

(Start cutting path id: path3079)
(Change tool to Cylindrical cutter)

G00 Z5.000000
G00 X18.838885 Y26.538812

G01 Z0.000000 F100.0(Penetrate)
G03 X18.713456 Y26.428358 Z0.000000 I0.099192 J-0.239083 F400.000000
G03 X18.413347 Y25.882865 Z0.000000 I15.795940 J-9.045626
G03 X18.011620 Y24.480050 Z0.000000 I3.139623 J-1.658029
G03 X18.245777 Y23.556736 Z0.000000 I1.508720 J-0.108729
G02 X19.304406 Y19.936483 Z0.000000 I-5.668478 J-3.622475
G02 X18.250739 Y7.554956 Z0.000000 I-72.990531 J-0.024108
G03 X18.105190 Y6.373702 Z0.000000 I12.331642 J-2.119045
G03 X18.134983 Y6.014311 Z0.000000 I1.144692 J-0.086035
G03 X18.898531 Y5.486184 Z0.000000 I0.679744 J0.166732
G03 X19.628777 Y6.194558 Z0.000000 I-0.100623 J0.834314
G03 X19.623314 Y6.719700 Z0.000000 I-1.621139 J0.245736
G03 X19.429237 Y7.346047 Z0.000000 I-2.506851 J-0.433521
G02 X19.279383 Y7.988804 Z0.000000 I1.505098 J0.689750
G02 X19.147566 Y17.275088 Z0.000000 I327.035509 J9.286284
G03 X19.032306 Y26.413148 Z0.000000 I-362.299446 J-0.000000
G03 X18.838885 Y26.538812 Z0.000000 I-0.139824 J-0.003528
G01 X18.838885 Y26.538812 Z0.000000
G00 Z5.000000

(End cutting path id: path3079)


(Start cutting path id: path3079)
(Change tool to Cylindrical cutter)

G00 Z5.000000
G00 X41.797552 Y26.410378

G01 Z0.000000 F100.0(Penetrate)
G03 X41.234056 Y26.146334 Z0.000000 I-0.084975 J-0.551954 F400.000000
G03 X40.792688 Y24.556641 Z0.000000 I2.642147 J-1.589693
G03 X40.859905 Y23.902116 Z0.000000 I3.220314 J0.000000
G03 X41.000494 Y23.556736 Z0.000000 I1.009176 J0.209486
G02 X41.152321 Y23.057014 Z0.000000 I-0.813095 J-0.519963
G02 X41.230190 Y15.666280 Z0.000000 I-354.001777 J-7.425548
G02 X41.156813 Y8.357659 Z0.000000 I-360.489274 J-0.035445
G02 X41.002187 Y7.359825 Z0.000000 I-3.790552 J0.076493
G03 X40.861462 Y6.656346 Z0.000000 I3.831513 J-1.132279
G03 X40.872103 Y6.159280 Z0.000000 I1.922189 J-0.207499
G01 X40.871538 Y6.158715 Z0.000000
G03 X41.625074 Y5.539707 Z0.000000 I0.720775 J0.109265
G03 X42.389036 Y6.227064 Z0.000000 I-0.036378 J0.808662
G03 X42.391135 Y6.778821 Z0.000000 I-1.866938 J0.282984
G03 X42.258398 Y7.136020 Z0.000000 I-0.892279 J-0.128312
G02 X42.145737 Y7.505906 Z0.000000 I0.604298 J0.386160
G02 X42.041217 Y16.716691 Z0.000000 I405.796270 J9.210785
G03 X41.974187 Y25.944511 Z0.000000 I-635.223203 J-0.000000
G03 X41.901759 Y26.308939 Z0.000000 I-1.028205 J-0.014938
G03 X41.850594 Y26.384429 Z0.000000 I-0.196019 J-0.077772
G03 X41.797580 Y26.410364 Z0.000000 I-0.068099 J-0.072052
G01 X41.797552 Y26.410378 Z0.000000
G00 Z5.000000

(End cutting path id: path3079)


(Start cutting path id: path3079)
(Change tool to Cylindrical cutter)

G00 Z5.000000
G00 X34.582696 Y26.396041

G01 Z0.000000 F100.0(Penetrate)
G03 X33.999125 Y25.989517 Z0.000000 I0.104915 J-0.772729 F400.000000
G03 X33.577829 Y24.300321 Z0.000000 I3.175785 J-1.689195
G03 X33.662298 Y23.845905 Z0.000000 I1.264546 J0.000000
G03 X33.785638 Y23.761232 Z0.000000 I0.123340 J0.047495
G02 X33.891068 Y23.658553 Z0.000000 I0.000000 J-0.105467
G02 X33.993997 Y15.874444 Z0.000000 I-294.289732 J-7.784109
G02 X33.927526 Y8.000096 Z0.000000 I-466.442896 J-0.000000
G02 X33.855090 Y7.637633 Z0.000000 I-1.030111 J0.017393
G03 X33.764112 Y7.278709 Z0.000000 I1.332410 J-0.528725
G03 X33.716186 Y6.472363 Z0.000000 I6.759361 J-0.806346
G03 X33.934060 Y5.874917 Z0.000000 I0.928084 J0.000000
G03 X34.401896 Y5.657116 Z0.000000 I0.467835 J0.393555
G03 X34.989263 Y6.065818 Z0.000000 I0.000000 J0.626420
G03 X35.033038 Y7.359819 Z0.000000 I-1.922996 J0.712794
G02 X34.922100 Y8.072783 Z0.000000 I2.610483 J0.771305
G02 X34.826332 Y17.008292 Z0.000000 I416.810613 J8.935509
G03 X34.756643 Y25.943791 Z0.000000 I-572.883354 J-0.000000
G03 X34.680813 Y26.324382 Z0.000000 I-1.077364 J-0.016806
G03 X34.633864 Y26.383678 Z0.000000 I-0.122110 J-0.048450
G03 X34.582696 Y26.396041 Z0.000000 I-0.041427 J-0.059386
G01 X34.582696 Y26.396041 Z0.000000
G00 Z5.000000

(End cutting path id: path3079)


(Start cutting path id: path3079)
(Change tool to Cylindrical cutter)

G00 Z5.000000
G00 X1.468989 Y25.368580

G01 Z0.000000 F100.0(Penetrate)
G03 X0.228423 Y25.301121 Z0.000000 I-0.439947 J-3.350063 F400.000000
G03 X0.000000 Y25.010291 Z0.000000 I0.070933 J-0.290830
G03 X0.082622 Y24.491720 Z0.000000 I1.668691 J0.000000
G03 X0.277261 Y24.163074 Z0.000000 I0.836666 J0.273551
G02 X0.421935 Y23.814630 Z0.000000 I-0.390817 J-0.366524
G02 X0.555074 Y15.925713 Z0.000000 I-233.656522 J-7.888917
G02 X0.429564 Y8.005798 Z0.000000 I-249.944108 J0.000000
G02 X0.278364 Y7.194463 Z0.000000 I-2.714111 J0.086045
G03 X0.077891 Y6.400786 Z0.000000 I4.326637 J-1.515009
G03 X0.093155 Y6.030846 Z0.000000 I0.923666 J-0.147173
G01 X0.093155 Y6.030282 Z0.000000
G03 X1.039916 Y5.281428 Z0.000000 I0.955053 J0.234542
G03 X1.983824 Y6.015409 Z0.000000 I0.008124 J0.963481
G03 X1.995878 Y6.370992 Z0.000000 I-0.842177 J0.206545
G03 X1.729714 Y7.470617 Z0.000000 I-8.612460 J-1.502620
G02 X1.512543 Y8.587174 Z0.000000 I4.939765 J1.540183
G02 X1.387409 Y11.638907 Z0.000000 I37.149737 J3.051733
G01 X1.387409 Y14.709177 Z0.000000
G01 X2.091862 Y14.709177 Z0.000000
G03 X2.588606 Y14.973975 Z0.000000 I-0.000000 J0.598329
G03 X3.202010 Y16.362824 Z0.000000 I-3.611797 J2.425080
G03 X3.642726 Y19.865002 Z0.000000 I-14.896459 J3.653398
G03 X3.273116 Y23.588153 Z0.000000 I-17.225984 J0.169843
G03 X2.603593 Y24.813960 Z0.000000 I-2.372582 J-0.500134
G03 X1.468989 Y25.368578 Z0.000000 I-1.392865 J-1.411579
G01 X1.468989 Y25.368580 Z0.000000
G00 Z5.000000

(End cutting path id: path3079)


(Start cutting path id: path3079)
(Change tool to Cylindrical cutter)

G00 Z5.000000
G00 X1.825074 Y23.652096

G01 Z0.000000 F100.0(Penetrate)
G02 X2.886872 Y23.042893 Z0.000000 I0.318473 J-0.674845 F400.000000
G02 X2.382352 Y17.342886 Z0.000000 I-16.244361 J-1.434510
G02 X1.857808 Y16.867735 Z0.000000 I-0.632838 J0.171512
G02 X1.444184 Y17.185790 Z0.000000 I-0.058854 J0.351443
G02 X1.404197 Y17.966069 Z0.000000 I9.125519 J0.858824
G02 X1.413867 Y20.721286 Z0.000000 I114.047148 J0.977335
G02 X1.619810 Y23.373246 Z0.000000 I21.493557 J-0.335142
G02 X1.825074 Y23.652096 Z0.000000 I0.360823 J-0.050631
G01 X1.825074 Y23.652096 Z0.000000
G00 Z5.000000

(End cutting path id: path3079)


(Start cutting path id: path3079)
(Change tool to Cylindrical cutter)

G00 Z5.000000
G00 X8.464462 Y23.652096

G01 Z0.000000 F100.0(Penetrate)
G03 X8.387163 Y23.602392 Z0.000000 I-0.014226 J-0.062835 F400.000000
G03 X8.063728 Y21.767493 Z0.000000 I29.644141 J-6.171282
G02 X7.710462 Y19.798387 Z0.000000 I-29.285767 J4.237758
G02 X7.564879 Y19.444118 Z0.000000 I-1.054156 J0.226147
G03 X7.343906 Y18.621775 Z0.000000 I1.190144 J-0.760666
G03 X7.631024 Y17.939854 Z0.000000 I1.063790 J0.046496
G02 X7.778335 Y17.592459 Z0.000000 I-0.398868 J-0.374068
G02 X7.908837 Y12.244697 Z0.000000 I-109.505930 J-5.347762
G03 X8.017782 Y6.867142 Z0.000000 I132.772545 J-0.000008
G03 X8.151371 Y6.268421 Z0.000000 I1.721157 J0.069767
G03 X8.532326 Y6.093546 Z0.000000 I0.285872 J0.120374
G03 X8.988116 Y6.537966 Z0.000000 I-0.219241 J0.680785
G03 X9.315614 Y8.573176 Z0.000000 I-5.516896 J1.931711
G03 X8.949531 Y8.718573 Z0.000000 I-0.213416 J-0.003779
G01 X8.602817 Y8.363591 Z0.000000
G01 X8.602817 Y13.233575 Z0.000000
G02 X8.769944 Y17.936302 Z0.000000 I66.247553 J-0.000000
G02 X8.949531 Y18.103562 Z0.000000 I0.179587 J-0.012781
G03 X9.418245 Y18.559264 Z0.000000 I0.000000 J0.468899
G03 X8.984258 Y19.337184 Z0.000000 I-0.870279 J0.024504
G02 X8.806453 Y19.597295 Z0.000000 I0.182894 J0.315849
G02 X8.628724 Y21.639609 Z0.000000 I15.241979 J2.355296
G03 X8.534210 Y23.571409 Z0.000000 I-33.822472 J-0.686558
G03 X8.464462 Y23.652096 Z0.000000 I-0.089591 J-0.006955
G01 X8.464462 Y23.652096 Z0.000000
G00 Z5.000000

(End cutting path id: path3079)


(Start cutting path id: path3079)
(Change tool to Cylindrical cutter)

G00 Z5.000000
G00 X11.192426 Y19.800756

G01 Z0.000000 F100.0(Penetrate)
G03 X10.510676 Y19.340057 Z0.000000 I0.000000 J-0.734782 F400.000000
G03 X9.692018 Y16.067924 Z0.000000 I11.449669 J-4.603080
G03 X9.533075 Y11.207159 Z0.000000 I32.102560 J-3.482710
G03 X10.056371 Y7.536214 Z0.000000 I18.758532 J0.801274
G03 X11.000577 Y6.269586 Z0.000000 I1.969716 J0.483079
G03 X11.798212 Y6.515365 Z0.000000 I0.286212 J0.488330
G03 X12.323608 Y8.329313 Z0.000000 I-5.324703 J2.525323
G03 X12.626137 Y13.323423 Z0.000000 I-41.069831 J4.994110
G03 X12.491049 Y15.937680 Z0.000000 I-25.363302 J-0.000000
G03 X12.154297 Y17.877564 Z0.000000 I-14.280125 J-1.479768
G03 X11.522682 Y19.596658 Z0.000000 I-7.986224 J-1.958652
G03 X11.192426 Y19.800756 Z0.000000 I-0.330256 J-0.165148
G01 X11.192426 Y19.800756 Z0.000000
G00 Z5.000000

(End cutting path id: path3079)


(Start cutting path id: path3079)
(Change tool to Cylindrical cutter)

G00 Z5.000000
G00 X16.242109 Y19.800756

G01 Z0.000000 F100.0(Penetrate)
G03 X15.850355 Y19.581451 Z0.000000 I-0.000000 J-0.459556 F400.000000
G03 X15.230078 Y18.150417 Z0.000000 I4.726564 J-2.898659
G03 X14.933368 Y16.478453 Z0.000000 I8.887318 J-2.439471
G03 X14.776979 Y12.729216 Z0.000000 I44.863550 J-3.749237
G03 X14.933368 Y8.979991 Z0.000000 I45.019725 J0.000000
G03 X15.230078 Y7.308012 Z0.000000 I9.184260 J0.767528
G03 X16.126092 Y6.053231 Z0.000000 I2.154955 J0.591507
G03 X16.796632 Y6.239758 Z0.000000 I0.256552 J0.376244
G03 X17.255640 Y7.813721 Z0.000000 I-5.124357 J2.348306
G03 X17.477383 Y11.145574 Z0.000000 I-23.196762 J3.217102
G03 X17.374181 Y11.176324 Z0.000000 I-0.056264 J-0.000276
G03 X17.165395 Y10.673732 Z0.000000 I1.199767 J-0.793067
G02 X16.698809 Y8.978647 Z0.000000 I-13.206285 J2.723384
G02 X16.487770 Y8.752749 Z0.000000 I-0.360113 J0.124897
G02 X16.275449 Y8.832086 Z0.000000 I-0.064377 J0.151489
G02 X15.816571 Y10.100468 Z0.000000 I5.695827 J2.777845
G02 X15.704521 Y12.990854 Z0.000000 I7.009549 J1.719101
G02 X16.407474 Y13.694393 Z0.000000 I0.842165 J-0.138510
G03 X17.083131 Y14.149025 Z0.000000 I-0.159751 J0.966801
G03 X17.456988 Y15.405916 Z0.000000 I-2.167235 J1.328681
G03 X16.992984 Y19.229336 Z0.000000 I-12.966174 J0.366311
G03 X16.242109 Y19.800756 Z0.000000 I-0.750874 J-0.207632
G01 X16.242109 Y19.800756 Z0.000000
G00 Z5.000000

(End cutting path id: path3079)


(Start cutting path id: path3079)
(Change tool to Cylindrical cutter)

G00 Z5.000000
G00 X30.240221 Y19.800756

G01 Z0.000000 F100.0(Penetrate)
G03 X29.847825 Y19.567686 Z0.000000 I-0.000000 J-0.446854 F400.000000
G03 X29.192912 Y17.877564 Z0.000000 I6.178188 J-3.365964
G03 X28.867970 Y15.936281 Z0.000000 I12.816655 J-3.143155
G03 X28.721623 Y12.729216 Z0.000000 I35.066948 J-3.207065
G03 X28.867963 Y9.522143 Z0.000000 I35.215115 J0.000000
G03 X29.192912 Y7.580864 Z0.000000 I13.140104 J1.201675
G03 X29.816502 Y5.825118 Z0.000000 I8.994762 J2.206068
G03 X30.128026 Y5.608726 Z0.000000 I0.344009 J0.162809
G03 X30.439183 Y5.781546 Z0.000000 I0.027203 J0.317546
G03 X31.053814 Y7.421564 Z0.000000 I-6.931984 J3.533087
G03 X31.414454 Y9.196107 Z0.000000 I-19.400286 J4.866631
G03 X31.496440 Y10.250399 Z0.000000 I-6.737769 J1.054292
G03 X31.315532 Y10.625490 Z0.000000 I-0.479307 J-0.000000
G03 X31.121615 Y10.548606 Z0.000000 I-0.074881 J-0.094126
G02 X30.624447 Y9.001186 Z0.000000 I-4.837762 J0.700741
G02 X30.324990 Y8.885085 Z0.000000 I-0.215511 J0.111622
G02 X30.021412 Y9.190034 Z0.000000 I0.176786 J0.479571
G02 X29.569393 Y11.120769 Z0.000000 I7.869122 J2.860581
G02 X29.728767 Y13.189359 Z0.000000 I5.511178 J0.615828
G02 X30.236363 Y13.577536 Z0.000000 I0.507597 J-0.137788
G03 X31.043377 Y14.030674 Z0.000000 I0.000003 J0.945188
G03 X31.496440 Y15.644041 Z0.000000 I-2.646083 J1.613366
G03 X30.961195 Y19.265459 Z0.000000 I-12.518707 J0.000000
G03 X30.240221 Y19.800756 Z0.000000 I-0.720974 J-0.217879
G01 X30.240221 Y19.800756 Z0.000000
G00 Z5.000000

(End cutting path id: path3079)


(Start cutting path id: path3079)
(Change tool to Cylindrical cutter)

G00 Z5.000000
G00 X44.346371 Y19.800756

G01 Z0.000000 F100.0(Penetrate)
G03 X43.452969 Y19.082884 Z0.000000 I0.000000 J-0.914862 F400.000000
G03 X42.735170 Y12.493845 Z0.000000 I29.883148 J-6.589039
G03 X42.860547 Y9.670067 Z0.000000 I31.861618 J0.000000
G03 X43.165669 Y7.656932 Z0.000000 I16.451627 J1.463808
G03 X43.754970 Y5.863119 Z0.000000 I8.779470 J1.890517
G03 X44.083611 Y5.578288 Z0.000000 I0.471631 J0.212162
G03 X44.412873 Y5.707324 Z0.000000 I0.080401 J0.279449
G03 X45.000664 Y7.128868 Z0.000000 I-4.359421 J2.634861
G03 X45.414362 Y10.313103 Z0.000000 I-14.037582 J3.442763
G03 X45.058542 Y10.363951 Z0.000000 I-0.181080 J0.003239
G02 X44.416831 Y9.066570 Z0.000000 I-3.634104 J0.990110
G02 X44.086749 Y9.092847 Z0.000000 I-0.156560 J0.119680
G02 X43.538179 Y10.634993 Z0.000000 I4.758360 J2.561280
G02 X43.290242 Y13.240743 Z0.000000 I13.568906 J2.605750
G02 X43.428010 Y13.440056 Z0.000000 I0.213058 J-0.000000
G02 X44.181009 Y13.577536 Z0.000000 I0.752998 J-1.993390
G03 X45.049903 Y14.038089 Z0.000000 I0.000003 J1.049914
G03 X45.509987 Y15.536003 Z0.000000 I-2.208366 J1.497914
G03 X45.006123 Y19.296899 Z0.000000 I-14.287777 J-0.000000
G03 X44.346371 Y19.800756 Z0.000000 I-0.659752 J-0.180011
G01 X44.346371 Y19.800756 Z0.000000
G00 Z5.000000

(End cutting path id: path3079)


(Start cutting path id: path3079)
(Change tool to Cylindrical cutter)

G00 Z5.000000
G00 X37.399406 Y19.752798

G01 Z0.000000 F100.0(Penetrate)
G03 X37.250630 Y19.737777 Z0.000000 I-0.025850 J-0.488260 F400.000000
G03 X37.025131 Y19.664604 Z0.000000 I0.499999 J-1.924889
G03 X36.344265 Y18.934162 Z0.000000 I0.421256 J-1.075213
G03 X35.639926 Y15.237243 Z0.000000 I15.662255 J-4.899539
G03 X35.602080 Y10.403436 Z0.000000 I36.817689 J-2.705309
G03 X36.100744 Y7.257852 Z0.000000 I15.999082 J0.923986
G03 X36.731621 Y5.751122 Z0.000000 I5.670057 J1.488646
G03 X37.086069 Y5.586464 Z0.000000 I0.297666 J0.176938
G03 X37.444478 Y5.846577 Z0.000000 I-0.081282 J0.488981
G03 X38.123701 Y7.594092 Z0.000000 I-7.628522 J3.970805
G03 X38.476769 Y9.552321 Z0.000000 I-11.578371 J3.098516
G03 X38.641844 Y13.014743 Z0.000000 I-36.229186 J3.462422
G03 X38.485400 Y16.478156 Z0.000000 I-38.415235 J0.000000
G03 X38.171106 Y18.214357 Z0.000000 I-9.906844 J-0.896826
G03 X37.668555 Y19.572099 Z0.000000 I-8.071056 J-2.215524
G03 X37.399406 Y19.752798 Z0.000000 I-0.285835 J-0.134949
G01 X37.399406 Y19.752798 Z0.000000
G00 Z5.000000

(End cutting path id: path3079)


(Start cutting path id: path3079)
(Change tool to Cylindrical cutter)

G00 Z5.000000
G00 X47.392937 Y19.732958

G01 Z0.000000 F100.0(Penetrate)
G03 X47.253941 Y19.712179 Z0.000000 I0.019518 J-0.605849 F400.000000
G03 X47.077091 Y19.648071 Z0.000000 I0.296016 J-1.092582
G03 X46.422523 Y18.880449 Z0.000000 I0.500990 J-1.090098
G03 X46.094825 Y16.128009 Z0.000000 I8.722875 J-2.434249
G03 X46.416221 Y15.922336 Z0.000000 I0.231720 J0.008146
G03 X46.758491 Y16.406374 Z0.000000 I-0.216444 J0.516081
G02 X47.019285 Y17.900893 Z0.000000 I6.572937 J-0.376966
G02 X47.200726 Y18.094439 Z0.000000 I0.283664 J-0.084103
G02 X47.371374 Y18.014304 Z0.000000 I0.045766 J-0.124306
G02 X47.623897 Y16.724977 Z0.000000 I-4.240863 J-1.499993
G02 X47.492350 Y15.330286 Z0.000000 I-4.982545 J-0.233597
G02 X46.947007 Y13.896140 Z0.000000 I-5.824920 J1.394205
G03 X46.349531 Y12.462425 Z0.000000 I7.072356 J-3.788631
G03 X46.064509 Y11.022655 Z0.000000 I6.858709 J-2.105872
G03 X45.998763 Y7.647082 Z0.000000 I22.888845 J-2.134234
G03 X46.323580 Y6.233146 Z0.000000 I4.237327 J0.229146
G03 X46.800862 Y6.002500 Z0.000000 I0.369321 J0.155096
G03 X47.371441 Y6.526392 Z0.000000 I-0.230552 J0.823757
G02 X47.602655 Y6.686727 Z0.000000 I0.231214 J-0.086546
G02 X47.778789 Y6.526392 Z0.000000 I0.000000 J-0.176912
G03 X48.147603 Y6.303476 Z0.000000 I0.266959 J0.025123
G03 X48.657979 Y6.887439 Z0.000000 I-0.329878 J0.803321
G03 X48.943779 Y8.820659 Z0.000000 I-8.724242 J2.277497
G03 X48.736250 Y8.935204 Z0.000000 I-0.132579 J0.005066
G02 X48.611832 Y8.995885 Z0.000000 I-0.044971 J0.065684
G02 X48.452925 Y13.438079 Z0.000000 I81.779186 J5.149374
G03 X48.273471 Y18.081988 Z0.000000 I-77.486168 J-0.668856
G03 X48.068730 Y19.026852 Z0.000000 I-3.342774 J-0.229726
G03 X47.710377 Y19.602009 Z0.000000 I-1.605140 J-0.600871
G03 X47.392937 Y19.732958 Z0.000000 I-0.304028 J-0.286773
G01 X47.392937 Y19.732958 Z0.000000
G00 Z5.000000

(End cutting path id: path3079)


(Start cutting path id: path3079)
(Change tool to Cylindrical cutter)

G00 Z5.000000
G00 X23.536341 Y19.697680

G01 Z0.000000 F100.0(Penetrate)
G03 X22.855156 Y19.486932 Z0.000000 I-0.099400 J-0.884964 F400.000000
G03 X22.285083 Y18.617850 Z0.000000 I1.235788 J-1.432123
G03 X21.413613 Y13.447386 Z0.000000 I18.560742 J-5.787043
G03 X21.937266 Y7.656934 Z0.000000 I23.893406 J-0.758132
G03 X22.774980 Y6.343758 Z0.000000 I2.185987 J0.470716
G03 X23.417830 Y6.537969 Z0.000000 I0.250594 J0.331560
G02 X23.574151 Y6.524089 Z0.000000 I0.076402 J-0.026743
G02 X23.726510 Y4.618634 Z0.000000 I-11.838919 J-1.905454
G02 X23.634083 Y1.845296 Z0.000000 I-41.654177 J0.000000
G02 X23.518151 Y1.492693 Z0.000000 I-0.745473 J0.049744
G03 X23.373964 Y1.148265 Z0.000000 I0.917929 J-0.586664
G03 X23.310343 Y0.583190 Z0.000000 I2.477649 J-0.565075
G03 X23.503410 Y0.192945 Z0.000000 I0.491954 J0.000505
G03 X24.073225 Y0.000003 Z0.000000 I0.569815 J0.744946
G03 X24.738279 Y0.462237 Z0.000000 I0.000000 J0.709551
G03 X24.628299 Y1.492693 Z0.000000 I-1.088785 J0.404891
G02 X24.520205 Y1.847593 Z0.000000 I0.579678 J0.370467
G02 X24.419939 Y10.708462 Z0.000000 I391.485473 J8.860869
G01 X24.419939 Y19.598462 Z0.000000
G01 X23.536341 Y19.697680 Z0.000000
G00 Z5.000000

(End cutting path id: path3079)


(Start cutting path id: path3079)
(Change tool to Cylindrical cutter)

G00 Z5.000000
G00 X27.663290 Y19.440263

G01 Z0.000000 F100.0(Penetrate)
G03 X27.502436 Y19.414841 Z0.000000 I-0.045412 J-0.234267 F400.000000
G03 X27.195308 Y19.218676 Z0.000000 I1.390593 J-2.515708
G03 X26.911008 Y18.818558 Z0.000000 I0.459129 J-0.627292
G03 X26.952222 Y18.422719 Z0.000000 I0.488326 J-0.149221
G02 X27.085544 Y17.954320 Z0.000000 I-0.948182 J-0.523058
G02 X27.195308 Y13.607855 Z0.000000 I-86.001414 J-4.346465
G02 X27.053620 Y9.269175 Z0.000000 I-66.499011 J-0.000000
G02 X26.870091 Y8.629828 Z0.000000 I-1.560922 J0.102059
G02 X26.548142 Y8.689385 Z0.000000 I-0.151407 J0.081499
G02 X26.194853 Y13.879051 Z0.000000 I43.028633 J5.536061
G01 X26.154614 Y18.952439 Z0.000000
G01 X25.530087 Y19.099612 Z0.000000
G03 X25.208752 Y18.965049 Z0.000000 I-0.068048 J-0.288456
G03 X25.148646 Y18.471778 Z0.000000 I0.515300 J-0.313088
G02 X25.287025 Y17.680373 Z0.000000 I-2.949176 J-0.923470
G02 X25.391181 Y12.808040 Z0.000000 I-113.909918 J-4.872333
G03 X25.503732 Y7.933821 Z0.000000 I105.599352 J0.000000
G03 X25.668993 Y6.788771 Z0.000000 I5.956507 J0.275232
G03 X26.337986 Y6.131569 Z0.000000 I0.865936 J0.212374
G03 X26.917496 Y6.505996 Z0.000000 I0.106602 J0.470685
G02 X27.132937 Y6.860021 Z0.000000 I0.598910 J-0.121900
G02 X27.263659 Y6.784913 Z0.000000 I0.050749 J-0.062985
G03 X27.541987 Y6.295576 Z0.000000 I0.449531 J-0.068136
G03 X28.014965 Y6.479537 Z0.000000 I0.139131 J0.342296
G03 X28.418017 Y7.928389 Z0.000000 I-3.980594 J1.887838
G03 X28.236003 Y8.690463 Z0.000000 I-1.188186 J0.118987
G02 X28.125021 Y9.044553 Z0.000000 I0.597027 J0.381563
G02 X28.027643 Y14.065363 Z0.000000 I129.388116 J5.020810
G03 X27.888577 Y19.181747 Z0.000000 I-94.188084 J-0.000000
G03 X27.663290 Y19.440263 Z0.000000 I-0.278341 J-0.015142
G01 X27.663290 Y19.440263 Z0.000000
G00 Z5.000000

(End cutting path id: path3079)


(Start cutting path id: path3079)
(Change tool to Cylindrical cutter)

G00 Z5.000000
G00 X6.243616 Y19.360888

G01 Z0.000000 F100.0(Penetrate)
G03 X5.916311 Y19.121343 Z0.000000 I0.000000 J-0.343381 F400.000000
G03 X5.875404 Y18.200579 Z0.000000 I1.690828 J-0.536410
G02 X6.015427 Y17.156148 Z0.000000 I-6.048510 J-1.342503
G02 X6.105260 Y13.423748 Z0.000000 I-77.491704 J-3.732400
G02 X5.984063 Y9.702073 Z0.000000 I-57.202620 J-0.000000
G02 X5.805951 Y8.827716 Z0.000000 I-3.287317 J0.214331
G02 X5.484663 Y8.453673 Z0.000000 I-0.638768 J0.223666
G02 X5.250877 Y8.532817 Z0.000000 I-0.079574 J0.149811
G02 X5.109549 Y9.116600 Z0.000000 I1.429450 J0.655054
G02 X4.995113 Y14.163480 Z0.000000 I111.232107 J5.046880
G01 X4.995113 Y19.235211 Z0.000000
G01 X4.440039 Y19.235211 Z0.000000
G03 X4.049126 Y19.071184 Z0.000000 I0.000000 J-0.547830
G03 X3.884965 Y18.669663 Z0.000000 I0.408960 J-0.401520
G03 X3.937760 Y18.156571 Z0.000000 I2.519678 J-0.000000
G03 X4.002925 Y18.103565 Z0.000000 I0.065166 J0.013554
G02 X4.063739 Y18.045234 Z0.000000 I0.000000 J-0.060867
G02 X4.205773 Y13.230823 Z0.000000 I-197.450031 J-8.234414
G03 X4.365384 Y8.364458 Z0.000000 I157.240307 J2.721499
G03 X4.506736 Y7.007603 Z0.000000 I12.274544 J0.592928
G03 X5.133119 Y6.223792 Z0.000000 I1.005856 J0.161638
G03 X5.745317 Y6.510407 Z0.000000 I0.172260 J0.429182
G02 X5.961937 Y6.620190 Z0.000000 I0.162884 J-0.052792
G02 X6.182431 Y6.365988 Z0.000000 I-0.103209 J-0.312252
G03 X6.446365 Y6.089902 Z0.000000 I0.340177 J0.061003
G03 X6.750182 Y6.237554 Z0.000000 I0.059640 J0.263683
G03 X7.237600 Y7.877092 Z0.000000 I-5.015156 J2.383176
G03 X7.070438 Y8.605576 Z0.000000 I-1.051595 J0.142117
G02 X6.923429 Y9.053220 Z0.000000 I0.741125 J0.491353
G02 X6.798689 Y14.125445 Z0.000000 I103.062570 J5.072226
G03 X6.730603 Y19.191360 Z0.000000 I-188.495596 J0.000000
G03 X6.659783 Y19.298051 Z0.000000 I-0.120662 J-0.003244
G03 X6.516618 Y19.340434 Z0.000000 I-0.223880 J-0.493256
G03 X6.243616 Y19.360888 Z0.000000 I-0.273003 J-1.811680
G01 X6.243616 Y19.360888 Z0.000000
G00 Z5.000000

(End cutting path id: path3079)


(Start cutting path id: path3079)
(Change tool to Cylindrical cutter)

G00 Z5.000000
G00 X16.025482 Y18.103565

G01 Z0.000000 F100.0(Penetrate)
G02 X16.239060 Y17.962847 Z0.000000 I0.000000 J-0.232440 F400.000000
G02 X16.511102 Y16.972472 Z0.000000 I-3.440919 J-1.477726
G02 X16.387636 Y16.079523 Z0.000000 I-1.688153 J-0.221593
G02 X16.025482 Y15.840829 Z0.000000 I-0.362155 J0.155389
G02 X15.663339 Y16.079511 Z0.000000 I0.000000 J0.394073
G02 X15.539861 Y16.972472 Z0.000000 I1.564680 J0.671381
G02 X15.811904 Y17.962847 Z0.000000 I3.712969 J-0.487351
G02 X16.025482 Y18.103565 Z0.000000 I0.213578 J-0.091722
G01 X16.025482 Y18.103565 Z0.000000
G00 Z5.000000

(End cutting path id: path3079)


(Start cutting path id: path3079)
(Change tool to Cylindrical cutter)

G00 Z5.000000
G00 X37.005839 Y18.103565

G01 Z0.000000 F100.0(Penetrate)
G02 X37.410191 Y17.755662 Z0.000000 I0.000000 J-0.408932 F400.000000
G02 X37.851402 Y12.501014 Z0.000000 I-39.511202 J-5.963436
G02 X37.777311 Y9.224982 Z0.000000 I-40.611206 J-0.720385
G02 X37.585715 Y8.279257 Z0.000000 I-3.527637 J0.222399
G02 X37.240415 Y7.415444 Z0.000000 I-10.100924 J3.536818
G01 X37.188840 Y7.399517 Z0.000000
G02 X36.671726 Y8.208688 Z0.000000 I0.570037 J0.934112
G02 X36.357625 Y12.978431 Z0.000000 I48.810859 J5.609553
G02 X36.524198 Y17.662630 Z0.000000 I44.535399 J0.761351
G02 X37.005839 Y18.103565 Z0.000000 I0.481641 J-0.042584
G01 X37.005839 Y18.103565 Z0.000000
G00 Z5.000000

(End cutting path id: path3079)


(Start cutting path id: path3079)
(Change tool to Cylindrical cutter)

G00 Z5.000000
G00 X23.099779 Y18.067737

G01 Z0.000000 F100.0(Penetrate)
G02 X23.287265 Y18.002599 Z0.000000 I0.045568 J-0.171232 F400.000000
G02 X23.560044 Y17.425021 Z0.000000 I-1.283001 J-0.959138
G02 X23.657177 Y16.737674 Z0.000000 I-3.372741 J-0.827158
G02 X23.726510 Y13.294764 Z0.000000 I-85.447554 J-3.442910
G02 X23.657167 Y9.852316 Z0.000000 I-85.482694 J-0.000000
G02 X23.560044 Y9.165059 Z0.000000 I-3.469600 J0.139837
G02 X23.096751 Y8.966869 Z0.000000 I-0.306159 J0.075086
G02 X22.554627 Y9.743285 Z0.000000 I0.554785 J0.964847
G02 X22.187593 Y14.183151 Z0.000000 I25.082013 J4.308580
G02 X22.592661 Y17.167603 Z0.000000 I11.639333 J-0.060045
G02 X22.907344 Y17.920831 Z0.000000 I3.013684 J-0.816709
G02 X23.099779 Y18.067737 Z0.000000 I0.273932 J-0.159339
G01 X23.099779 Y18.067737 Z0.000000
G00 Z5.000000

(End cutting path id: path3079)


(Start cutting path id: path3079)
(Change tool to Cylindrical cutter)

G00 Z5.000000
G00 X30.088637 Y18.063334

G01 Z0.000000 F100.0(Penetrate)
G02 X30.281877 Y17.861504 Z0.000000 I-0.171598 J-0.357717 F400.000000
G02 X30.525201 Y16.972478 Z0.000000 I-3.111139 J-1.329321
G02 X30.403232 Y16.078203 Z0.000000 I-1.701812 J-0.223347
G02 X30.044540 Y15.840834 Z0.000000 I-0.358692 J0.152329
G02 X29.609160 Y16.167148 Z0.000000 I0.000000 J0.453607
G02 X29.581520 Y17.425027 Z0.000000 I2.327082 J0.680376
G02 X29.888022 Y18.021177 Z0.000000 I1.401610 J-0.343750
G02 X30.088637 Y18.063334 Z0.000000 I0.127784 J-0.109673
G01 X30.088637 Y18.063334 Z0.000000
G00 Z5.000000

(End cutting path id: path3079)


(Start cutting path id: path3079)
(Change tool to Cylindrical cutter)

G00 Z5.000000
G00 X10.770195 Y18.025850

G01 Z0.000000 F100.0(Penetrate)
G02 X10.862829 Y18.034548 Z0.000000 I0.062194 J-0.164736 F400.000000
G02 X11.006116 Y17.993879 Z0.000000 I-0.125443 J-0.714727
G02 X11.290994 Y17.705280 Z0.000000 I-0.187319 J-0.469806
G02 X11.615208 Y16.406379 Z0.000000 I-5.143043 J-1.973653
G02 X11.928190 Y11.103219 Z0.000000 I-41.316915 J-5.099256
G02 X11.575521 Y8.243432 Z0.000000 I-12.258181 J0.060041
G02 X11.297843 Y7.430914 Z0.000000 I-4.701518 J1.153036
G02 X11.180851 Y7.354875 Z0.000000 I-0.116992 J0.051981
G02 X10.436619 Y8.037619 Z0.000000 I0.000000 J0.747000
G02 X10.414662 Y16.229440 Z0.000000 I48.959893 J4.227175
G02 X10.628298 Y17.855715 Z0.000000 I16.404794 J-1.327855
G02 X10.770195 Y18.025850 Z0.000000 I0.221372 J-0.040390
G01 X10.770195 Y18.025850 Z0.000000
G00 Z5.000000

(End cutting path id: path3079)


(Start cutting path id: path3079)
(Change tool to Cylindrical cutter)

G00 Z5.000000
G00 X44.154547 Y17.972933

G01 Z0.000000 F100.0(Penetrate)
G02 X44.344861 Y17.707943 Z0.000000 I-0.347061 J-0.450092 F400.000000
G02 X44.512840 Y16.830816 Z0.000000 I-2.972628 J-1.023939
G02 X44.339974 Y16.050087 Z0.000000 I-1.527112 J-0.071376
G02 X43.994146 Y15.840834 Z0.000000 I-0.345828 J0.181144
G02 X43.580846 Y16.173602 Z0.000000 I0.000000 J0.423046
G02 X43.629242 Y17.512118 Z0.000000 I2.632219 J0.574961
G02 X43.941756 Y17.972111 Z0.000000 I0.875665 J-0.258762
G02 X44.154547 Y17.972933 Z0.000000 I0.106924 J-0.136468
G01 X44.154547 Y17.972933 Z0.000000
G00 Z5.000000

(End cutting path id: path3079)


(Start cutting path id: path3079)
(Change tool to Cylindrical cutter)

G00 Z5.000000
G00 X47.422153 Y12.899548

G01 Z0.000000 F100.0(Penetrate)
G02 X47.791172 Y12.171334 Z0.000000 I-0.604066 J-0.763715 F400.000000
G02 X47.557202 Y9.193177 Z0.000000 I-13.023365 J-0.475125
G02 X47.173743 Y8.902071 Z0.000000 I-0.354961 J0.069463
G02 X46.775026 Y9.254913 Z0.000000 I0.034863 J0.441095
G02 X46.732657 Y12.637718 Z0.000000 I8.856221 J1.802589
G02 X47.422153 Y12.899548 Z0.000000 I0.422986 J-0.075114
G01 X47.422153 Y12.899548 Z0.000000
G00 Z5.000000

(End cutting path id: path3079)


(Footer)
M5
G00 X0.0000 Y0.0000
M2
(Using default footer. To add your own footer create file "footer" in the output dir.)
(end)
%