%
(Header)
(Generated by gcodetools from Inkscape.)
(Using default header. To add your own header create file "header" in the output dir.)
M3
(Header end.)
G21 (All units in mm)

(Start cutting path id: path632)
(Change tool to Cylindrical cutter)

G00 Z5.000000
G00 X9.742702 Y51.639950

G01 Z0.000000 F100.0(Penetrate)
G03 X6.755650 Y51.469173 Z0.000000 I-0.113404 J-24.224948 F400.000000
G03 X5.035535 Y51.038534 Z0.000000 I0.834196 J-6.982723
G03 X3.128858 Y49.985721 Z0.000000 I2.987875 J-7.664069
G03 X1.365481 Y48.320564 Z0.000000 I6.054010 J-8.177380
G03 X0.235822 Y45.289143 Z0.000000 I3.749423 J-3.123418
G03 X1.263320 Y42.910595 Z0.000000 I3.130164 J-0.059020
G03 X1.507823 Y42.706516 Z0.000000 I2.617027 J2.886899
G01 X1.529644 Y42.706378 Z0.000000
G01 X1.537649 Y42.728152 Z0.000000
G03 X1.432415 Y43.134461 Z0.000000 I-6.874284 J-1.563665
G02 X1.117918 Y44.548668 Z0.000000 I10.810780 J3.146219
G02 X1.073794 Y45.436277 Z0.000000 I4.198306 J0.653603
G02 X1.149547 Y45.933164 Z0.000000 I2.613493 J-0.144224
G02 X1.328844 Y46.446831 Z0.000000 I2.988122 J-0.754891
G02 X3.010745 Y48.904220 Z0.000000 I7.750406 J-3.500315
G02 X5.035535 Y50.222370 Z0.000000 I3.994273 J-3.921344
G02 X6.753140 Y50.639387 Z0.000000 I2.568306 J-6.832561
G02 X9.931524 Y50.797122 Z0.000000 I2.760624 J-23.525703
G02 X12.622401 Y50.624049 Z0.000000 I-0.510383 J-28.940120
G02 X15.038881 Y50.228686 Z0.000000 I-2.638220 J-23.707476
G02 X15.840389 Y49.986610 Z0.000000 I-1.112910 J-5.132753
G02 X16.276793 Y49.743761 Z0.000000 I-0.677808 J-1.731565
G02 X16.638750 Y49.411941 Z0.000000 I-1.481127 J-1.978977
G02 X17.425226 Y48.458815 Z0.000000 I-11.686875 J-10.444517
G03 X18.600551 Y47.069691 Z0.000000 I13.994968 J10.649229
G03 X19.621340 Y46.119803 Z0.000000 I7.548170 J7.088149
G02 X21.141699 Y44.297917 Z0.000000 I-3.893060 J-4.794058
G02 X21.198850 Y43.246745 Z0.000000 I-1.065642 J-0.585078
G02 X21.115413 Y43.094520 Z0.000000 I-0.744017 J0.308830
G02 X20.071554 Y41.631965 Z0.000000 I-69.999734 J48.856626
G03 X19.015606 Y40.175981 Z0.000000 I247.347845 J-180.499109
G03 X18.792073 Y39.856478 Z0.000000 I11.252468 J-8.110493
G02 X18.565253 Y39.539477 Z0.000000 I-6.540669 J4.440332
G02 X18.479248 Y39.441028 Z0.000000 I-0.722543 J0.544419
G02 X18.381043 Y39.412528 Z0.000000 I-0.075312 J0.076064
G02 X18.160787 Y39.510504 Z0.000000 I0.127862 J0.584008
G02 X17.726646 Y39.871085 Z0.000000 I2.298235 J3.208722
G02 X16.622732 Y40.986332 Z0.000000 I21.016260 J21.906676
G01 X16.080925 Y41.563190 Z0.000000
G01 X16.114744 Y41.170898 Z0.000000
G03 X16.566795 Y39.933023 Z0.000000 I2.514727 J0.216857
G03 X18.225607 Y38.177838 Z0.000000 I6.927692 J4.885853
G01 X18.639183 Y37.850110 Z0.000000
G01 X19.195081 Y38.553286 Z0.000000
G03 X21.405158 Y41.403965 Z0.000000 I-146.046795 J115.509329
G03 X22.289509 Y42.625674 Z0.000000 I-25.841769 J19.636856
G03 X22.800701 Y43.981169 Z0.000000 I-2.481946 J1.710143
G03 X22.568515 Y44.981527 Z0.000000 I-1.503536 J0.178150
G03 X22.266098 Y45.340049 Z0.000000 I-1.558982 J-1.008207
G03 X21.400355 Y46.055239 Z0.000000 I-7.176902 J-7.806115
G02 X20.259724 Y47.015817 Z0.000000 I7.111761 J9.602312
G02 X19.028101 Y48.320564 Z0.000000 I11.951468 J12.515330
G03 X16.996223 Y50.183954 Z0.000000 I-8.496326 J-7.225070
G03 X15.274204 Y50.990810 Z0.000000 I-3.076988 J-4.325981
G03 X12.716997 Y51.467956 Z0.000000 I-4.513134 J-17.096543
G03 X9.742702 Y51.639950 Z0.000000 I-3.105785 J-27.904979
G01 X9.742702 Y51.639950 Z0.000000
G00 Z5.000000

(End cutting path id: path632)


(Start cutting path id: path632)
(Change tool to Cylindrical cutter)

G00 Z5.000000
G00 X9.870227 Y47.259485

G01 Z0.000000 F100.0(Penetrate)
G03 X9.321510 Y47.022705 Z0.000000 I-0.000000 J-0.754192 F400.000000
G03 X9.075483 Y46.416652 Z0.000000 I0.657288 J-0.619789
G03 X9.125017 Y46.235690 Z0.000000 I0.336565 J-0.005135
G03 X9.241055 Y46.147172 Z0.000000 I0.172294 J0.105543
G03 X9.413537 Y46.116659 Z0.000000 I0.228211 J0.787286
G03 X10.550833 Y46.058049 Z0.000000 I2.339070 J34.324410
G02 X11.688998 Y46.001984 Z0.000000 I-1.393709 J-39.874337
G02 X11.876110 Y45.973834 Z0.000000 I-0.070041 J-1.101516
G01 X11.934847 Y46.027486 Z0.000000
G03 X11.845109 Y46.187173 Z0.000000 I-0.252351 J-0.036753
G03 X10.492887 Y47.101334 Z0.000000 I-5.373380 J-6.491096
G03 X9.870226 Y47.259485 Z0.000000 I-0.622661 J-1.146675
G01 X9.870227 Y47.259485 Z0.000000
G00 Z5.000000

(End cutting path id: path632)


(Start cutting path id: path632)
(Change tool to Cylindrical cutter)

G00 Z5.000000
G00 X2.732328 Y47.190009

G01 Z0.000000 F100.0(Penetrate)
G01 X2.785875 Y47.005443 Z0.000000 F400.000000
G02 X2.968981 Y46.153082 Z0.000000 I-5.799015 J-1.691604
G02 X3.032471 Y45.244694 Z0.000000 I-6.483254 J-0.909548
G02 X2.966424 Y44.504393 Z0.000000 I-4.171240 J-0.000956
G02 X2.807012 Y43.992729 Z0.000000 I-2.135031 J0.384519
G02 X2.695098 Y43.802079 Z0.000000 I-0.960899 J0.435886
G02 X2.244773 Y43.229901 Z0.000000 I-9.444758 J6.970069
G03 X1.442000 Y41.965572 Z0.000000 I4.356690 J-3.653256
G03 X1.245002 Y41.071247 Z0.000000 I1.931509 J-0.894325
G03 X1.286016 Y40.630373 Z0.000000 I2.390027 J0.000000
G03 X1.397187 Y40.262104 Z0.000000 I1.759508 J0.330233
G03 X1.950801 Y39.391892 Z0.000000 I2.877452 J1.219379
G03 X2.697805 Y38.815750 Z0.000000 I1.943658 J1.747734
G03 X3.271278 Y38.637581 Z0.000000 I0.792648 J1.539301
G03 X5.220130 Y38.493634 Z0.000000 I2.326035 J18.226951
G02 X6.942630 Y38.417897 Z0.000000 I-0.756066 J-36.821005
G02 X8.147578 Y38.295734 Z0.000000 I-1.209959 J-17.937907
G03 X9.639701 Y38.111087 Z0.000000 I8.697590 J64.163657
G03 X10.643130 Y38.016430 Z0.000000 I3.212811 J28.691958
G03 X10.890015 Y38.006839 Z0.000000 I0.250891 J3.275850
G03 X11.660515 Y38.015711 Z0.000000 I0.036896 J30.255804
G03 X13.675327 Y38.310838 Z0.000000 I-0.204029 J8.417936
G03 X14.833854 Y38.882401 Z0.000000 I-0.893523 J3.271042
G03 X15.608577 Y40.094024 Z0.000000 I-1.262381 J1.660673
G03 X15.599006 Y42.354778 Z0.000000 I-5.031385 J1.109097
G02 X15.393432 Y43.459457 Z0.000000 I13.215778 J3.030847
G02 X15.342546 Y44.145701 Z0.000000 I4.973885 J0.713828
G02 X15.380846 Y44.831148 Z0.000000 I5.601999 J0.030778
G02 X15.471481 Y45.243976 Z0.000000 I2.123745 J-0.249897
G02 X15.788679 Y45.974346 Z0.000000 I4.006353 J-1.305884
G02 X16.249315 Y46.652434 Z0.000000 I3.890557 J-2.147419
G03 X16.483619 Y46.964920 Z0.000000 I-3.300438 J2.718773
G01 X16.474070 Y46.982972 Z0.000000
G03 X16.428616 Y46.973023 Z0.000000 I-0.000000 J-0.108802
G03 X16.061198 Y46.793491 Z0.000000 I3.630873 J-7.896456
G03 X14.966986 Y46.028611 Z0.000000 I2.332966 J-4.502573
G03 X14.425209 Y45.293801 Z0.000000 I1.605238 J-1.750679
G03 X14.290781 Y44.708787 Z0.000000 I1.265246 J-0.598687
G03 X14.406187 Y43.338663 Z0.000000 I7.339633 J-0.071700
G02 X14.610787 Y41.306530 Z0.000000 I-12.983553 J-2.333578
G02 X14.470302 Y40.532972 Z0.000000 I-1.954049 J-0.044664
G02 X13.892776 Y39.754587 Z0.000000 I-1.774588 J0.713224
G02 X12.937179 Y39.302766 Z0.000000 I-1.422954 J1.773083
G02 X11.553248 Y39.159649 Z0.000000 I-1.377671 J6.559138
G02 X8.394175 Y39.306970 Z0.000000 I0.032353 J34.638022
G03 X7.622694 Y39.360324 Z0.000000 I-1.534512 J-16.584215
G03 X6.021216 Y39.415747 Z0.000000 I-3.266896 J-71.233243
G02 X4.013002 Y39.623221 Z0.000000 I0.296366 J12.691486
G02 X3.332615 Y39.911901 Z0.000000 I0.309180 J1.674843
G02 X2.817601 Y40.482162 Z0.000000 I1.040263 J1.457170
G02 X2.612554 Y41.175091 Z0.000000 I1.373464 J0.783229
G02 X2.723762 Y41.935953 Z0.000000 I1.910334 J0.109343
G02 X3.304433 Y43.085319 Z0.000000 I5.041744 J-1.825773
G03 X3.731146 Y43.792495 Z0.000000 I-7.594567 J5.064932
G03 X3.839194 Y44.069204 Z0.000000 I-1.043502 J0.566908
G03 X3.894144 Y44.807901 Z0.000000 I-2.091109 J0.526947
G03 X3.677145 Y45.710652 Z0.000000 I-3.369327 J-0.332448
G03 X3.222917 Y46.635785 Z0.000000 I-5.790130 J-2.268800
G03 X2.860560 Y47.074897 Z0.000000 I-1.628497 J-0.974776
G01 X2.732328 Y47.190009 Z0.000000
G00 Z5.000000

(End cutting path id: path632)


(Start cutting path id: path632)
(Change tool to Cylindrical cutter)

G00 Z5.000000
G00 X5.096832 Y47.173157

G01 Z0.000000 F100.0(Penetrate)
G03 X4.431031 Y46.873222 Z0.000000 I1.249464 J-3.662526 F400.000000
G03 X3.821578 Y46.446824 Z0.000000 I1.987726 J-3.489808
G01 X3.832540 Y46.402769 Z0.000000
G03 X4.160472 Y46.372436 Z0.000000 I0.286375 J1.308223
G02 X4.602825 Y46.366801 Z0.000000 I0.156924 J-5.047107
G02 X5.096832 Y46.319801 Z0.000000 I-0.366282 J-6.469557
G03 X5.590792 Y46.269328 Z0.000000 I1.053570 J7.868622
G03 X5.928918 Y46.260853 Z0.000000 I0.262161 J3.709867
G01 X6.267811 Y46.267859 Z0.000000
G01 X6.287540 Y46.474181 Z0.000000
G03 X6.222338 Y46.916819 Z0.000000 I-0.932738 J0.088726
G03 X6.004306 Y47.168935 Z0.000000 I-0.482289 J-0.196750
G03 X5.656164 Y47.264648 Z0.000000 I-0.351234 J-0.596549
G03 X5.096833 Y47.173139 Z0.000000 I-0.007631 J-1.708512
G01 X5.096832 Y47.173157 Z0.000000
G00 Z5.000000

(End cutting path id: path632)


(Start cutting path id: path632)
(Change tool to Cylindrical cutter)

G00 Z5.000000
G00 X6.094489 Y44.002546

G01 Z0.000000 F100.0(Penetrate)
G03 X5.005113 Y43.991030 Z0.000000 I-0.495501 J-4.659086 F400.000000
G03 X4.271792 Y43.724646 Z0.000000 I0.225225 J-1.762575
G03 X3.908998 Y43.337612 Z0.000000 I0.583004 J-0.910044
G03 X3.861738 Y42.983574 Z0.000000 I0.429502 J-0.237507
G03 X4.207181 Y42.438444 Z0.000000 I0.981348 J0.239854
G03 X5.085559 Y41.992667 Z0.000000 I1.478633 J1.825276
G03 X6.091431 Y41.964023 Z0.000000 I0.564125 J2.134423
G03 X7.337334 Y42.452330 Z0.000000 I-0.781871 J3.828522
G03 X7.750599 Y42.945622 Z0.000000 I-0.518561 J0.854191
G03 X7.688909 Y43.361127 Z0.000000 I-0.396311 J0.153492
G03 X7.149648 Y43.754942 Z0.000000 I-0.965564 J-0.756052
G03 X6.094489 Y44.002546 Z0.000000 I-1.516493 J-4.090438
G01 X6.094489 Y44.002546 Z0.000000
G00 Z5.000000

(End cutting path id: path632)


(Start cutting path id: path632)
(Change tool to Cylindrical cutter)

G00 Z5.000000
G00 X19.413495 Y38.255025

G01 Z0.000000 F100.0(Penetrate)
G01 X19.393230 Y38.214143 Z0.000000 F400.000000
G03 X19.637545 Y37.769398 Z0.000000 I5.553447 J2.761236
G02 X19.953246 Y37.220866 Z0.000000 I-12.890263 J-7.783936
G02 X20.351265 Y36.466203 Z0.000000 I-23.553827 J-12.904886
G03 X21.867584 Y33.619038 Z0.000000 I72.241699 J36.646505
G03 X22.721405 Y32.222583 Z0.000000 I18.094899 J10.104350
G03 X25.850364 Y28.304476 Z0.000000 I24.393161 J16.271690
G03 X29.582412 Y24.996424 Z0.000000 I21.036801 J19.973886
G03 X31.193908 Y23.934361 Z0.000000 I10.200596 J13.724021
G03 X34.211372 Y22.307228 Z0.000000 I27.159514 J46.754940
G02 X36.402828 Y21.120826 Z0.000000 I-16.678406 J-33.424590
G02 X37.459396 Y20.406126 Z0.000000 I-4.946905 J-8.451532
G02 X39.130752 Y18.528144 Z0.000000 I-4.220003 J-5.438417
G02 X41.454956 Y13.795422 Z0.000000 I-25.932893 J-15.672510
G02 X43.008564 Y9.021692 Z0.000000 I-42.781068 J-16.562750
G02 X43.300904 Y6.852782 Z0.000000 I-8.420789 J-2.239169
G01 X43.306532 Y6.136972 Z0.000000
G01 X43.105732 Y5.831701 Z0.000000
G02 X42.584604 Y5.286356 Z0.000000 I-1.749750 J1.150386
G02 X41.640951 Y4.769917 Z0.000000 I-2.506156 J3.458971
G02 X39.598164 Y4.365661 Z0.000000 I-2.137663 J5.438598
G02 X38.344314 Y4.716582 Z0.000000 I-0.037071 J2.283021
G02 X38.253186 Y5.082752 Z0.000000 I0.145201 J0.230560
G02 X38.955168 Y5.781171 Z0.000000 I1.627689 J-0.934001
G03 X39.299899 Y5.978217 Z0.000000 I-28.591542 J50.420773
G03 X39.375085 Y6.023284 Z0.000000 I-1.266353 J2.197967
G02 X39.451890 Y6.062348 Z0.000000 I0.263041 J-0.422127
G02 X39.489225 Y6.069602 Z0.000000 I0.037335 J-0.092457
G03 X39.738407 Y6.152052 Z0.000000 I-0.000000 J0.417763
G03 X40.012009 Y6.457683 Z0.000000 I-0.611124 J0.822364
G03 X40.166003 Y7.121194 Z0.000000 I-0.993312 J0.580162
G03 X39.880962 Y8.259835 Z0.000000 I-3.404835 J-0.247350
G03 X39.391303 Y9.047242 Z0.000000 I-3.073893 J-1.365588
G03 X38.592320 Y9.805843 Z0.000000 I-3.634898 J-3.028330
G03 X37.824077 Y10.251317 Z0.000000 I-2.274233 J-3.036858
G03 X36.003766 Y10.925871 Z0.000000 I-7.232555 J-16.723982
G02 X33.578160 Y11.826234 Z0.000000 I7.140298 J22.953705
G02 X31.966636 Y12.676796 Z0.000000 I4.752045 J10.955417
G02 X30.432017 Y13.862734 Z0.000000 I5.395719 J8.568007
G02 X29.619746 Y14.879662 Z0.000000 I3.125989 J3.329746
G02 X29.094901 Y16.232381 Z0.000000 I3.904984 J2.293284
G02 X28.934209 Y18.108521 Z0.000000 I7.459652 J1.583872
G02 X29.078723 Y19.410620 Z0.000000 I9.074217 J-0.348033
G02 X29.405560 Y20.656657 Z0.000000 I8.590906 J-1.587525
G03 X29.565869 Y21.145591 Z0.000000 I-18.037254 J6.184698
G01 X29.560563 Y21.152811 Z0.000000
G03 X29.350877 Y21.031561 Z0.000000 I0.000000 J-0.241937
G03 X28.404380 Y19.144337 Z0.000000 I15.951872 J-9.181285
G03 X27.900287 Y16.294769 Z0.000000 I5.768048 J-2.489747
G03 X28.705227 Y13.904199 Z0.000000 I4.763986 J0.273301
G03 X30.941868 Y11.820128 Z0.000000 I5.600701 J3.768488
G03 X36.157360 Y9.621274 Z0.000000 I11.523205 J20.047277
G02 X37.449807 Y9.156975 Z0.000000 I-2.732894 J-9.638440
G02 X38.085036 Y8.774939 Z0.000000 I-1.166756 J-2.659150
G02 X38.907883 Y7.897433 Z0.000000 I-2.529835 J-3.196804
G02 X39.084809 Y7.330686 Z0.000000 I-0.819266 J-0.566747
G02 X38.961021 Y7.016796 Z0.000000 I-0.459862 J0.000000
G02 X38.420408 Y6.619092 Z0.000000 I-1.331372 J1.243490
G03 X37.344789 Y5.956306 Z0.000000 I2.661289 J-5.523134
G03 X36.835851 Y5.400812 Z0.000000 I1.328898 J-1.728409
G03 X36.698282 Y4.690645 Z0.000000 I0.828856 J-0.528969
G03 X37.095833 Y4.012705 Z0.000000 I1.141928 J0.214103
G03 X37.772016 Y3.583806 Z0.000000 I1.976417 J2.368463
G03 X38.576115 Y3.324968 Z0.000000 I1.443150 J3.104836
G03 X39.532212 Y3.254500 Z0.000000 I0.785297 J4.133493
G03 X40.779981 Y3.414795 Z0.000000 I-0.293337 J7.220015
G03 X43.141374 Y4.246687 Z0.000000 I-2.162094 J9.904726
G03 X44.523308 Y5.280810 Z0.000000 I-2.151873 J4.316047
G03 X45.044271 Y6.839295 Z0.000000 I-1.457366 J1.353476
G03 X43.741950 Y12.818554 Z0.000000 I-27.425873 J-2.842075
G03 X42.581385 Y16.075007 Z0.000000 I-98.071593 J-33.116612
G03 X41.791727 Y18.015884 Z0.000000 I-35.870823 J-13.463192
G03 X40.579271 Y19.970199 Z0.000000 I-7.463865 J-3.277320
G03 X38.645164 Y21.775287 Z0.000000 I-8.263840 J-6.915783
G03 X37.201551 Y22.682899 Z0.000000 I-7.527812 J-10.371562
G03 X34.370596 Y24.081310 Z0.000000 I-20.899919 J-38.745254
G02 X31.475555 Y25.515299 Z0.000000 I17.942993 J39.863976
G02 X30.117870 Y26.387337 Z0.000000 I5.196105 J9.582777
G02 X26.784325 Y29.409004 Z0.000000 I14.828088 J19.708198
G02 X23.697213 Y33.375595 Z0.000000 I22.666097 J20.825140
G02 X22.987699 Y34.459923 Z0.000000 I2759.904056 J1806.659445
G02 X22.674897 Y34.938444 Z0.000000 I920.044062 J601.764881
G03 X21.362895 Y36.636221 Z0.000000 I-11.349438 J-7.414745
G03 X20.036319 Y37.845187 Z0.000000 I-7.033269 J-6.385178
G03 X19.485376 Y38.240064 Z0.000000 I-9.018884 J-12.001611
G03 X19.413488 Y38.255025 Z0.000000 I-0.053932 J-0.078952
G01 X19.413495 Y38.255025 Z0.000000
G00 Z5.000000

(End cutting path id: path632)


(Start cutting path id: path632)
(Change tool to Cylindrical cutter)

G00 Z5.000000
G00 X4.528252 Y37.845891

G01 Z0.000000 F100.0(Penetrate)
G02 X5.085355 Y36.391806 Z0.000000 I-4.284865 J-2.475422 F400.000000
G02 X5.038354 Y35.427581 Z0.000000 I-1.860980 J-0.392544
G02 X4.926101 Y35.161050 Z0.000000 I-1.480230 J0.466515
G02 X4.430318 Y34.292815 Z0.000000 I-16.372058 J8.773153
G03 X3.146255 Y31.571863 Z0.000000 I12.288722 J-7.462720
G03 X2.594939 Y29.040043 Z0.000000 I10.075200 J-3.519857
G03 X2.591311 Y27.041744 Z0.000000 I10.960393 J-1.019053
G03 X3.031766 Y24.150786 Z0.000000 I23.461110 J2.095416
G02 X3.884425 Y18.928122 Z0.000000 I-50.257152 J-10.885976
G02 X4.580390 Y10.174975 Z0.000000 I-140.726523 J-15.593447
G02 X4.604589 Y8.635752 Z0.000000 I-23.579297 J-1.140508
G02 X4.547981 Y8.270363 Z0.000000 I-1.355339 J0.022895
G02 X4.133586 Y7.486061 Z0.000000 I-2.186948 J0.653872
G02 X2.702738 Y5.995215 Z0.000000 I-9.650086 J7.829671
G03 X1.593734 Y4.609480 Z0.000000 I3.406324 J-3.862719
G03 X1.443689 Y3.700416 Z0.000000 I1.217452 J-0.667860
G03 X2.292755 Y2.485621 Z0.000000 I1.730189 J0.305175
G03 X4.987627 Y1.645624 Z0.000000 I3.197795 J5.516313
G03 X5.466394 Y1.607853 Z0.000000 I93.680645 J1184.403248
G02 X5.528025 Y1.602816 Z0.000000 I-0.803040 J-10.205264
G03 X6.107238 Y1.609404 Z0.000000 I0.253664 J3.163264
G03 X7.246447 Y1.780364 Z0.000000 I-1.279685 J12.408397
G03 X8.098973 Y2.030546 Z0.000000 I-0.955227 J4.832697
G03 X8.689386 Y2.349501 Z0.000000 I-1.032307 J2.616820
G03 X9.827610 Y3.686083 Z0.000000 I-2.042551 J2.892363
G03 X10.712883 Y6.485052 Z0.000000 I-8.907256 J4.356720
G03 X10.779039 Y7.157116 Z0.000000 I-5.597971 J0.890333
G03 X10.829135 Y9.506184 Z0.000000 I-68.281537 J2.631249
G02 X10.867772 Y11.856320 Z0.000000 I95.438368 J-0.393660
G02 X10.912978 Y12.434683 Z0.000000 I5.889632 J-0.169392
G02 X11.146026 Y14.086048 Z0.000000 I63.942155 J-8.181697
G02 X11.322327 Y15.083878 Z0.000000 I23.028631 J-3.554311
G03 X11.403367 Y15.542302 Z0.000000 I-10.538305 J2.099334
G03 X11.411102 Y15.660032 Z0.000000 I-0.665564 J0.102844
G01 X11.369513 Y15.690250 Z0.000000
G03 X11.196915 Y15.594767 Z0.000000 I0.137034 J-0.451445
G03 X10.448175 Y14.557355 Z0.000000 I1.843734 J-2.119597
G03 X9.810341 Y12.273275 Z0.000000 I8.909316 J-3.719044
G03 X9.769493 Y11.856318 Z0.000000 I4.021813 J-0.604486
G03 X9.689861 Y9.667593 Z0.000000 I112.086945 J-5.173822
G02 X9.602991 Y7.478670 Z0.000000 I-83.883434 J2.232841
G02 X9.535563 Y6.738393 Z0.000000 I-9.739995 J0.513958
G02 X8.901569 Y4.509334 Z0.000000 I-7.784860 J1.009496
G02 X8.069373 Y3.501111 Z0.000000 I-2.275219 J1.030424
G02 X7.175411 Y3.085755 Z0.000000 I-1.581670 J2.234484
G02 X5.575934 Y2.854077 Z0.000000 I-1.847793 J7.119816
G02 X3.664869 Y3.100676 Z0.000000 I-0.201527 J5.966597
G02 X3.057132 Y3.607078 Z0.000000 I0.287944 J0.963440
G02 X2.994185 Y3.826255 Z0.000000 I0.531779 J0.271352
G02 X3.013449 Y4.106039 Z0.000000 I0.897636 J0.078750
G02 X3.230486 Y4.587279 Z0.000000 I1.303574 J-0.298343
G02 X3.965310 Y5.432391 Z0.000000 I4.881523 J-3.502460
G03 X5.542745 Y7.378815 Z0.000000 I-6.774544 J7.102684
G03 X5.993739 Y8.717392 Z0.000000 I-2.657385 J1.640590
G03 X6.114194 Y11.612885 Z0.000000 I-26.103607 J2.536190
G03 X5.866918 Y17.970270 Z0.000000 I-126.356214 J-1.731239
G03 X5.476521 Y21.831899 Z0.000000 I-52.779554 J-3.385271
G03 X5.036242 Y23.973942 Z0.000000 I-16.607739 J-2.297319
G02 X4.514351 Y27.138350 Z0.000000 I14.820485 J4.069512
G02 X4.669869 Y30.181833 Z0.000000 I13.858508 J0.817565
G02 X5.099371 Y32.053958 Z0.000000 I14.710765 J-2.389611
G02 X5.809143 Y33.998779 Z0.000000 I16.560330 J-4.941843
G03 X6.303137 Y35.304858 Z0.000000 I-13.272733 J5.766569
G03 X6.376313 Y35.751105 Z0.000000 I-1.431803 J0.463911
G03 X6.140051 Y36.633093 Z0.000000 I-1.690454 J0.019808
G03 X5.364565 Y37.457817 Z0.000000 I-2.236465 J-1.325985
G03 X4.580013 Y37.902498 Z0.000000 I-3.129742 J-4.607387
G01 X4.528252 Y37.845899 Z0.000000
G01 X4.528252 Y37.845891 Z0.000000
G00 Z5.000000

(End cutting path id: path632)


(Start cutting path id: path632)
(Change tool to Cylindrical cutter)

G00 Z5.000000
G00 X7.055510 Y23.643404

G01 Z0.000000 F100.0(Penetrate)
G01 X7.032104 Y23.628063 Z0.000000 F400.000000
G03 X7.295764 Y22.768295 Z0.000000 I14.605479 J4.008664
G03 X8.624931 Y19.974651 Z0.000000 I12.565300 J4.265329
G03 X10.807997 Y17.176566 Z0.000000 I14.810687 J9.304645
G03 X12.548212 Y15.570876 Z0.000000 I13.928300 J13.349358
G03 X14.433664 Y14.222100 Z0.000000 I11.658844 J14.305657
G03 X15.863037 Y13.384590 Z0.000000 I15.610238 J25.003377
G03 X16.803804 Y12.921714 Z0.000000 I5.649038 J10.293881
G02 X17.128349 Y12.704888 Z0.000000 I-0.445887 J-1.018701
G02 X17.228654 Y12.513282 Z0.000000 I-0.235945 J-0.245574
G02 X17.363880 Y10.397665 Z0.000000 I-10.995728 J-1.764956
G02 X17.079287 Y7.776314 Z0.000000 I-17.208044 J0.542108
G02 X16.377579 Y6.221587 Z0.000000 I-3.538841 J0.661496
G02 X14.618259 Y4.626054 Z0.000000 I-5.498283 J4.294978
G03 X13.191297 Y3.532607 Z0.000000 I5.464641 J-8.609249
G03 X12.796266 Y2.955833 Z0.000000 I1.044342 J-1.138932
G03 X12.666959 Y2.225234 Z0.000000 I1.764305 J-0.689002
G03 X12.826560 Y1.588782 Z0.000000 I1.478309 J0.032473
G03 X13.719457 Y0.721628 Z0.000000 I1.709839 J0.867320
G03 X16.138697 Y0.028739 Z0.000000 I3.339575 J7.090345
G03 X16.499156 Y0.003779 Z0.000000 I0.438810 J3.721819
G03 X17.361109 Y0.003479 Z0.000000 I0.438259 J20.957732
G03 X19.447232 Y0.370891 Z0.000000 I-0.139248 J6.896730
G03 X20.645064 Y1.122806 Z0.000000 I-0.991843 J2.910103
G03 X23.317847 Y5.727143 Z0.000000 I-7.597403 J7.488169
G03 X24.682194 Y15.502138 Z0.000000 I-35.283018 J9.907346
G03 X24.660224 Y17.115038 Z0.000000 I-46.853763 J0.168395
G03 X24.613147 Y17.739390 Z0.000000 I-7.046022 J-0.217331
G03 X24.401541 Y19.332903 Z0.000000 I-64.701029 J-7.780973
G01 X24.380643 Y19.341540 Z0.000000
G01 X24.369139 Y19.321463 Z0.000000
G03 X24.265094 Y18.313442 Z0.000000 I54.163953 J-6.099969
G02 X23.717363 Y13.864382 Z0.000000 I-77.123555 J7.236565
G02 X22.995477 Y9.993219 Z0.000000 I-59.124465 J9.022512
G02 X20.346072 Y2.819516 Z0.000000 I-27.439372 J6.057867
G02 X18.331289 Y1.254740 Z0.000000 I-2.758536 J1.472360
G02 X16.051827 Y1.102320 Z0.000000 I-1.574836 J6.430856
G02 X14.695054 Y1.644223 Z0.000000 I0.287963 J2.690422
G02 X14.400317 Y1.983711 Z0.000000 I0.679477 J0.887594
G02 X14.310364 Y2.327048 Z0.000000 I0.610254 J0.343337
G02 X14.482193 Y2.771188 Z0.000000 I0.659917 J-0.000000
G02 X15.575049 Y3.717260 Z0.000000 I4.503583 J-4.098076
G03 X16.853855 Y4.732217 Z0.000000 I-5.997324 J8.869496
G03 X17.541477 Y5.539066 Z0.000000 I-3.064420 J3.308024
G03 X18.161403 Y6.978359 Z0.000000 I-3.616573 J2.410869
G03 X18.538429 Y9.883741 Z0.000000 I-14.835824 J3.402371
G03 X18.225297 Y14.997780 Z0.000000 I-27.333548 J0.892975
G03 X16.961624 Y19.976645 Z0.000000 I-27.152365 J-4.241677
G03 X16.400409 Y21.441351 Z0.000000 I-31.109853 J-11.080149
G01 X16.359929 Y21.441946 Z0.000000
G03 X16.352356 Y21.390053 Z0.000000 I0.088596 J-0.039428
G03 X16.493796 Y20.407535 Z0.000000 I34.976023 J4.533563
G02 X16.942289 Y16.982176 Z0.000000 I-63.545396 J-10.062247
G02 X17.184265 Y13.750512 Z0.000000 I-56.351784 J-5.844316
G01 X17.226538 Y12.829085 Z0.000000
G01 X16.924282 Y13.019267 Z0.000000
G02 X16.628730 Y13.220113 Z0.000000 I2.677120 J4.257345
G02 X15.572231 Y14.010169 Z0.000000 I40.269948 J54.952232
G02 X10.605940 Y18.579067 Z0.000000 I22.286612 J29.208629
G02 X7.405674 Y23.043392 Z0.000000 I18.045552 J16.315237
G03 X7.079027 Y23.616047 Z0.000000 I-30.112322 J-16.796837
G03 X7.055508 Y23.643407 Z0.000000 I-0.086050 J-0.050180
G01 X7.055510 Y23.643404 Z0.000000
G00 Z5.000000

(End cutting path id: path632)


(Start cutting path id: path632)
(Change tool to Cylindrical cutter)

G00 Z5.000000
G00 X48.733062 Y19.785055

G01 Z0.000000 F100.0(Penetrate)
G01 X49.152979 Y19.419434 Z0.000000 F400.000000
G02 X49.897695 Y18.672267 Z0.000000 I-4.906883 J-5.635503
G02 X50.547306 Y17.808161 Z0.000000 I-5.975112 J-5.168157
G02 X51.235791 Y16.330628 Z0.000000 I-4.894144 J-3.179693
G02 X51.390664 Y15.041070 Z0.000000 I-3.539293 J-1.079141
G02 X51.222834 Y14.179936 Z0.000000 I-3.240183 J0.184571
G02 X50.887608 Y13.563837 Z0.000000 I-1.959505 J0.666937
G02 X49.617760 Y12.761097 Z0.000000 I-1.774986 J1.402085
G02 X47.480353 Y12.783464 Z0.000000 I-1.022136 J4.461417
G02 X45.508071 Y13.675983 Z0.000000 I1.482959 J5.902452
G02 X43.458726 Y15.556875 Z0.000000 I5.707379 J8.275424
G03 X43.183528 Y15.872499 Z0.000000 I-5.847163 J-4.820456
G01 X43.166332 Y15.874075 Z0.000000
G03 X43.137532 Y15.741286 Z0.000000 I0.062099 J-0.082986
G03 X43.963895 Y14.418598 Z0.000000 I11.962312 J6.554098
G03 X45.835778 Y12.572385 Z0.000000 I6.106588 J4.319434
G03 X47.817838 Y11.771509 Z0.000000 I2.800224 J4.077071
G03 X48.575740 Y11.706288 Z0.000000 I0.783936 J4.673504
G03 X49.386894 Y11.763101 Z0.000000 I0.029644 J5.395780
G03 X51.736418 Y12.824822 Z0.000000 I-0.677489 J4.629779
G03 X52.565869 Y14.460016 Z0.000000 I-1.530875 J1.804502
G02 X52.721726 Y14.585653 Z0.000000 I0.136458 J-0.009789
G02 X53.016084 Y14.395452 Z0.000000 I-0.059424 J-0.414843
G02 X53.396706 Y13.551801 Z0.000000 I-2.762058 J-1.753817
G02 X53.524071 Y12.642424 Z0.000000 I-3.099873 J-0.897768
G02 X53.474590 Y12.051842 Z0.000000 I-3.705049 J0.013057
G02 X53.357091 Y11.627660 Z0.000000 I-2.041263 J0.337071
G02 X52.761168 Y10.540741 Z0.000000 I-4.632562 J1.833063
G02 X51.948674 Y9.681641 Z0.000000 I-3.659296 J2.647024
G02 X50.071760 Y8.861351 Z0.000000 I-2.420611 J2.981186
G02 X46.208622 Y8.860569 Z0.000000 I-1.934307 J13.524480
G03 X45.775822 Y8.913941 Z0.000000 I-1.622627 J-11.376573
G01 X45.752772 Y8.907588 Z0.000000
G01 X45.754144 Y8.894883 Z0.000000
G03 X46.245965 Y8.682316 Z0.000000 I5.407509 J11.836258
G03 X47.250508 Y8.349981 Z0.000000 I2.947288 J7.224322
G03 X48.329349 Y8.146865 Z0.000000 I2.086587 J8.116158
G02 X48.791084 Y8.088363 Z0.000000 I-5.097873 J-42.086823
G02 X48.883838 Y8.073879 Z0.000000 I-0.263266 J-1.990184
G03 X49.455344 Y8.042034 Z0.000000 I0.414543 J2.295432
G03 X50.601557 Y8.189673 Z0.000000 I-0.640379 J9.494874
G03 X52.950686 Y9.130708 Z0.000000 I-1.243317 J6.506337
G03 X54.314589 Y10.586228 Z0.000000 I-2.232904 J3.459141
G03 X54.896366 Y13.514643 Z0.000000 I-4.246752 J2.365683
G03 X53.648777 Y16.300768 Z0.000000 I-5.048824 J-0.588405
G03 X51.717434 Y18.053407 Z0.000000 I-9.058505 J-8.041683
G03 X49.101545 Y19.609627 Z0.000000 I-9.705472 J-13.337502
G01 X48.733062 Y19.785055 Z0.000000
G00 Z5.000000

(End cutting path id: path632)


(Start cutting path id: path632)
(Change tool to Cylindrical cutter)

G00 Z5.000000
G00 X24.584262 Y9.264776

G01 Z0.000000 F100.0(Penetrate)
G03 X24.663804 Y9.219520 Z0.000000 I0.239515 J0.328444 F400.000000
G03 X25.135228 Y9.030382 Z0.000000 I4.359721 J10.184421
G03 X27.404438 Y8.382893 Z0.000000 I5.139286 J13.711204
G03 X30.117878 Y8.034567 Z0.000000 I3.854603 J19.284181
G03 X31.692315 Y8.010541 Z0.000000 I1.067733 J18.370274
G03 X33.325740 Y8.122989 Z0.000000 I-0.547389 J19.871222
G03 X33.999853 Y8.205611 Z0.000000 I-3.103553 J28.113392
G03 X34.717246 Y8.310365 Z0.000000 I-4.387969 J32.559302
G03 X36.755548 Y8.704630 Z0.000000 I-4.604195 J29.269088
G01 X36.742857 Y8.776340 Z0.000000
G02 X35.385346 Y8.667483 Z0.000000 I-1.909430 J15.292856
G02 X32.059646 Y8.607915 Z0.000000 I-3.325701 J92.806264
G02 X27.380430 Y8.810979 Z0.000000 I0.005084 J54.130220
G02 X24.856222 Y9.233897 Z0.000000 I1.396954 J16.082189
G03 X24.590659 Y9.281294 Z0.000000 I-0.477057 J-1.905259
G01 X24.584262 Y9.264762 Z0.000000
G01 X24.584262 Y9.264776 Z0.000000
G00 Z5.000000

(End cutting path id: path632)


(Footer)
M5
G00 X0.0000 Y0.0000
M2
(Using default footer. To add your own footer create file "footer" in the output dir.)
(end)
%