%
(Header)
(Generated by gcodetools from Inkscape.)
(Using default header. To add your own header create file "header" in the output dir.)
M3
(Header end.)
G21 (All units in mm)

(Start cutting path id: path1873)
(Change tool to Cylindrical cutter)

G00 Z5.000000
G00 X2.393928 Y17.197366

G01 Z0.000000 F100.0(Penetrate)
G03 X1.667043 Y17.141329 Z0.000000 I-0.027870 J-4.380876 F400.000000
G03 X1.236927 Y16.997274 Z0.000000 I0.223080 J-1.380206
G03 X0.785647 Y16.663473 Z0.000000 I0.873184 J-1.652450
G03 X0.335690 Y16.092179 Z0.000000 I2.225205 J-2.215435
G03 X0.039073 Y15.070754 Z0.000000 I1.708131 J-1.049815
G03 X0.310334 Y14.290257 Z0.000000 I1.209215 J-0.017124
G03 X0.370627 Y14.222475 Z0.000000 I0.805181 J0.655508
G01 X0.375929 Y14.222456 Z0.000000
G01 X0.378037 Y14.229107 Z0.000000
G03 X0.352227 Y14.365221 Z0.000000 I-2.838157 J-0.467667
G02 X0.275028 Y14.834363 Z0.000000 I4.803202 J1.031307
G02 X0.264032 Y15.131409 Z0.000000 I1.902557 J0.219152
G02 X0.282722 Y15.298690 Z0.000000 I1.192443 J-0.048544
G02 X0.326319 Y15.468202 Z0.000000 I1.232451 J-0.226617
G02 X0.764013 Y16.320987 Z0.000000 I2.992064 J-0.996967
G02 X1.236927 Y16.725525 Z0.000000 I1.076023 J-0.779204
G02 X1.666072 Y16.865038 Z0.000000 I0.655517 J-1.286592
G02 X2.440230 Y16.916798 Z0.000000 I0.671756 J-4.231961
G02 X3.098327 Y16.859631 Z0.000000 I-0.125677 J-5.263290
G02 X3.694796 Y16.727729 Z0.000000 I-0.667160 J-4.431531
G02 X3.887623 Y16.649210 Z0.000000 I-0.291572 J-0.992073
G02 X3.999067 Y16.566224 Z0.000000 I-0.214215 J-0.404000
G02 X4.085720 Y16.459126 Z0.000000 I-0.501513 J-0.494376
G02 X4.281289 Y16.137930 Z0.000000 I-4.440997 J-2.924164
G03 X4.574665 Y15.668758 Z0.000000 I5.105919 J2.866446
G03 X4.820929 Y15.359064 Z0.000000 I2.476172 J1.716258
G02 X5.192430 Y14.767920 Z0.000000 I-1.472137 J-1.337462
G02 X5.208433 Y14.402153 Z0.000000 I-0.507496 J-0.205438
G02 X5.187366 Y14.350344 Z0.000000 I-0.300751 J0.092108
G02 X4.931723 Y13.864717 Z0.000000 I-26.179320 J13.471169
G03 X4.672167 Y13.380072 Z0.000000 I110.584591 J-59.536439
G03 X4.616979 Y13.273264 Z0.000000 I4.216484 J-2.246316
G02 X4.561053 Y13.167022 Z0.000000 I-2.656849 J1.330720
G02 X4.540360 Y13.134910 Z0.000000 I-0.247179 J0.136562
G01 X4.515665 Y13.126697 Z0.000000
G02 X4.462088 Y13.158052 Z0.000000 I0.036994 J0.124663
G02 X4.357643 Y13.275399 Z0.000000 I0.751212 J0.773775
G02 X4.084505 Y13.649734 Z0.000000 I7.647839 J5.867140
G01 X3.951111 Y13.841566 Z0.000000
G01 X3.959380 Y13.710929 Z0.000000
G03 X4.079849 Y13.278620 Z0.000000 I1.083233 J0.068918
G03 X4.478074 Y12.714331 Z0.000000 I2.283423 J1.188777
G01 X4.579497 Y12.605190 Z0.000000
G01 X4.716199 Y12.839457 Z0.000000
G03 X5.257735 Y13.786236 Z0.000000 I-54.482261 J31.790907
G03 X5.476325 Y14.195448 Z0.000000 I-9.966236 J5.586671
G03 X5.605543 Y14.646285 Z0.000000 I-1.100132 J0.559254
G03 X5.545227 Y14.980378 Z0.000000 I-0.641884 J0.056608
G03 X5.467735 Y15.103562 Z0.000000 I-0.565780 J-0.269950
G03 X5.258043 Y15.337564 Z0.000000 I-2.318562 J-1.866734
G02 X4.982807 Y15.651177 Z0.000000 I2.342139 J2.333115
G02 X4.675409 Y16.092179 Z0.000000 I4.396087 J3.391914
G03 X4.156477 Y16.730892 Z0.000000 I-2.864550 J-1.797179
G03 X3.752674 Y16.981289 Z0.000000 I-0.785129 J-0.815346
G03 X3.119978 Y17.140596 Z0.000000 I-1.135367 J-3.173109
G03 X2.393929 Y17.197366 Z0.000000 I-0.758331 J-5.027305
G01 X2.393928 Y17.197366 Z0.000000
G00 Z5.000000

(End cutting path id: path1873)


(Start cutting path id: path1873)
(Change tool to Cylindrical cutter)

G00 Z5.000000
G00 X2.424796 Y15.738850

G01 Z0.000000 F100.0(Penetrate)
G03 X2.298144 Y15.672527 Z0.000000 I0.000000 J-0.154090 F400.000000
G03 X2.229666 Y15.457729 Z0.000000 I0.316200 J-0.219119
G03 X2.243139 Y15.394282 Z0.000000 I0.148290 J-0.001664
G03 X2.270456 Y15.368434 Z0.000000 I0.045709 J0.020947
G03 X2.313435 Y15.358210 Z0.000000 I0.057505 J0.146287
G03 X2.592365 Y15.338668 Z0.000000 I0.571853 J6.161868
G02 X2.871702 Y15.319966 Z0.000000 I-0.341163 J-7.191040
G02 X2.918134 Y15.310558 Z0.000000 I-0.018011 J-0.208191
G01 X2.935686 Y15.324838 Z0.000000
G03 X2.910418 Y15.381664 Z0.000000 I-0.101472 J-0.011088
G03 X2.570472 Y15.691067 Z0.000000 I-1.645743 J-1.466753
G03 X2.424797 Y15.738853 Z0.000000 I-0.145675 J-0.198148
G01 X2.424796 Y15.738850 Z0.000000
G00 Z5.000000

(End cutting path id: path1873)


(Start cutting path id: path1873)
(Change tool to Cylindrical cutter)

G00 Z5.000000
G00 X0.671380 Y15.715708

G01 Z0.000000 F100.0(Penetrate)
G01 X0.684609 Y15.653972 Z0.000000 F400.000000
G02 X0.729505 Y15.371668 Z0.000000 I-2.575964 J-0.554380
G02 X0.745243 Y15.068028 Z0.000000 I-2.928663 J-0.304029
G02 X0.728669 Y14.819209 Z0.000000 I-1.871313 J-0.000314
G02 X0.689570 Y14.650760 Z0.000000 I-0.904565 J0.121197
G02 X0.661352 Y14.585770 Z0.000000 I-0.388027 J0.129858
G02 X0.551766 Y14.396650 Z0.000000 I-3.331278 J1.803996
G03 X0.357030 Y13.985018 Z0.000000 I1.730291 J-1.070454
G03 X0.305924 Y13.677863 Z0.000000 I0.897482 J-0.307155
G03 X0.316172 Y13.529774 Z0.000000 I1.075203 J0.000000
G03 X0.343407 Y13.408321 Z0.000000 I0.748669 J0.104107
G03 X0.487004 Y13.106831 Z0.000000 I1.130140 J0.353333
G03 X0.663112 Y12.926557 Z0.000000 I0.562560 J0.373402
G03 X0.808713 Y12.866738 Z0.000000 I0.206863 J0.296405
G03 X1.282678 Y12.819623 Z0.000000 I0.567155 J3.297867
G02 X1.705292 Y12.794313 Z0.000000 I-0.183745 J-6.608977
G02 X2.002014 Y12.753476 Z0.000000 I-0.305819 J-3.320489
G03 X2.368878 Y12.691843 Z0.000000 I2.203539 J11.993823
G03 X2.614965 Y12.660322 Z0.000000 I0.785263 J5.154260
G03 X2.675611 Y12.657184 Z0.000000 I0.060407 J0.579696
G03 X2.864666 Y12.660322 Z0.000000 I-0.002394 J5.839445
G03 X3.346596 Y12.754922 Z0.000000 I-0.050310 J1.531183
G03 X3.644635 Y12.949157 Z0.000000 I-0.279708 J0.754967
G03 X3.835051 Y13.327875 Z0.000000 I-0.507156 J0.492222
G03 X3.832600 Y14.105058 Z0.000000 I-2.342795 J0.381206
G02 X3.782256 Y14.472466 Z0.000000 I5.816497 J0.984154
G02 X3.769761 Y14.702022 Z0.000000 I2.270818 J0.238718
G02 X3.779074 Y14.931079 Z0.000000 I2.563153 J0.010509
G02 X3.801181 Y15.067478 Z0.000000 I0.914946 J-0.078298
G02 X3.881056 Y15.315446 Z0.000000 I1.676278 J-0.403112
G02 X3.992452 Y15.536562 Z0.000000 I1.444699 J-0.589209
G03 X4.050583 Y15.641367 Z0.000000 I-1.290218 J0.784156
G01 X4.047574 Y15.646253 Z0.000000
G01 X4.036789 Y15.643189 Z0.000000
G03 X3.946150 Y15.583417 Z0.000000 I0.975312 J-1.577578
G03 X3.686354 Y15.339995 Z0.000000 I0.730003 J-1.039455
G03 X3.544314 Y15.084016 Z0.000000 I0.671342 J-0.539918
G03 X3.510931 Y14.891814 Z0.000000 I0.564438 J-0.197037
G03 X3.539353 Y14.433028 Z0.000000 I3.287816 J-0.026591
G02 X3.590110 Y13.753856 Z0.000000 I-5.901040 J-0.782488
G02 X3.555338 Y13.498720 Z0.000000 I-0.845691 J-0.014680
G02 X3.400702 Y13.225944 Z0.000000 I-0.666549 J0.197645
G02 X3.178858 Y13.089168 Z0.000000 I-0.353196 J0.324567
G02 X2.837165 Y13.041619 Z0.000000 I-0.340815 J1.197652
G02 X2.062647 Y13.090296 Z0.000000 I0.004411 J6.256279
G03 X1.872832 Y13.108135 Z0.000000 I-0.381045 J-3.035733
G03 X1.479461 Y13.126678 Z0.000000 I-0.797065 J-12.727574
G02 X0.994541 Y13.194268 Z0.000000 I0.072697 J2.294878
G02 X0.818554 Y13.292043 Z0.000000 I0.094453 J0.377273
G02 X0.695841 Y13.471762 Z0.000000 I0.375731 J0.388306
G02 X0.642165 Y13.712619 Z0.000000 I0.646182 J0.270413
G02 X0.670569 Y13.971844 Z0.000000 I0.864082 J0.036488
G02 X0.811940 Y14.348723 Z0.000000 I1.979801 J-0.527686
G03 X0.915840 Y14.582041 Z0.000000 I-2.992278 J1.472308
G03 X0.943129 Y14.676143 Z0.000000 I-0.462956 J0.185260
G03 X0.956949 Y14.923447 Z0.000000 I-0.953889 J0.177346
G03 X0.903441 Y15.222948 Z0.000000 I-1.452835 J-0.105029
G03 X0.789269 Y15.536938 Z0.000000 I-2.384906 J-0.689443
G03 X0.702799 Y15.677151 Z0.000000 I-0.553585 J-0.244628
G01 X0.671380 Y15.715708 Z0.000000
G00 Z5.000000

(End cutting path id: path1873)


(Start cutting path id: path1873)
(Change tool to Cylindrical cutter)

G00 Z5.000000
G00 X1.252361 Y15.710205

G01 Z0.000000 F100.0(Penetrate)
G03 X1.092918 Y15.613544 Z0.000000 I0.350471 J-0.757936 F400.000000
G03 X0.938720 Y15.468219 Z0.000000 I0.655156 J-0.849629
G01 X0.943083 Y15.453205 Z0.000000
G03 X1.021953 Y15.443412 Z0.000000 I0.068719 J0.230944
G02 X1.130604 Y15.441500 Z0.000000 I0.038403 J-0.905809
G02 X1.252361 Y15.425773 Z0.000000 I-0.093493 J-1.202999
G03 X1.373941 Y15.409218 Z0.000000 I0.246998 J1.359202
G03 X1.456862 Y15.406469 Z0.000000 I0.065221 J0.715435
G01 X1.540095 Y15.408727 Z0.000000
G01 X1.545056 Y15.477075 Z0.000000
G03 X1.527651 Y15.631078 Z0.000000 I-0.425678 J0.029874
G03 X1.475052 Y15.708588 Z0.000000 I-0.151112 J-0.045943
G03 X1.387944 Y15.739473 Z0.000000 I-0.088322 J-0.110823
G03 X1.252361 Y15.710281 Z0.000000 I-0.002714 J-0.316853
G01 X1.252361 Y15.710205 Z0.000000
G00 Z5.000000

(End cutting path id: path1873)


(Start cutting path id: path1873)
(Change tool to Cylindrical cutter)

G00 Z5.000000
G00 X1.497652 Y14.654076

G01 Z0.000000 F100.0(Penetrate)
G03 X1.236049 Y14.650186 Z0.000000 I-0.118603 J-0.822435 F400.000000
G03 X1.049514 Y14.561470 Z0.000000 I0.066399 J-0.380072
G03 X0.961713 Y14.438939 Z0.000000 I0.213113 J-0.245432
G03 X0.948641 Y14.314526 Z0.000000 I0.207320 J-0.084675
G03 X1.044084 Y14.121644 Z0.000000 I0.381731 J0.068836
G03 X1.249605 Y13.984899 Z0.000000 I0.378442 J0.345961
G03 X1.491184 Y13.975796 Z0.000000 I0.135178 J0.377343
G03 X1.803025 Y14.137586 Z0.000000 I-0.223769 J0.812726
G03 X1.907002 Y14.296680 Z0.000000 I-0.202091 J0.245601
G03 X1.889015 Y14.440755 Z0.000000 I-0.179541 J0.050746
G03 X1.745862 Y14.575951 Z0.000000 I-0.298002 J-0.172154
G03 X1.497652 Y14.654076 Z0.000000 I-0.363474 J-0.721437
G01 X1.497652 Y14.654076 Z0.000000
G00 Z5.000000

(End cutting path id: path1873)


(Start cutting path id: path1873)
(Change tool to Cylindrical cutter)

G00 Z5.000000
G00 X4.769666 Y12.740256

G01 Z0.000000 F100.0(Penetrate)
G01 X4.763653 Y12.728767 Z0.000000 F400.000000
G03 X4.824787 Y12.578199 Z0.000000 I2.281797 J0.838766
G02 X4.901980 Y12.396451 Z0.000000 I-5.159106 J-2.298459
G02 X5.000074 Y12.144392 Z0.000000 I-9.631436 J-3.893394
G03 X5.374549 Y11.191963 Z0.000000 I29.054843 J10.873933
G03 X5.582708 Y10.731077 Z0.000000 I7.059984 J2.911188
G03 X6.372156 Y9.396420 Z0.000000 I9.066151 J4.461810
G03 X7.268325 Y8.324469 Z0.000000 I6.711186 J4.700080
G03 X7.671251 Y7.965189 Z0.000000 I3.147295 J3.124054
G03 X8.405482 Y7.428747 Z0.000000 I7.750391 J9.837307
G02 X8.938600 Y7.038116 Z0.000000 I-4.914186 J-7.265814
G02 X9.203642 Y6.795951 Z0.000000 I-1.587245 J-2.003303
G02 X9.600123 Y6.203537 Z0.000000 I-1.523417 J-1.448451
G02 X10.185356 Y4.594397 Z0.000000 I-11.084887 J-4.942491
G02 X10.565871 Y3.012061 Z0.000000 I-18.534689 J-5.294085
G02 X10.639006 Y2.282049 Z0.000000 I-3.838393 J-0.753212
G01 X10.640671 Y2.043924 Z0.000000
G01 X10.591062 Y1.942499 Z0.000000
G02 X10.454946 Y1.752929 Z0.000000 I-0.616635 J0.299106
G02 X10.231118 Y1.588620 Z0.000000 I-0.679494 J0.691029
G02 X9.735357 Y1.459059 Z0.000000 I-0.519778 J0.975622
G02 X9.421383 Y1.570982 Z0.000000 I-0.010166 J0.467832
G02 X9.392363 Y1.693765 Z0.000000 I0.069316 J0.081204
G02 X9.571314 Y1.925413 Z0.000000 I0.528900 J-0.223636
G03 X9.655840 Y1.990835 Z0.000000 I-9.573466 J12.456423
G03 X9.674391 Y2.005889 Z0.000000 I-0.374213 J0.480107
G02 X9.693627 Y2.019062 Z0.000000 I0.074695 J-0.088443
G01 X9.702503 Y2.021326 Z0.000000
G03 X9.759679 Y2.045072 Z0.000000 I0.000000 J0.080708
G03 X9.830936 Y2.150310 Z0.000000 I-0.240460 J0.239560
G03 X9.870015 Y2.369798 Z0.000000 I-0.447756 J0.192943
G03 X9.798415 Y2.751136 Z0.000000 I-1.481508 J-0.080778
G03 X9.672918 Y3.021829 Z0.000000 I-1.210408 J-0.396724
G03 X9.482017 Y3.265418 Z0.000000 I-1.166630 J-0.717688
G03 X9.286453 Y3.417719 Z0.000000 I-0.674880 J-0.664882
G03 X8.845915 Y3.638592 Z0.000000 I-1.898144 J-3.236133
G02 X8.258775 Y3.933480 Z0.000000 I1.922974 J4.560717
G02 X7.854278 Y4.221776 Z0.000000 I1.443723 J2.453543
G02 X7.486841 Y4.604472 Z0.000000 I1.739555 J2.037940
G02 X7.277707 Y4.955444 Z0.000000 I1.253363 J0.984637
G02 X7.149486 Y5.397364 Z0.000000 I1.673788 J0.725205
G02 X7.109035 Y6.030316 Z0.000000 I3.405948 J0.535434
G02 X7.144804 Y6.466682 Z0.000000 I4.092143 J-0.115779
G02 X7.224790 Y6.879186 Z0.000000 I3.703385 J-0.504097
G03 X7.264279 Y7.042724 Z0.000000 I-7.539506 J1.907075
G01 X7.262824 Y7.044552 Z0.000000
G03 X7.214913 Y7.012817 Z0.000000 I-0.000000 J-0.052034
G03 X6.978949 Y6.375375 Z0.000000 I6.771624 J-2.869072
G03 X6.850681 Y5.416889 Z0.000000 I2.642153 J-0.841408
G03 X7.052811 Y4.630228 Z0.000000 I1.953065 J0.082536
G03 X7.646826 Y3.903134 Z0.000000 I1.891084 J0.938768
G03 X8.883949 Y3.204235 Z0.000000 I2.973324 J3.818722
G02 X9.195297 Y3.053235 Z0.000000 I-0.734117 J-1.910158
G02 X9.357442 Y2.922564 Z0.000000 I-0.375604 J-0.632012
G02 X9.555516 Y2.639922 Z0.000000 I-0.910288 J-0.848652
G02 X9.603285 Y2.441352 Z0.000000 I-0.388840 J-0.198570
G02 X9.568582 Y2.329713 Z0.000000 I-0.196923 J0.000000
G02 X9.440125 Y2.204331 Z0.000000 I-0.382054 J0.262927
G03 X9.183205 Y1.991521 Z0.000000 I0.807288 J-1.236110
G03 X9.050415 Y1.798636 Z0.000000 I0.520473 J-0.500467
G03 X9.013413 Y1.555805 Z0.000000 I0.390112 J-0.183681
G03 X9.114357 Y1.336167 Z0.000000 I0.414244 J0.057369
G03 X9.286808 Y1.189775 Z0.000000 I0.594683 J0.525770
G03 X9.478159 Y1.107412 Z0.000000 I0.360245 J0.573485
G03 X9.712692 Y1.084174 Z0.000000 I0.192471 J0.747410
G03 X10.019452 Y1.137178 Z0.000000 I-0.072940 J1.336336
G03 X10.580180 Y1.401912 Z0.000000 I-0.575584 J1.945331
G03 X10.939430 Y1.758947 Z0.000000 I-0.759871 J1.123843
G03 X11.072856 Y2.255975 Z0.000000 I-0.639303 J0.438041
G03 X10.747607 Y4.269181 Z0.000000 I-12.119797 J-0.925167
G03 X10.461408 Y5.356564 Z0.000000 I-41.322051 J-10.294603
G03 X10.268050 Y5.999999 Z0.000000 I-15.156965 J-4.204040
G03 X9.956879 Y6.672986 Z0.000000 I-2.950640 J-0.955867
G03 X9.495246 Y7.251807 Z0.000000 I-2.624339 J-1.619516
G03 X9.133041 Y7.559395 Z0.000000 I-2.278720 J-2.316288
G03 X8.444630 Y8.019652 Z0.000000 I-5.883228 J-8.054649
G02 X7.741352 Y8.491779 Z0.000000 I5.081924 J8.329883
G02 X7.400077 Y8.788044 Z0.000000 I1.670592 J2.269083
G02 X6.600359 Y9.765599 Z0.000000 I5.020713 J4.923241
G02 X5.822499 Y11.115277 Z0.000000 I8.850708 J5.999919
G03 X5.648057 Y11.476292 Z0.000000 I-948.388252 J-458.034591
G02 X5.571145 Y11.635624 Z0.000000 I138.030361 J66.728201
G03 X5.240890 Y12.212896 Z0.000000 I-4.252136 J-2.049524
G03 X4.922915 Y12.603556 Z0.000000 I-2.252583 J-1.508733
G03 X4.786551 Y12.736008 Z0.000000 I-2.855555 J-2.803479
G01 X4.769678 Y12.740259 Z0.000000
G01 X4.769666 Y12.740256 Z0.000000
G00 Z5.000000

(End cutting path id: path1873)


(Start cutting path id: path1873)
(Change tool to Cylindrical cutter)

G00 Z5.000000
G00 X1.112352 Y12.603537

G01 Z0.000000 F100.0(Penetrate)
G02 X1.249941 Y12.123360 Z0.000000 I-1.859956 J-0.792747 F400.000000
G02 X1.238030 Y11.798213 Z0.000000 I-0.842995 J-0.131910
G02 X1.209865 Y11.708039 Z0.000000 I-0.619961 J0.144150
G02 X1.088650 Y11.420630 Z0.000000 I-6.560875 J2.597794
G03 X0.776396 Y10.528479 Z0.000000 I5.107477 J-2.288342
G03 X0.637756 Y9.671073 Z0.000000 I4.586469 J-1.181532
G03 X0.636698 Y9.003911 Z0.000000 I4.978077 J-0.341475
G03 X0.744692 Y8.042783 Z0.000000 I10.364667 J0.677957
G02 X0.953950 Y6.308794 Z0.000000 I-22.481770 J-3.592727
G02 X1.125582 Y3.388321 Z0.000000 I-63.303972 J-5.185551
G02 X1.131287 Y2.875112 Z0.000000 I-10.445531 J-0.372760
G02 X1.117313 Y2.754424 Z0.000000 I-0.597516 J0.008030
G02 X1.009306 Y2.482311 Z0.000000 I-0.893130 J0.197011
G02 X0.664214 Y1.996502 Z0.000000 I-3.239202 J1.935478
G03 X0.395569 Y1.548951 Z0.000000 I1.287817 J-1.077424
G03 X0.354983 Y1.232518 Z0.000000 I0.581794 J-0.235442
G03 X0.599034 Y0.803016 Z0.000000 I0.648474 J0.084388
G03 X1.225352 Y0.547909 Z0.000000 I0.756808 J0.961656
G02 X1.343056 Y0.535171 Z0.000000 I-4.521003 J-42.327286
G03 X1.358194 Y0.533572 Z0.000000 I0.210626 J1.921343
G03 X1.499903 Y0.535877 Z0.000000 I0.061649 J0.567197
G03 X1.780425 Y0.593104 Z0.000000 I-0.332474 J2.345907
G03 X1.985025 Y0.674037 Z0.000000 I-0.248298 J0.926779
G03 X2.134857 Y0.782724 Z0.000000 I-0.322293 J0.601924
G03 X2.405273 Y1.198288 Z0.000000 I-0.750642 J0.784222
G03 X2.632053 Y2.159658 Z0.000000 I-4.054229 J1.463796
G03 X2.648322 Y2.382948 Z0.000000 I-2.522536 J0.296028
G03 X2.660716 Y3.165627 Z0.000000 I-30.545992 J0.875159
G02 X2.670046 Y3.948878 Z0.000000 I44.158449 J-0.134345
G02 X2.681111 Y4.141278 Z0.000000 I2.628117 J-0.054623
G02 X2.738615 Y4.691564 Z0.000000 I27.543277 J-2.600063
G02 X2.781984 Y5.023223 Z0.000000 I10.446316 J-1.197330
G03 X2.802039 Y5.175734 Z0.000000 I-5.017738 J0.737421
G03 X2.804032 Y5.215046 Z0.000000 I-0.301275 J0.034979
G01 X2.792020 Y5.223040 Z0.000000
G03 X2.751116 Y5.193541 Z0.000000 I0.039144 J-0.097389
G03 X2.572168 Y4.866781 Z0.000000 I0.706708 J-0.599402
G03 X2.410464 Y4.087252 Z0.000000 I4.048975 J-1.246446
G03 X2.400413 Y3.948705 Z0.000000 I1.817497 J-0.201502
G03 X2.380699 Y3.219639 Z0.000000 I49.245202 J-1.696372
G02 X2.359253 Y2.490225 Z0.000000 I-37.383888 J0.734119
G02 X2.342665 Y2.243988 Z0.000000 I-4.386489 J0.171824
G02 X2.180607 Y1.478639 Z0.000000 I-3.444593 J0.329541
G02 X1.982721 Y1.165812 Z0.000000 I-0.732397 J0.244291
G02 X1.753515 Y1.024850 Z0.000000 I-0.439972 J0.458575
G02 X1.369770 Y0.950287 Z0.000000 I-0.445158 J1.266283
G02 X0.920766 Y1.027278 Z0.000000 I-0.048723 J1.063629
G02 X0.751306 Y1.201090 Z0.000000 I0.113775 J0.280440
G02 X0.735597 Y1.273395 Z0.000000 I0.237835 J0.089531
G02 X0.740282 Y1.367556 Z0.000000 I0.401017 J0.027246
G02 X0.796759 Y1.534089 Z0.000000 I0.545241 J-0.092066
G02 X0.973997 Y1.809081 Z0.000000 I1.685913 J-0.891995
G03 X1.354496 Y2.439298 Z0.000000 I-2.532974 J1.959279
G03 X1.472847 Y2.903243 Z0.000000 I-1.228697 J0.560505
G03 X1.502389 Y3.867074 Z0.000000 I-11.756004 J0.842694
G03 X1.441428 Y5.984536 Z0.000000 I-57.241502 J-0.588354
G03 X1.345277 Y7.274012 Z0.000000 I-23.795992 J-1.126045
G03 X1.237478 Y7.983793 Z0.000000 I-7.268101 J-0.740775
G02 X1.108732 Y9.035010 Z0.000000 I6.659504 J1.349104
G02 X1.147079 Y10.051401 Z0.000000 I6.235904 J0.273649
G02 X1.253718 Y10.679904 Z0.000000 I6.488301 J-0.777585
G02 X1.427096 Y11.322504 Z0.000000 I6.967054 J-1.535069
G03 X1.548106 Y11.755511 Z0.000000 I-5.681686 J1.821241
G03 X1.566554 Y11.906242 Z0.000000 I-0.654623 J0.156612
G03 X1.503459 Y12.214459 Z0.000000 I-0.752609 J0.006501
G03 X1.317956 Y12.474544 Z0.000000 I-0.711726 J-0.311435
G03 X1.129636 Y12.618292 Z0.000000 I-0.871544 J-0.946553
G01 X1.112352 Y12.603528 Z0.000000
G01 X1.112352 Y12.603537 Z0.000000
G00 Z5.000000

(End cutting path id: path1873)


(Start cutting path id: path1873)
(Change tool to Cylindrical cutter)

G00 Z5.000000
G00 X1.733572 Y7.874110

G01 Z0.000000 F100.0(Penetrate)
G01 X1.727345 Y7.870945 Z0.000000 F400.000000
G03 X1.792552 Y7.582518 Z0.000000 I6.286773 J1.269721
G03 X2.129461 Y6.628585 Z0.000000 I5.221678 J1.307722
G03 X2.655204 Y5.719961 Z0.000000 I5.245164 J2.428518
G03 X3.091479 Y5.176188 Z0.000000 I4.694194 J3.319298
G03 X3.546519 Y4.736592 Z0.000000 I3.560866 J3.230658
G03 X3.900473 Y4.455397 Z0.000000 I4.715846 J5.572700
G03 X4.128602 Y4.303339 Z0.000000 I1.562119 J2.096448
G02 X4.205586 Y4.235186 Z0.000000 I-0.139488 J-0.235117
G02 X4.233333 Y4.167186 Z0.000000 I-0.109185 J-0.084215
G02 X4.266615 Y3.462221 Z0.000000 I-4.960915 J-0.587473
G02 X4.196402 Y2.589609 Z0.000000 I-7.712565 J0.181443
G02 X4.010199 Y2.045994 Z0.000000 I-1.484218 J0.204687
G02 X3.591719 Y1.540645 Z0.000000 I-1.692915 J0.975961
G03 X3.249038 Y1.186465 Z0.000000 I1.760125 J-2.045845
G03 X3.144132 Y0.984470 Z0.000000 I0.449756 J-0.361819
G03 X3.111491 Y0.740053 Z0.000000 I0.804614 J-0.231841
G03 X3.151298 Y0.529167 Z0.000000 I0.628533 J0.009441
G03 X3.396851 Y0.225717 Z0.000000 I0.577234 J0.216025
G03 X3.965442 Y0.009370 Z0.000000 I0.805446 J1.261484
G03 X4.054041 Y0.001096 Z0.000000 I0.107063 J0.667941
G03 X4.265303 Y0.001101 Z0.000000 I0.105542 J3.865173
G03 X4.759019 Y0.116633 Z0.000000 I-0.034486 J1.260057
G03 X5.072283 Y0.373721 Z0.000000 I-0.336805 J0.729799
G03 X5.718770 Y1.834931 Z0.000000 I-3.068171 J2.231079
G03 X6.064470 Y5.162680 Z0.000000 I-16.270332 J3.372058
G03 X6.058981 Y5.700190 Z0.000000 I-20.925235 J0.055093
G03 X6.047382 Y5.907922 Z0.000000 I-3.178602 J-0.073300
G03 X5.995083 Y6.439749 Z0.000000 I-27.928008 J-2.477904
G01 X5.990055 Y6.441499 Z0.000000
G01 X5.987283 Y6.435387 Z0.000000
G03 X5.961943 Y6.099195 Z0.000000 I27.486010 J-2.240802
G02 X5.827019 Y4.614475 Z0.000000 I-34.573379 J2.393379
G02 X5.649955 Y3.328235 Z0.000000 I-26.159727 J2.945835
G02 X4.971619 Y0.860604 Z0.000000 I-11.847293 J1.929695
G02 X4.503979 Y0.417819 Z0.000000 I-0.707007 J0.278356
G02 X3.957552 Y0.369391 Z0.000000 I-0.375664 J1.131767
G02 X3.610459 Y0.547353 Z0.000000 I0.086166 J0.595518
G02 X3.539885 Y0.655340 Z0.000000 I0.248416 J0.239404
G02 X3.516201 Y0.775005 Z0.000000 I0.290462 J0.119665
G02 X3.563979 Y0.932237 Z0.000000 I0.282604 J-0.000000
G02 X3.826535 Y1.238027 Z0.000000 I1.405004 J-0.940745
G03 X4.134325 Y1.567840 Z0.000000 I-1.954221 J2.132257
G03 X4.309951 Y1.844915 Z0.000000 I-1.191562 J0.949476
G03 X4.460589 Y2.311646 Z0.000000 I-1.524142 J0.749594
G03 X4.554690 Y3.291854 Z0.000000 I-6.785457 J1.146036
G03 X4.477159 Y5.005851 Z0.000000 I-12.385300 J0.298511
G03 X4.167737 Y6.652616 Z0.000000 I-11.695187 J-1.345035
G03 X4.029376 Y7.140881 Z0.000000 I-12.798626 J-3.363042
G01 X4.019461 Y7.140990 Z0.000000
G01 X4.017574 Y7.124006 Z0.000000
G03 X4.052533 Y6.796481 Z0.000000 I16.455798 J1.590809
G02 X4.162692 Y5.657155 Z0.000000 I-28.552455 J-3.335654
G02 X4.222308 Y4.579493 Z0.000000 I-25.365938 J-1.943714
G01 X4.232781 Y4.272466 Z0.000000
G01 X4.158367 Y4.335856 Z0.000000
G02 X4.086482 Y4.401905 Z0.000000 I0.850615 J0.997922
G02 X3.825984 Y4.665483 Z0.000000 I11.924027 J12.045173
G02 X2.633981 Y6.144471 Z0.000000 I7.578395 J7.327721
G02 X1.819561 Y7.674017 Z0.000000 I7.302820 J4.870047
G03 X1.739140 Y7.865467 Z0.000000 I-13.199173 J-5.431837
G01 X1.733571 Y7.874107 Z0.000000
G01 X1.733572 Y7.874110 Z0.000000
G00 Z5.000000

(End cutting path id: path1873)


(Start cutting path id: path1873)
(Change tool to Cylindrical cutter)

G00 Z5.000000
G00 X11.973498 Y6.589229

G01 Z0.000000 F100.0(Penetrate)
G01 X12.076576 Y6.467410 Z0.000000 F400.000000
G02 X12.256369 Y6.223924 Z0.000000 I-1.727092 J-1.463430
G02 X12.419431 Y5.931075 Z0.000000 I-2.312699 J-1.479566
G02 X12.587304 Y5.447495 Z0.000000 I-2.049657 J-0.982459
G02 X12.626688 Y5.009444 Z0.000000 I-1.634757 J-0.367773
G02 X12.584321 Y4.716517 Z0.000000 I-1.457248 J0.061239
G02 X12.503216 Y4.517209 Z0.000000 I-0.741646 J0.185645
G02 X12.167982 Y4.250627 Z0.000000 I-0.509928 J0.297174
G02 X11.665920 Y4.257588 Z0.000000 I-0.240327 J0.775559
G02 X11.203465 Y4.534600 Z0.000000 I0.413964 J1.215614
G02 X10.677591 Y5.180872 Z0.000000 I2.087844 J2.235977
G03 X10.610014 Y5.286290 Z0.000000 I-2.264109 J-1.377016
G01 X10.605933 Y5.286705 Z0.000000
G01 X10.597534 Y5.244567 Z0.000000
G03 X10.802166 Y4.801636 Z0.000000 I4.693646 J1.899706
G03 X11.287694 Y4.164165 Z0.000000 I2.100312 J1.096061
G03 X11.748602 Y3.920242 Z0.000000 I0.683091 J0.733324
G03 X11.935118 Y3.898591 Z0.000000 I0.192575 J0.844750
G03 X12.134453 Y3.917419 Z0.000000 I0.006932 J0.991175
G03 X12.680231 Y4.233766 Z0.000000 I-0.189653 J0.956175
G03 X12.915525 Y4.815349 Z0.000000 I-0.727043 J0.632532
G01 X12.956869 Y4.847612 Z0.000000
G02 X13.025768 Y4.793844 Z0.000000 I-0.018470 J-0.094696
G02 X13.118576 Y4.518202 Z0.000000 I-1.164485 J-0.545522
G02 X13.150894 Y4.210106 Z0.000000 I-1.419000 J-0.304592
G02 X13.138745 Y4.012124 Z0.000000 I-1.697028 J0.004777
G02 X13.110104 Y3.872210 Z0.000000 I-0.864017 J0.103976
G02 X12.958109 Y3.499820 Z0.000000 I-1.868625 J0.545488
G02 X12.763941 Y3.224533 Z0.000000 I-1.207992 J0.645911
G02 X12.278155 Y2.951106 Z0.000000 I-0.654638 J0.594816
G02 X11.353381 Y2.950580 Z0.000000 I-0.463743 J2.384582
G03 X11.247571 Y2.968585 Z0.000000 I-0.452729 J-2.340599
G01 X11.241484 Y2.966554 Z0.000000
G01 X11.242015 Y2.962192 Z0.000000
G03 X11.362752 Y2.891587 Z0.000000 I1.529106 J2.476281
G03 X11.612654 Y2.779711 Z0.000000 I0.787617 J1.424298
G03 X11.874280 Y2.712994 Z0.000000 I0.513211 J1.466168
G02 X11.988034 Y2.693574 Z0.000000 I-1.539612 J-9.361178
G02 X12.010981 Y2.688751 Z0.000000 I-0.063908 J-0.361092
G03 X12.151212 Y2.678312 Z0.000000 I0.101294 J0.413620
G03 X12.432661 Y2.727336 Z0.000000 I-0.161640 J1.760387
G03 X12.981433 Y3.017342 Z0.000000 I-0.337409 J1.302694
G03 X13.344922 Y3.525497 Z0.000000 I-0.898550 J1.026823
G03 X13.496720 Y4.516244 Z0.000000 I-1.966883 J0.808360
G03 X13.181211 Y5.428844 Z0.000000 I-1.967487 J-0.169371
G03 X12.689692 Y6.029107 Z0.000000 I-3.059382 J-2.003773
G03 X12.063898 Y6.530721 Z0.000000 I-2.746201 J-2.784887
G01 X11.973498 Y6.589229 Z0.000000
G00 Z5.000000

(End cutting path id: path1873)


(Start cutting path id: path1873)
(Change tool to Cylindrical cutter)

G00 Z5.000000
G00 X6.106914 Y3.075229

G01 Z0.000000 F100.0(Penetrate)
G01 X6.099127 Y3.062585 Z0.000000 F400.000000
G03 X6.175816 Y3.007431 Z0.000000 I0.216732 J0.220462
G03 X6.740741 Y2.789962 Z0.000000 I1.338580 J2.634775
G03 X7.400065 Y2.675599 Z0.000000 I0.941906 J3.472534
G03 X7.786580 Y2.667785 Z0.000000 I0.260166 J3.305645
G03 X8.188303 Y2.705365 Z0.000000 I-0.139425 J3.656382
G03 X8.353653 Y2.732795 Z0.000000 I-0.786326 J5.252138
G03 X8.530056 Y2.767652 Z0.000000 I-1.080692 J5.933008
G03 X9.033360 Y2.899295 Z0.000000 I-1.185954 J5.562118
G01 X9.027804 Y2.922544 Z0.000000
G02 X8.693423 Y2.886219 Z0.000000 I-0.472195 J2.789509
G02 X7.876866 Y2.866319 Z0.000000 I-0.816557 J16.743204
G02 X6.732078 Y2.933828 Z0.000000 I0.001261 J9.761546
G02 X6.106914 Y3.075229 Z0.000000 I0.359809 J3.043499
G01 X6.106914 Y3.075229 Z0.000000
G00 Z5.000000

(End cutting path id: path1873)


(Footer)
M5
G00 X0.0000 Y0.0000
M2
(Using default footer. To add your own footer create file "footer" in the output dir.)
(end)
%