%
(Header)
(Generated by gcodetools from Inkscape.)
(Using default header. To add your own header create file "header" in the output dir.)
M3
(Header end.)
G21 (All units in mm)

(Start cutting path id: path287)
(Change tool to Cylindrical cutter)

G00 Z5.000000
G00 X7.145717 Y51.499644

G01 Z0.000000 F100.0(Penetrate)
G03 X4.976972 Y51.331570 Z0.000000 I-0.082842 J-13.007342 F400.000000
G03 X3.693211 Y50.900099 Z0.000000 I0.668418 J-4.114281
G03 X2.346122 Y49.900738 Z0.000000 I2.613601 J-4.930588
G03 X1.001903 Y48.188867 Z0.000000 I6.673967 J-6.624320
G03 X0.116490 Y45.130454 Z0.000000 I5.128609 J-3.142107
G03 X0.926826 Y42.793996 Z0.000000 I3.627969 J-0.050489
G03 X1.106058 Y42.590374 Z0.000000 I2.622693 J2.127847
G01 X1.121818 Y42.590256 Z0.000000
G01 X1.128116 Y42.610159 Z0.000000
G03 X1.050912 Y43.017899 Z0.000000 I-8.635425 J-1.423910
G02 X0.820119 Y44.423268 Z0.000000 I14.486700 J3.100671
G02 X0.787099 Y45.313159 Z0.000000 I5.706153 J0.657289
G02 X0.843260 Y45.813911 Z0.000000 I3.542513 J-0.143777
G02 X0.973750 Y46.321249 Z0.000000 I3.738984 J-0.691233
G02 X2.281712 Y48.875928 Z0.000000 I8.964788 J-2.977687
G02 X3.693211 Y50.086198 Z0.000000 I3.218708 J-2.325647
G02 X4.974247 Y50.504048 Z0.000000 I1.958661 J-3.832209
G02 X7.284401 Y50.659218 Z0.000000 I2.004929 J-12.574894
G02 X9.249035 Y50.487795 Z0.000000 I-0.375382 J-15.645878
G02 X11.029917 Y50.092565 Z0.000000 I-1.998029 J-13.212905
G02 X11.605343 Y49.857367 Z0.000000 I-0.868916 J-2.947358
G02 X11.938142 Y49.608680 Z0.000000 I-0.643162 J-1.207717
G02 X12.196752 Y49.288243 Z0.000000 I-1.506703 J-1.480565
G02 X12.780675 Y48.326818 Z0.000000 I-13.205795 J-8.678588
G03 X13.656049 Y46.921656 Z0.000000 I15.396224 J8.616156
G03 X14.390662 Y45.994417 Z0.000000 I7.389187 J5.099521
G02 X15.500018 Y44.224904 Z0.000000 I-4.421726 J-4.004599
G02 X15.548102 Y43.129320 Z0.000000 I-1.523699 J-0.615720
G02 X15.485121 Y42.974108 Z0.000000 I-0.899638 J0.274663
G02 X14.721211 Y41.519561 Z0.000000 I-81.481914 J41.865465
G03 X13.947300 Y40.068344 Z0.000000 I273.587011 J-146.831437
G03 X13.782746 Y39.748511 Z0.000000 I13.144591 J-6.965145
G02 X13.615262 Y39.430645 Z0.000000 I-7.349873 J3.669600
G02 X13.553344 Y39.334663 Z0.000000 I-0.755732 J0.419562
G02 X13.479639 Y39.310040 Z0.000000 I-0.054485 J0.040469
G02 X13.319770 Y39.403636 Z0.000000 I0.109223 J0.369893
G02 X13.008040 Y39.754814 Z0.000000 I2.256053 J2.316577
G02 X12.192570 Y40.875449 Z0.000000 I22.719904 J17.389958
G01 X11.794244 Y41.450588 Z0.000000
G01 X11.819267 Y41.059027 Z0.000000
G03 X12.179120 Y39.763637 Z0.000000 I3.254474 J0.206399
G03 X13.367733 Y38.074017 Z0.000000 I6.839056 J3.548241
G01 X13.671171 Y37.747185 Z0.000000
G01 X14.078881 Y38.448605 Z0.000000
G03 X15.695351 Y41.284016 Z0.000000 I-162.302465 J94.407245
G03 X16.347880 Y42.509613 Z0.000000 I-29.991579 J16.754525
G03 X16.733532 Y43.859606 Z0.000000 I-3.302320 J1.673454
G03 X16.553299 Y44.860052 Z0.000000 I-1.928090 J0.169107
G03 X16.321956 Y45.229406 Z0.000000 I-1.706043 J-0.811443
G03 X15.696168 Y45.930747 Z0.000000 I-6.878466 J-5.507612
G02 X14.874235 Y46.868993 Z0.000000 I7.088043 J7.038491
G02 X13.955838 Y48.188867 Z0.000000 I12.992422 J10.019872
G03 X12.407147 Y50.102725 Z0.000000 I-8.616198 J-5.388683
G03 X11.203009 Y50.852348 Z0.000000 I-2.341652 J-2.419525
G03 X9.313558 Y51.329584 Z0.000000 I-3.391983 J-9.450451
G03 X7.145715 Y51.499644 Z0.000000 I-2.264144 J-14.959895
G01 X7.145717 Y51.499644 Z0.000000
G00 Z5.000000

(End cutting path id: path287)


(Start cutting path id: path287)
(Change tool to Cylindrical cutter)

G00 Z5.000000
G00 X7.238521 Y47.130907

G01 Z0.000000 F100.0(Penetrate)
G03 X6.860723 Y46.933118 Z0.000000 I0.000000 J-0.459714 F400.000000
G03 X6.655630 Y46.290476 Z0.000000 I0.946260 J-0.656036
G03 X6.695910 Y46.099609 Z0.000000 I0.448857 J-0.004960
G03 X6.777630 Y46.022006 Z0.000000 I0.136826 J0.062257
G03 X6.905873 Y45.991413 Z0.000000 I0.171674 J0.435548
G03 X7.737993 Y45.932871 Z0.000000 I1.707159 J18.322613
G02 X8.571288 Y45.877180 Z0.000000 I-1.027350 J-21.634036
G02 X8.709824 Y45.849039 Z0.000000 I-0.053200 J-0.616978
G01 X8.762522 Y45.891559 Z0.000000
G03 X8.687925 Y46.061271 Z0.000000 I-0.300144 J-0.030678
G03 X7.673050 Y46.987963 Z0.000000 I-4.929832 J-4.379878
G03 X7.238518 Y47.130907 Z0.000000 I-0.434532 J-0.588990
G01 X7.238521 Y47.130907 Z0.000000
G00 Z5.000000

(End cutting path id: path287)


(Start cutting path id: path287)
(Change tool to Cylindrical cutter)

G00 Z5.000000
G00 X2.003975 Y47.061928

G01 Z0.000000 F100.0(Penetrate)
G01 X2.043599 Y46.878350 Z0.000000 F400.000000
G02 X2.177359 Y46.032244 Z0.000000 I-7.682196 J-1.648099
G02 X2.223993 Y45.122154 Z0.000000 I-8.881552 J-0.911333
G02 X2.174683 Y44.377971 Z0.000000 I-5.625799 J-0.000957
G02 X2.058197 Y43.874248 Z0.000000 I-2.708265 J0.360954
G02 X1.973836 Y43.679353 Z0.000000 I-1.166009 J0.389006
G02 X1.646316 Y43.112342 Z0.000000 I-10.002395 J5.399545
G03 X1.065600 Y41.880180 Z0.000000 I5.177650 J-3.193145
G03 X0.913271 Y40.960335 Z0.000000 I2.701095 J-0.919845
G03 X0.943677 Y40.516653 Z0.000000 I3.252313 J0.000000
G03 X1.024844 Y40.152807 Z0.000000 I2.236957 J0.308047
G03 X1.453609 Y39.249992 Z0.000000 I3.388686 J1.056134
G03 X1.978949 Y38.710707 Z0.000000 I1.682646 J1.113617
G03 X2.413853 Y38.531178 Z0.000000 I0.620123 J0.885695
G03 X3.828767 Y38.389178 Z0.000000 I1.690048 J9.719721
G02 X5.090113 Y38.313788 Z0.000000 I-0.553921 J-19.857118
G02 X5.975765 Y38.191806 Z0.000000 I-0.900786 J-9.816238
G03 X7.071070 Y38.007176 Z0.000000 I6.592391 J35.767777
G03 X7.805771 Y37.912725 Z0.000000 I2.345574 J15.340677
G03 X7.987093 Y37.903314 Z0.000000 I0.180861 J1.733133
G03 X8.552371 Y37.912725 Z0.000000 I-0.004563 J17.255160
G03 X9.989924 Y38.195304 Z0.000000 I-0.150371 J4.562871
G03 X10.879763 Y38.776496 Z0.000000 I-0.834537 J2.249517
G03 X11.448258 Y39.910317 Z0.000000 I-1.522050 J1.472584
G03 X11.440756 Y42.239019 Z0.000000 I-7.045364 J1.141667
G02 X11.290333 Y43.338803 Z0.000000 I17.550925 J2.960712
G02 X11.253063 Y44.025988 Z0.000000 I6.771064 J0.711836
G02 X11.280884 Y44.712389 Z0.000000 I7.714630 J0.031080
G02 X11.346910 Y45.121094 Z0.000000 I2.748330 J-0.234302
G02 X11.585613 Y45.863910 Z0.000000 I5.020438 J-1.203551
G02 X11.918330 Y46.526054 Z0.000000 I4.344594 J-1.768432
G03 X12.092097 Y46.840392 Z0.000000 I-3.868112 J2.343492
G01 X12.083083 Y46.855004 Z0.000000
G03 X12.050936 Y46.845855 Z0.000000 I0.000000 J-0.061045
G03 X11.780689 Y46.667183 Z0.000000 I2.884558 J-4.656724
G03 X11.004399 Y45.938263 Z0.000000 I2.194550 J-3.114994
G03 X10.579454 Y45.170964 Z0.000000 I2.010548 J-1.614802
G03 X10.480123 Y44.595180 Z0.000000 I1.689477 J-0.587919
G03 X10.565899 Y43.220579 Z0.000000 I9.973034 J-0.067655
G02 X10.716865 Y41.186412 Z0.000000 I-17.638110 J-2.331704
G02 X10.612822 Y40.422336 Z0.000000 I-2.545029 J-0.042568
G02 X10.150659 Y39.605538 Z0.000000 I-1.995130 J0.589739
G02 X9.488750 Y39.196712 Z0.000000 I-1.055200 J0.968173
G02 X8.468533 Y39.054670 Z0.000000 I-1.015737 J3.560675
G02 X6.156159 Y39.201058 Z0.000000 I0.022619 J18.693864
G03 X5.589715 Y39.254233 Z0.000000 I-1.123830 J-8.927932
G03 X4.415829 Y39.309296 Z0.000000 I-2.408767 J-38.812198
G02 X2.969406 Y39.511220 Z0.000000 I0.217068 J6.836375
G02 X2.444011 Y39.803792 Z0.000000 I0.281886 J1.124238
G02 X2.077234 Y40.341747 Z0.000000 I1.130863 J1.165030
G02 X1.916385 Y41.063373 Z0.000000 I1.934220 J0.809875
G02 X2.001196 Y41.839742 Z0.000000 I2.595629 J0.109267
G02 X2.423156 Y42.968132 Z0.000000 I5.940385 J-1.578307
G03 X2.734416 Y43.667529 Z0.000000 I-9.220067 J4.522272
G03 X2.816268 Y43.949692 Z0.000000 I-1.377974 J0.552685
G03 X2.857347 Y44.690249 Z0.000000 I-2.860014 J0.530064
G03 X2.697396 Y45.587040 Z0.000000 I-4.372844 J-0.317278
G03 X2.356111 Y46.527636 Z0.000000 I-7.128379 J-2.054240
G03 X2.097821 Y46.947432 Z0.000000 I-1.662787 J-0.733712
G01 X2.003975 Y47.061928 Z0.000000
G00 Z5.000000

(End cutting path id: path287)


(Start cutting path id: path287)
(Change tool to Cylindrical cutter)

G00 Z5.000000
G00 X3.738049 Y47.044977

G01 Z0.000000 F100.0(Penetrate)
G03 X3.262716 Y46.756014 Z0.000000 I1.048330 J-2.259898 F400.000000
G03 X2.802712 Y46.321276 Z0.000000 I1.956963 J-2.531430
G01 X2.815767 Y46.276346 Z0.000000
G03 X3.050884 Y46.246995 Z0.000000 I0.204917 J0.685102
G02 X3.374910 Y46.241133 Z0.000000 I0.113457 J-2.686875
G02 X3.738049 Y46.193914 Z0.000000 I-0.281645 J-3.585964
G03 X4.100709 Y46.143814 Z0.000000 I0.767835 J4.220524
G03 X4.348050 Y46.135552 Z0.000000 I0.191089 J2.014124
G01 X4.597265 Y46.141908 Z0.000000
G01 X4.610821 Y46.347773 Z0.000000
G03 X4.559660 Y46.808865 Z0.000000 I-1.290006 J0.090252
G03 X4.403316 Y47.040701 Z0.000000 I-0.449657 J-0.134602
G03 X4.142995 Y47.132978 Z0.000000 I-0.262982 J-0.328563
G03 X3.738049 Y47.045048 Z0.000000 I-0.006001 J-0.948780
G01 X3.738049 Y47.044977 Z0.000000
G00 Z5.000000

(End cutting path id: path287)


(Start cutting path id: path287)
(Change tool to Cylindrical cutter)

G00 Z5.000000
G00 X4.470051 Y43.883821

G01 Z0.000000 F100.0(Penetrate)
G03 X3.689948 Y43.871721 Z0.000000 I-0.352350 J-2.436638 F400.000000
G03 X3.133260 Y43.605806 Z0.000000 I0.200208 J-1.134797
G03 X2.871155 Y43.239525 Z0.000000 I0.640343 J-0.735141
G03 X2.831909 Y42.867245 Z0.000000 I0.620511 J-0.253623
G03 X3.116827 Y42.288876 Z0.000000 I1.148598 J0.206463
G03 X3.729707 Y41.879317 Z0.000000 I1.128660 J1.025623
G03 X4.450505 Y41.852177 Z0.000000 I0.403151 J1.121833
G03 X5.381404 Y42.336673 Z0.000000 I-0.670233 J2.424321
G03 X5.692283 Y42.812618 Z0.000000 I-0.608114 J0.736711
G03 X5.638960 Y43.243952 Z0.000000 I-0.537499 J0.152517
G03 X5.211038 Y43.649530 Z0.000000 I-0.894238 J-0.514968
G03 X4.470051 Y43.883821 Z0.000000 I-1.084394 J-2.140685
G01 X4.470051 Y43.883821 Z0.000000
G00 Z5.000000

(End cutting path id: path287)


(Start cutting path id: path287)
(Change tool to Cylindrical cutter)

G00 Z5.000000
G00 X14.238423 Y38.151481

G01 Z0.000000 F100.0(Penetrate)
G01 X14.220480 Y38.117201 Z0.000000 F400.000000
G03 X14.403176 Y37.666536 Z0.000000 I6.957298 J2.558057
G02 X14.633680 Y37.122393 Z0.000000 I-15.653401 J-6.951831
G02 X14.926630 Y36.367696 Z0.000000 I-28.492811 J-11.494215
G03 X16.043860 Y33.515049 Z0.000000 I88.591339 J33.051415
G03 X16.664875 Y32.134780 Z0.000000 I21.024846 J8.629723
G03 X19.022322 Y28.137470 Z0.000000 I27.164102 J13.326443
G03 X21.697129 Y24.928535 Z0.000000 I20.113053 J14.045971
G03 X22.900374 Y23.852750 Z0.000000 I9.386210 J9.287503
G03 X25.092285 Y22.247021 Z0.000000 I23.313050 J29.524730
G02 X26.683574 Y21.076558 Z0.000000 I-14.577213 J-21.485213
G02 X27.474942 Y20.350749 Z0.000000 I-4.781837 J-6.008090
G02 X28.657982 Y18.577553 Z0.000000 I-4.565777 J-4.327438
G02 X30.405037 Y13.757849 Z0.000000 I-33.320715 J-14.804642
G02 X31.541058 Y9.020680 Z0.000000 I-55.757542 J-15.876031
G02 X31.759553 Y6.834928 Z0.000000 I-11.519365 J-2.255310
G01 X31.763718 Y6.120772 Z0.000000
G01 X31.615649 Y5.816227 Z0.000000
G02 X31.209235 Y5.248653 Z0.000000 I-1.846167 J0.892660
G02 X30.541628 Y4.757202 Z0.000000 I-2.031216 J2.060111
G02 X29.061353 Y4.369129 Z0.000000 I-1.552652 J2.905240
G02 X28.123518 Y4.704121 Z0.000000 I-0.030646 J1.394470
G02 X28.036947 Y5.071760 Z0.000000 I0.208096 J0.243014
G02 X28.571896 Y5.765270 Z0.000000 I1.587326 J-0.671330
G03 X28.824172 Y5.961974 Z0.000000 I-17.954138 J23.286623
G03 X28.879503 Y6.007210 Z0.000000 I-1.253067 J1.589177
G02 X28.936596 Y6.046190 Z0.000000 I0.215982 J-0.255045
G02 X28.962923 Y6.052848 Z0.000000 I0.026326 J-0.048716
G03 X29.133655 Y6.124089 Z0.000000 I0.000000 J0.240206
G03 X29.346650 Y6.440172 Z0.000000 I-0.727712 J0.720181
G03 X29.463617 Y7.096801 Z0.000000 I-1.347251 J0.578721
G03 X29.250718 Y8.237752 Z0.000000 I-4.425678 J-0.235483
G03 X28.875386 Y9.049002 Z0.000000 I-3.622948 J-1.183741
G03 X28.304955 Y9.778538 Z0.000000 I-3.506727 J-2.154161
G03 X27.721278 Y10.235056 Z0.000000 I-2.028562 J-1.992214
G03 X26.407171 Y10.896984 Z0.000000 I-5.629363 J-9.540411
G02 X24.654093 Y11.779391 Z0.000000 I5.781443 J13.668617
G02 X23.445795 Y12.642570 Z0.000000 I4.297861 J7.293544
G02 X22.348995 Y13.787967 Z0.000000 I5.221076 J6.097383
G02 X21.724234 Y14.839144 Z0.000000 I3.754085 J2.942473
G02 X21.341785 Y16.163047 Z0.000000 I5.014277 J2.165716
G02 X21.221634 Y18.059721 Z0.000000 I10.278151 J1.603245
G02 X21.328757 Y19.366220 Z0.000000 I12.227512 J-0.344927
G02 X21.567823 Y20.601170 Z0.000000 I11.173863 J-1.522460
G03 X21.685790 Y21.090249 Z0.000000 I-23.406547 J5.904457
G01 X21.681481 Y21.095661 Z0.000000
G03 X21.538423 Y21.000920 Z0.000000 I0.000000 J-0.155380
G03 X20.832692 Y19.092217 Z0.000000 I20.042435 J-8.495378
G03 X20.449979 Y16.221637 Z0.000000 I7.933562 J-2.518525
G03 X21.053753 Y13.866070 Z0.000000 I5.865666 J0.248312
G03 X22.828329 Y11.687255 Z0.000000 I5.669576 J2.805613
G03 X26.519787 Y9.594960 Z0.000000 I8.878428 J11.361720
G02 X27.449319 Y9.142848 Z0.000000 I-2.196889 J-5.698358
G02 X27.933740 Y8.751346 Z0.000000 I-1.124238 J-1.886511
G02 X28.524283 Y7.905829 Z0.000000 I-2.723827 J-2.531417
G02 X28.666785 Y7.311370 Z0.000000 I-1.168667 J-0.594459
G02 X28.563113 Y6.976794 Z0.000000 I-0.591718 J-0.000000
G02 X28.179826 Y6.601463 Z0.000000 I-1.142155 J0.782995
G03 X27.413541 Y5.964344 Z0.000000 I2.408307 J-3.675933
G03 X27.017173 Y5.386450 Z0.000000 I1.565809 J-1.498839
G03 X26.906622 Y4.659163 Z0.000000 I1.172312 J-0.550243
G03 X27.207994 Y4.001652 Z0.000000 I1.241852 J0.171384
G03 X27.722751 Y3.562901 Z0.000000 I1.786088 J1.574155
G03 X28.293485 Y3.316156 Z0.000000 I1.073576 J1.699799
G03 X28.993765 Y3.247008 Z0.000000 I0.572319 J2.215483
G03 X29.909729 Y3.406351 Z0.000000 I-0.224056 J4.000290
G03 X31.582428 Y4.197835 Z0.000000 I-1.722620 J5.803789
G03 X32.655259 Y5.266542 Z0.000000 I-2.271132 J3.352736
G03 X33.053722 Y6.754399 Z0.000000 I-1.920155 J1.311522
G03 X32.082795 Y12.783705 Z0.000000 I-36.393582 J-2.767797
G03 X31.229004 Y16.040428 Z0.000000 I-125.938570 J-31.276117
G03 X30.652158 Y17.967403 Z0.000000 I-45.100296 J-12.451086
G03 X29.722604 Y19.983560 Z0.000000 I-8.850099 J-2.857995
G03 X28.344579 Y21.716433 Z0.000000 I-7.864326 J-4.839557
G03 X27.263345 Y22.637753 Z0.000000 I-6.832390 J-6.923178
G03 X25.209065 Y24.015937 Z0.000000 I-17.538556 J-23.922346
G02 X23.109504 Y25.428589 Z0.000000 I15.345734 J25.074236
G02 X22.090235 Y26.315445 Z0.000000 I4.971158 J6.742532
G02 X19.703636 Y29.242209 Z0.000000 I15.034086 J14.695833
G02 X17.381229 Y33.285053 Z0.000000 I26.583987 J17.959615
G02 X16.860912 Y34.366555 Z0.000000 I1994.751366 J960.340573
G02 X16.631500 Y34.843877 Z0.000000 I1969.822693 J947.062323
G03 X15.645287 Y36.573199 Z0.000000 I-12.759397 J-6.130667
G03 X14.696178 Y37.742931 Z0.000000 I-6.746178 J-4.503870
G03 X14.288786 Y38.138834 Z0.000000 I-8.100047 J-7.927526
G03 X14.238416 Y38.151470 Z0.000000 I-0.036744 J-0.039756
G01 X14.238423 Y38.151481 Z0.000000
G00 Z5.000000

(End cutting path id: path287)


(Start cutting path id: path287)
(Change tool to Cylindrical cutter)

G00 Z5.000000
G00 X3.320953 Y37.742942

G01 Z0.000000 F100.0(Penetrate)
G02 X3.731211 Y36.304887 Z0.000000 I-5.570125 J-2.366630 F400.000000
G02 X3.695296 Y35.330957 Z0.000000 I-2.537792 J-0.394043
G02 X3.611131 Y35.060777 Z0.000000 I-1.858956 J0.430891
G02 X3.249004 Y34.199776 Z0.000000 I-19.812626 J7.826308
G03 X2.316869 Y31.528654 Z0.000000 I15.341451 J-6.851877
G03 X1.902829 Y28.960894 Z0.000000 I13.770383 J-3.537672
G03 X1.900040 Y26.963027 Z0.000000 I14.912807 J-1.019757
G03 X2.222950 Y24.084926 Z0.000000 I31.256738 J2.049702
G02 X2.847448 Y18.892479 Z0.000000 I-67.475882 J-10.749135
G02 X3.359535 Y10.146764 Z0.000000 I-190.422588 J-15.537636
G02 X3.377137 Y8.609787 Z0.000000 I-31.842124 J-1.133255
G02 X3.335552 Y8.248374 Z0.000000 I-1.788248 J0.022660
G02 X3.012690 Y7.433154 Z0.000000 I-2.676954 J0.588645
G02 X1.982077 Y5.978584 Z0.000000 I-9.737603 J5.807026
G03 X1.180406 Y4.638695 Z0.000000 I3.860209 J-3.219379
G03 X1.059254 Y3.690750 Z0.000000 I1.749421 J-0.705299
G03 X1.789096 Y2.404238 Z0.000000 I1.943137 J0.252070
G03 X3.657758 Y1.641673 Z0.000000 I2.258853 J2.864457
G02 X4.008801 Y1.603149 Z0.000000 I-9.261020 J-86.006710
G03 X4.053998 Y1.598154 Z0.000000 I1.952695 J17.464473
G03 X4.477074 Y1.604685 Z0.000000 I0.185348 J1.699922
G03 X5.314669 Y1.775365 Z0.000000 I-0.966026 J6.881235
G03 X5.925452 Y2.017558 Z0.000000 I-0.743289 J2.765755
G03 X6.373048 Y2.343077 Z0.000000 I-0.962801 J1.794356
G03 X7.180368 Y3.587152 Z0.000000 I-2.252140 J2.345471
G03 X7.857907 Y6.467756 Z0.000000 I-12.180359 J4.384893
G03 X7.906214 Y7.136434 Z0.000000 I-7.517300 J0.879146
G03 X7.942369 Y9.480349 Z0.000000 I-94.582115 J2.631183
G02 X7.970723 Y11.825601 Z0.000000 I129.401175 J-0.391639
G02 X8.003891 Y12.401684 Z0.000000 I7.935036 J-0.167866
G02 X8.175043 Y14.049655 Z0.000000 I85.341905 J-8.030418
G02 X8.304200 Y15.042879 Z0.000000 I30.788444 J-3.498649
G03 X8.364075 Y15.500089 Z0.000000 I-14.946224 J2.189871
G03 X8.369892 Y15.618018 Z0.000000 I-0.893614 J0.103180
G01 X8.334153 Y15.641441 Z0.000000
G03 X8.212438 Y15.552229 Z0.000000 I0.124296 J-0.297219
G03 X7.678514 Y14.574511 Z0.000000 I2.119675 J-1.792181
G03 X7.195769 Y12.240393 Z0.000000 I12.156922 J-3.731292
G03 X7.165792 Y11.825407 Z0.000000 I5.443709 J-0.601809
G03 X7.107136 Y9.641641 Z0.000000 I150.272825 J-5.128995
G02 X7.043019 Y7.457586 Z0.000000 I-111.712195 J2.186529
G02 X6.993477 Y6.720306 Z0.000000 I-13.201705 J0.516795
G02 X6.509195 Y4.427532 Z0.000000 I-10.336474 J0.985747
G02 X5.918414 Y3.491237 Z0.000000 I-2.194893 J0.730396
G02 X5.234141 Y3.069173 Z0.000000 I-1.315118 J1.366419
G02 X4.089451 Y2.846060 Z0.000000 I-1.327826 J3.764469
G02 X2.748705 Y3.076409 Z0.000000 I-0.145527 J3.170048
G02 X2.241719 Y3.597350 Z0.000000 I0.341223 J0.839254
G02 X2.195602 Y3.813502 Z0.000000 I0.697799 J0.261874
G02 X2.210437 Y4.095031 Z0.000000 I1.236518 J0.075999
G02 X2.379085 Y4.593896 Z0.000000 I1.637403 J-0.275606
G02 X2.908029 Y5.417217 Z0.000000 I5.050371 J-2.663049
G03 X4.042973 Y7.304143 Z0.000000 I-7.575354 J5.841193
G03 X4.396016 Y8.694038 Z0.000000 I-3.699502 J1.679486
G03 X4.484522 Y11.580472 Z0.000000 I-35.410749 J2.530363
G03 X4.303213 Y17.921770 Z0.000000 I-170.958344 J-1.714777
G03 X4.015423 Y21.783324 Z0.000000 I-70.970252 J-3.347687
G03 X3.693211 Y23.908758 Z0.000000 I-21.916529 J-2.235371
G02 X3.309868 Y27.056198 Z0.000000 I19.925226 J4.023856
G02 X3.425227 Y30.099487 Z0.000000 I18.798595 J0.811254
G02 X3.743272 Y31.981669 Z0.000000 I19.552207 J-2.335908
G02 X4.260460 Y33.905819 Z0.000000 I20.846027 J-4.571575
G03 X4.621534 Y35.202979 Z0.000000 I-16.976562 J5.424382
G03 X4.676513 Y35.654589 Z0.000000 I-1.970169 J0.468999
G03 X4.487906 Y36.578106 Z0.000000 I-2.260029 J0.019459
G03 X3.934083 Y37.356667 Z0.000000 I-2.132636 J-0.930775
G03 X3.372614 Y37.786904 Z0.000000 I-2.615143 J-2.831334
G01 X3.320953 Y37.742925 Z0.000000
G01 X3.320953 Y37.742942 Z0.000000
G00 Z5.000000

(End cutting path id: path287)


(Start cutting path id: path287)
(Change tool to Cylindrical cutter)

G00 Z5.000000
G00 X5.174942 Y23.578759

G01 Z0.000000 F100.0(Penetrate)
G01 X5.156386 Y23.569347 Z0.000000 F400.000000
G03 X5.351165 Y22.706496 Z0.000000 I19.155861 J3.870812
G03 X6.357404 Y19.849889 Z0.000000 I15.648822 J3.906766
G03 X7.926728 Y17.130172 Z0.000000 I15.745518 J7.272816
G03 X9.228424 Y15.500441 Z0.000000 I14.224337 J10.026527
G03 X10.585711 Y14.183367 Z0.000000 I10.564918 J9.529585
G03 X11.643455 Y13.341650 Z0.000000 I13.802120 J16.258962
G03 X12.324998 Y12.886645 Z0.000000 I4.728479 J6.344776
G02 X12.554161 Y12.682771 Z0.000000 I-0.414834 J-0.697021
G02 X12.636777 Y12.479165 Z0.000000 I-0.329348 J-0.252202
G02 X12.736459 Y10.368045 Z0.000000 I-14.936216 J-1.763167
G02 X12.527289 Y7.754942 Z0.000000 I-23.107344 J0.534738
G02 X11.970646 Y6.126408 Z0.000000 I-4.450658 J0.611865
G02 X10.721266 Y4.613949 Z0.000000 I-5.074560 J2.919620
G03 X9.698784 Y3.553292 Z0.000000 I5.256071 J-6.090070
G03 X9.385519 Y2.947946 Z0.000000 I1.353313 J-1.084066
G03 X9.288324 Y2.215928 Z0.000000 I2.411373 J-0.692634
G03 X9.407419 Y1.584376 Z0.000000 I1.891580 J0.029698
G03 X10.141088 Y0.675655 Z0.000000 I1.728134 J0.644705
G03 X11.836999 Y0.028731 Z0.000000 I2.403548 J3.754519
G03 X12.101978 Y0.003648 Z0.000000 I0.323242 J2.002569
G03 X12.733753 Y0.003250 Z0.000000 I0.322968 J11.240009
G03 X14.206764 Y0.349228 Z0.000000 I-0.102738 J3.746085
G03 X15.142479 Y1.119577 Z0.000000 I-1.010979 J2.181463
G03 X17.071545 Y5.493316 Z0.000000 I-9.203877 J6.671714
G03 X18.102813 Y15.459910 Z0.000000 I-48.928108 J10.099359
G03 X18.086374 Y17.069460 Z0.000000 I-62.626749 J0.165218
G03 X18.051720 Y17.691501 Z0.000000 I-9.558241 J-0.220495
G03 X17.896713 Y19.284375 Z0.000000 I-90.668999 J-8.019304
G01 X17.881754 Y19.289589 Z0.000000
G01 X17.873474 Y19.271513 Z0.000000
G03 X17.797292 Y18.264521 Z0.000000 I76.211313 J-6.271967
G02 X17.394608 Y13.818177 Z0.000000 I-103.973885 J7.175006
G02 X16.866127 Y9.966354 Z0.000000 I-78.497365 J8.807906
G02 X14.840188 Y2.574845 Z0.000000 I-35.564858 J5.774572
G02 X13.444903 Y1.251155 Z0.000000 I-2.112117 J0.829135
G02 X11.814859 Y1.106637 Z0.000000 I-1.119518 J3.362207
G02 X10.778621 Y1.639538 Z0.000000 I0.258704 J1.777000
G02 X10.567370 Y1.962528 Z0.000000 I0.751894 J0.722353
G02 X10.496039 Y2.320791 Z0.000000 I0.864023 J0.358263
G02 X10.638945 Y2.792023 Z0.000000 I0.848397 J-0.000000
G02 X11.423033 Y3.707712 Z0.000000 I4.213529 J-2.814425
G03 X12.341041 Y4.694750 Z0.000000 I-5.839926 J6.351928
G03 X12.865140 Y5.524395 Z0.000000 I-3.579144 J2.841360
G03 X13.315250 Y6.921652 Z0.000000 I-4.586584 J2.248643
G03 X13.597142 Y9.857057 Z0.000000 I-20.289557 J3.429680
G03 X13.365069 Y14.990470 Z0.000000 I-37.148551 J0.892528
G03 X12.440746 Y19.922031 Z0.000000 I-35.180136 J-4.041418
G03 X12.029138 Y21.383947 Z0.000000 I-40.226637 J-10.537042
G01 X11.999667 Y21.384293 Z0.000000
G03 X11.993991 Y21.333399 Z0.000000 I0.119161 J-0.039055
G03 X12.097685 Y20.351793 Z0.000000 I45.970041 J4.359865
G02 X12.425967 Y16.940231 Z0.000000 I-85.091725 J-9.909648
G02 X12.603413 Y13.713260 Z0.000000 I-76.758583 J-5.839193
G01 X12.634693 Y12.794310 Z0.000000
G01 X12.412588 Y12.984272 Z0.000000
G02 X12.198365 Y13.182208 Z0.000000 I2.462969 J2.880539
G02 X11.421987 Y13.972200 Z0.000000 I40.327089 J40.408609
G02 X7.863901 Y18.399836 Z0.000000 I22.732945 J21.911860
G02 X5.431455 Y22.981333 Z0.000000 I21.897946 J14.562708
G03 X5.191525 Y23.553008 Z0.000000 I-35.531778 J-14.576391
G03 X5.174942 Y23.578759 Z0.000000 I-0.084814 J-0.036404
G01 X5.174942 Y23.578759 Z0.000000
G00 Z5.000000

(End cutting path id: path287)


(Start cutting path id: path287)
(Change tool to Cylindrical cutter)

G00 Z5.000000
G00 X35.743856 Y19.731043

G01 Z0.000000 F100.0(Penetrate)
G01 X36.051464 Y19.367065 Z0.000000 F400.000000
G02 X36.587822 Y18.637850 Z0.000000 I-5.148188 J-4.348497
G02 X37.074390 Y17.760490 Z0.000000 I-6.986077 J-4.447952
G02 X37.575309 Y16.312502 Z0.000000 I-6.146880 J-2.937097
G02 X37.692734 Y15.000452 Z0.000000 I-4.916471 J-1.101291
G02 X37.565862 Y14.123803 Z0.000000 I-4.351636 J0.182280
G02 X37.323605 Y13.527579 Z0.000000 I-2.231168 J0.559238
G02 X36.322113 Y12.728567 Z0.000000 I-1.527420 J0.887339
G02 X34.824161 Y12.748694 Z0.000000 I-0.718169 J2.302761
G02 X33.444961 Y13.578181 Z0.000000 I1.234709 J3.614324
G02 X31.875297 Y15.515105 Z0.000000 I6.292041 J6.703487
G03 X31.672713 Y15.830230 Z0.000000 I-6.086952 J-3.690450
G01 X31.660493 Y15.831326 Z0.000000
G03 X31.635364 Y15.705313 Z0.000000 I0.083643 J-0.082192
G03 X32.245470 Y14.379680 Z0.000000 I14.002678 J5.641342
G03 X33.696536 Y12.469381 Z0.000000 I6.292139 J3.273254
G03 X35.072333 Y11.739545 Z0.000000 I2.040521 J2.184877
G03 X35.628779 Y11.674752 Z0.000000 I0.576150 J2.526208
G03 X36.223516 Y11.731069 Z0.000000 I0.022303 J2.932957
G03 X37.851892 Y12.677673 Z0.000000 I-0.566868 J2.849036
G03 X38.555079 Y14.421075 Z0.000000 I-2.187720 J1.895912
G02 X38.678741 Y14.517437 Z0.000000 I0.103637 J-0.005468
G02 X38.884584 Y14.356345 Z0.000000 I-0.055698 J-0.283230
G02 X39.161113 Y13.531200 Z0.000000 I-3.480264 J-1.625241
G02 X39.256841 Y12.608635 Z0.000000 I-4.269322 J-0.909250
G02 X39.220458 Y12.015457 Z0.000000 I-5.078885 J0.013812
G02 X39.134841 Y11.596302 Z0.000000 I-2.602549 J0.313281
G02 X38.681020 Y10.480119 Z0.000000 I-5.627110 J1.637537
G02 X38.101488 Y9.655463 Z0.000000 I-3.613531 J1.923467
G02 X36.650842 Y8.837721 Z0.000000 I-1.953027 J1.769034
G02 X33.891953 Y8.837318 Z0.000000 I-1.380482 J7.108139
G03 X33.575393 Y8.889184 Z0.000000 I-1.052633 J-5.432766
G01 X33.557234 Y8.882956 Z0.000000
G01 X33.558822 Y8.869920 Z0.000000
G03 X33.919064 Y8.659054 Z0.000000 I4.742602 J7.689069
G03 X34.666009 Y8.324489 Z0.000000 I2.328838 J4.198228
G03 X35.447718 Y8.125298 Z0.000000 I1.542451 J4.419774
G02 X35.786123 Y8.066628 Z0.000000 I-3.282390 J-19.937837
G02 X35.854386 Y8.052077 Z0.000000 I-0.209489 J-1.150154
G03 X36.273275 Y8.020795 Z0.000000 I0.302576 J1.231473
G03 X37.114014 Y8.167741 Z0.000000 I-0.482668 J5.240117
G03 X38.750883 Y9.035257 Z0.000000 I-1.008262 J3.880453
G03 X39.836604 Y10.557445 Z0.000000 I-2.696881 J3.071883
G03 X40.290275 Y13.524552 Z0.000000 I-5.912418 J2.422245
G03 X39.348602 Y16.256866 Z0.000000 I-5.900019 J-0.504972
G03 X37.881135 Y18.055167 Z0.000000 I-9.182113 J-5.994980
G03 X36.013925 Y19.557027 Z0.000000 I-8.201965 J-8.285568
G01 X35.743856 Y19.731043 Z0.000000
G00 Z5.000000

(End cutting path id: path287)


(Start cutting path id: path287)
(Change tool to Cylindrical cutter)

G00 Z5.000000
G00 X18.231068 Y9.208712

G01 Z0.000000 F100.0(Penetrate)
G01 X18.207611 Y9.170855 Z0.000000 F400.000000
G03 X18.435444 Y9.006032 Z0.000000 I0.641411 J0.646738
G03 X20.122232 Y8.354952 Z0.000000 I3.993809 J7.836413
G03 X22.090242 Y8.012801 Z0.000000 I2.812951 J10.348805
G03 X23.243749 Y7.988855 Z0.000000 I0.782425 J9.895459
G03 X24.442659 Y8.100877 Z0.000000 I-0.403760 J10.792913
G03 X24.936558 Y8.183091 Z0.000000 I-2.314278 J15.427500
G03 X25.463500 Y8.287638 Z0.000000 I-3.253193 J17.777078
G03 X26.966201 Y8.682460 Z0.000000 I-3.516506 J16.440990
G01 X26.949402 Y8.752421 Z0.000000
G02 X25.951170 Y8.643864 Z0.000000 I-1.405148 J8.277104
G02 X23.513580 Y8.584757 Z0.000000 I-2.437590 J50.233515
G02 X20.097107 Y8.785895 Z0.000000 I0.003719 J29.179367
G02 X18.231068 Y9.208712 Z0.000000 I1.066462 J9.035808
G01 X18.231068 Y9.208712 Z0.000000
G00 Z5.000000

(End cutting path id: path287)


(Footer)
M5
G00 X0.0000 Y0.0000
M2
(Using default footer. To add your own footer create file "footer" in the output dir.)
(end)
%